(Generated by PartKam Version 0.05)

G20 G90 G40

(spoons)
G0 Z0.1
T0 M6
G17
M3
G0 X25.9116 Y7.0653
G1 Z-0.125 F30
G1 X25.9116 Y4.7451 F60
G1 X25.9116 Y4.2451
G1 X25.9116 Y1.9472
G1 X25.9116 Y1.9472
G3 X25.9245 Y1.8106 I0.7293 J0
G3 X25.9598 Y1.6928 I0.5924 J0.113
G3 X26.0181 Y1.5846 I0.5572 J0.2308
G3 X26.1056 Y1.4788 I0.6032 J0.4099
G3 X26.2114 Y1.3913 I0.5157 J0.5157
G3 X26.3196 Y1.333 I0.339 J0.4988
G3 X26.4374 Y1.2977 I0.2308 J0.5572
G3 X26.574 Y1.2848 I0.1366 J0.7164
G1 X27.5583 Y1.2848
G3 X27.7297 Y1.3074 I0 J0.6624
G3 X27.8895 Y1.3736 I-0.1714 J0.6398
G3 X28.0267 Y1.4788 I-0.3312 J0.5737
G3 X28.1319 Y1.616 I-0.4684 J0.4684
G3 X28.1981 Y1.7758 I-0.5737 J0.3312
G3 X28.2207 Y1.9472 I-0.6398 J0.1714
G1 X28.2207 Y1.9472
G1 X28.2207 Y4.2838
G1 X28.2207 Y4.7838
G1 X28.2207 Y7.0653
G1 X28.2207 Y7.0653
G3 X28.1981 Y7.2368 I-0.6624 J0
G3 X28.1319 Y7.3965 I-0.6398 J-0.1714
G3 X28.0267 Y7.5337 I-0.5737 J-0.3312
G3 X27.8895 Y7.639 I-0.4684 J-0.4684
G3 X27.7297 Y7.7052 I-0.3312 J-0.5737
G3 X27.5583 Y7.7277 I-0.1714 J-0.6398
G1 X26.574 Y7.7277
G3 X26.4374 Y7.7148 I0 J-0.7293
G3 X26.3196 Y7.6796 I0.113 J-0.5924
G3 X26.2114 Y7.6212 I0.2308 J-0.5572
G3 X26.1056 Y7.5337 I0.4099 J-0.6032
G3 X26.0181 Y7.428 I0.5157 J-0.5157
G3 X25.9598 Y7.3198 I0.4988 J-0.339
G3 X25.9245 Y7.202 I0.5572 J-0.2308
G3 X25.9116 Y7.0653 I0.7164 J-0.1366
G1 X25.9116 Y7.0653
G1 Z-0.25 F30
G1 X25.9116 Y4.7451 F60
G1 X25.9116 Y4.2451
G1 X25.9116 Y1.9472
G1 X25.9116 Y1.9472
G3 X25.9245 Y1.8106 I0.7293 J0
G3 X25.9598 Y1.6928 I0.5924 J0.113
G3 X26.0181 Y1.5846 I0.5572 J0.2308
G3 X26.1056 Y1.4788 I0.6032 J0.4099
G3 X26.2114 Y1.3913 I0.5157 J0.5157
G3 X26.3196 Y1.333 I0.339 J0.4988
G3 X26.4374 Y1.2977 I0.2308 J0.5572
G3 X26.574 Y1.2848 I0.1366 J0.7164
G1 X27.5583 Y1.2848
G3 X27.7297 Y1.3074 I0 J0.6624
G3 X27.8895 Y1.3736 I-0.1714 J0.6398
G3 X28.0267 Y1.4788 I-0.3312 J0.5737
G3 X28.1319 Y1.616 I-0.4684 J0.4684
G3 X28.1981 Y1.7758 I-0.5737 J0.3312
G3 X28.2207 Y1.9472 I-0.6398 J0.1714
G1 X28.2207 Y1.9472
G1 X28.2207 Y4.2838
G1 X28.2207 Y4.7838
G1 X28.2207 Y7.0653
G1 X28.2207 Y7.0653
G3 X28.1981 Y7.2368 I-0.6624 J0
G3 X28.1319 Y7.3965 I-0.6398 J-0.1714
G3 X28.0267 Y7.5337 I-0.5737 J-0.3312
G3 X27.8895 Y7.639 I-0.4684 J-0.4684
G3 X27.7297 Y7.7052 I-0.3312 J-0.5737
G3 X27.5583 Y7.7277 I-0.1714 J-0.6398
G1 X26.574 Y7.7277
G3 X26.4374 Y7.7148 I0 J-0.7293
G3 X26.3196 Y7.6796 I0.113 J-0.5924
G3 X26.2114 Y7.6212 I0.2308 J-0.5572
G3 X26.1056 Y7.5337 I0.4099 J-0.6032
G3 X26.0181 Y7.428 I0.5157 J-0.5157
G3 X25.9598 Y7.3198 I0.4988 J-0.339
G3 X25.9245 Y7.202 I0.5572 J-0.2308
G3 X25.9116 Y7.0653 I0.7164 J-0.1366
G1 X25.9116 Y7.0653
G1 Z-0.375 F30
G1 X25.9116 Y4.7451 F60
G1 X25.9116 Y4.2451
G1 X25.9116 Y1.9472
G1 X25.9116 Y1.9472
G3 X25.9245 Y1.8106 I0.7293 J0
G3 X25.9598 Y1.6928 I0.5924 J0.113
G3 X26.0181 Y1.5846 I0.5572 J0.2308
G3 X26.1056 Y1.4788 I0.6032 J0.4099
G3 X26.2114 Y1.3913 I0.5157 J0.5157
G3 X26.3196 Y1.333 I0.339 J0.4988
G3 X26.4374 Y1.2977 I0.2308 J0.5572
G3 X26.574 Y1.2848 I0.1366 J0.7164
G1 X27.5583 Y1.2848
G3 X27.7297 Y1.3074 I0 J0.6624
G3 X27.8895 Y1.3736 I-0.1714 J0.6398
G3 X28.0267 Y1.4788 I-0.3312 J0.5737
G3 X28.1319 Y1.616 I-0.4684 J0.4684
G3 X28.1981 Y1.7758 I-0.5737 J0.3312
G3 X28.2207 Y1.9472 I-0.6398 J0.1714
G1 X28.2207 Y1.9472
G1 X28.2207 Y4.2838
G1 X28.2207 Y4.7838
G1 X28.2207 Y7.0653
G1 X28.2207 Y7.0653
G3 X28.1981 Y7.2368 I-0.6624 J0
G3 X28.1319 Y7.3965 I-0.6398 J-0.1714
G3 X28.0267 Y7.5337 I-0.5737 J-0.3312
G3 X27.8895 Y7.639 I-0.4684 J-0.4684
G3 X27.7297 Y7.7052 I-0.3312 J-0.5737
G3 X27.5583 Y7.7277 I-0.1714 J-0.6398
G1 X26.574 Y7.7277
G3 X26.4374 Y7.7148 I0 J-0.7293
G3 X26.3196 Y7.6796 I0.113 J-0.5924
G3 X26.2114 Y7.6212 I0.2308 J-0.5572
G3 X26.1056 Y7.5337 I0.4099 J-0.6032
G3 X26.0181 Y7.428 I0.5157 J-0.5157
G3 X25.9598 Y7.3198 I0.4988 J-0.339
G3 X25.9245 Y7.202 I0.5572 J-0.2308
G3 X25.9116 Y7.0653 I0.7164 J-0.1366
G1 X25.9116 Y7.0653
G1 Z-0.5 F30
G1 X25.9116 Y4.7451 F60
G1 X25.9116 Y4.2451
G1 X25.9116 Y1.9472
G1 X25.9116 Y1.9472
G3 X25.9245 Y1.8106 I0.7293 J0
G3 X25.9598 Y1.6928 I0.5924 J0.113
G3 X26.0181 Y1.5846 I0.5572 J0.2308
G3 X26.1056 Y1.4788 I0.6032 J0.4099
G3 X26.2114 Y1.3913 I0.5157 J0.5157
G3 X26.3196 Y1.333 I0.339 J0.4988
G3 X26.4374 Y1.2977 I0.2308 J0.5572
G3 X26.574 Y1.2848 I0.1366 J0.7164
G1 X27.5583 Y1.2848
G3 X27.7297 Y1.3074 I0 J0.6624
G3 X27.8895 Y1.3736 I-0.1714 J0.6398
G3 X28.0267 Y1.4788 I-0.3312 J0.5737
G3 X28.1319 Y1.616 I-0.4684 J0.4684
G3 X28.1981 Y1.7758 I-0.5737 J0.3312
G3 X28.2207 Y1.9472 I-0.6398 J0.1714
G1 X28.2207 Y1.9472
G1 X28.2207 Y4.2838
G1 X28.2207 Y4.7838
G1 X28.2207 Y7.0653
G1 X28.2207 Y7.0653
G3 X28.1981 Y7.2368 I-0.6624 J0
G3 X28.1319 Y7.3965 I-0.6398 J-0.1714
G3 X28.0267 Y7.5337 I-0.5737 J-0.3312
G3 X27.8895 Y7.639 I-0.4684 J-0.4684
G3 X27.7297 Y7.7052 I-0.3312 J-0.5737
G3 X27.5583 Y7.7277 I-0.1714 J-0.6398
G1 X26.574 Y7.7277
G3 X26.4374 Y7.7148 I0 J-0.7293
G3 X26.3196 Y7.6796 I0.113 J-0.5924
G3 X26.2114 Y7.6212 I0.2308 J-0.5572
G3 X26.1056 Y7.5337 I0.4099 J-0.6032
G3 X26.0181 Y7.428 I0.5157 J-0.5157
G3 X25.9598 Y7.3198 I0.4988 J-0.339
G3 X25.9245 Y7.202 I0.5572 J-0.2308
G3 X25.9116 Y7.0653 I0.7164 J-0.1366
G1 X25.9116 Y7.0653
G1 Z-0.625 F30
G1 X25.9116 Y4.7451 F60
G1 Z-0.55 F30
G1 X25.9116 Y4.2451 F60
G1 Z-0.625 F30
G1 X25.9116 Y1.9472 F60
G1 X25.9116 Y1.9472
G3 X25.9245 Y1.8106 I0.7293 J0
G3 X25.9598 Y1.6928 I0.5924 J0.113
G3 X26.0181 Y1.5846 I0.5572 J0.2308
G3 X26.1056 Y1.4788 I0.6032 J0.4099
G3 X26.2114 Y1.3913 I0.5157 J0.5157
G3 X26.3196 Y1.333 I0.339 J0.4988
G3 X26.4374 Y1.2977 I0.2308 J0.5572
G3 X26.574 Y1.2848 I0.1366 J0.7164
G1 X27.5583 Y1.2848
G3 X27.7297 Y1.3074 I0 J0.6624
G3 X27.8895 Y1.3736 I-0.1714 J0.6398
G3 X28.0267 Y1.4788 I-0.3312 J0.5737
G3 X28.1319 Y1.616 I-0.4684 J0.4684
G3 X28.1981 Y1.7758 I-0.5737 J0.3312
G3 X28.2207 Y1.9472 I-0.6398 J0.1714
G1 X28.2207 Y1.9472
G1 X28.2207 Y4.2838
G1 Z-0.55 F30
G1 X28.2207 Y4.7838 F60
G1 Z-0.625 F30
G1 X28.2207 Y7.0653 F60
G1 X28.2207 Y7.0653
G3 X28.1981 Y7.2368 I-0.6624 J0
G3 X28.1319 Y7.3965 I-0.6398 J-0.1714
G3 X28.0267 Y7.5337 I-0.5737 J-0.3312
G3 X27.8895 Y7.639 I-0.4684 J-0.4684
G3 X27.7297 Y7.7052 I-0.3312 J-0.5737
G3 X27.5583 Y7.7277 I-0.1714 J-0.6398
G1 X26.574 Y7.7277
G3 X26.4374 Y7.7148 I0 J-0.7293
G3 X26.3196 Y7.6796 I0.113 J-0.5924
G3 X26.2114 Y7.6212 I0.2308 J-0.5572
G3 X26.1056 Y7.5337 I0.4099 J-0.6032
G3 X26.0181 Y7.428 I0.5157 J-0.5157
G3 X25.9598 Y7.3198 I0.4988 J-0.339
G3 X25.9245 Y7.202 I0.5572 J-0.2308
G3 X25.9116 Y7.0653 I0.7164 J-0.1366
G1 X25.9116 Y7.0653
G1 Z-0.75 F30
G1 X25.9116 Y4.7451 F60
G1 Z-0.55 F30
G1 X25.9116 Y4.2451 F60
G1 Z-0.75 F30
G1 X25.9116 Y1.9472 F60
G1 X25.9116 Y1.9472
G3 X25.9245 Y1.8106 I0.7293 J0
G3 X25.9598 Y1.6928 I0.5924 J0.113
G3 X26.0181 Y1.5846 I0.5572 J0.2308
G3 X26.1056 Y1.4788 I0.6032 J0.4099
G3 X26.2114 Y1.3913 I0.5157 J0.5157
G3 X26.3196 Y1.333 I0.339 J0.4988
G3 X26.4374 Y1.2977 I0.2308 J0.5572
G3 X26.574 Y1.2848 I0.1366 J0.7164
G1 X27.5583 Y1.2848
G3 X27.7297 Y1.3074 I0 J0.6624
G3 X27.8895 Y1.3736 I-0.1714 J0.6398
G3 X28.0267 Y1.4788 I-0.3312 J0.5737
G3 X28.1319 Y1.616 I-0.4684 J0.4684
G3 X28.1981 Y1.7758 I-0.5737 J0.3312
G3 X28.2207 Y1.9472 I-0.6398 J0.1714
G1 X28.2207 Y1.9472
G1 X28.2207 Y4.2838
G1 Z-0.55 F30
G1 X28.2207 Y4.7838 F60
G1 Z-0.75 F30
G1 X28.2207 Y7.0653 F60
G1 X28.2207 Y7.0653
G3 X28.1981 Y7.2368 I-0.6624 J0
G3 X28.1319 Y7.3965 I-0.6398 J-0.1714
G3 X28.0267 Y7.5337 I-0.5737 J-0.3312
G3 X27.8895 Y7.639 I-0.4684 J-0.4684
G3 X27.7297 Y7.7052 I-0.3312 J-0.5737
G3 X27.5583 Y7.7277 I-0.1714 J-0.6398
G1 X26.574 Y7.7277
G3 X26.4374 Y7.7148 I0 J-0.7293
G3 X26.3196 Y7.6796 I0.113 J-0.5924
G3 X26.2114 Y7.6212 I0.2308 J-0.5572
G3 X26.1056 Y7.5337 I0.4099 J-0.6032
G3 X26.0181 Y7.428 I0.5157 J-0.5157
G3 X25.9598 Y7.3198 I0.4988 J-0.339
G3 X25.9245 Y7.202 I0.5572 J-0.2308
G3 X25.9116 Y7.0653 I0.7164 J-0.1366
G1 X25.9116 Y7.0653
G1 Z-0.8 F30
G1 X25.9116 Y4.7451 F60
G1 Z-0.55 F30
G1 X25.9116 Y4.2451 F60
G1 Z-0.8 F30
G1 X25.9116 Y1.9472 F60
G1 X25.9116 Y1.9472
G3 X25.9245 Y1.8106 I0.7293 J0
G3 X25.9598 Y1.6928 I0.5924 J0.113
G3 X26.0181 Y1.5846 I0.5572 J0.2308
G3 X26.1056 Y1.4788 I0.6032 J0.4099
G3 X26.2114 Y1.3913 I0.5157 J0.5157
G3 X26.3196 Y1.333 I0.339 J0.4988
G3 X26.4374 Y1.2977 I0.2308 J0.5572
G3 X26.574 Y1.2848 I0.1366 J0.7164
G1 X27.5583 Y1.2848
G3 X27.7297 Y1.3074 I0 J0.6624
G3 X27.8895 Y1.3736 I-0.1714 J0.6398
G3 X28.0267 Y1.4788 I-0.3312 J0.5737
G3 X28.1319 Y1.616 I-0.4684 J0.4684
G3 X28.1981 Y1.7758 I-0.5737 J0.3312
G3 X28.2207 Y1.9472 I-0.6398 J0.1714
G1 X28.2207 Y1.9472
G1 X28.2207 Y4.2838
G1 Z-0.55 F30
G1 X28.2207 Y4.7838 F60
G1 Z-0.8 F30
G1 X28.2207 Y7.0653 F60
G1 X28.2207 Y7.0653
G3 X28.1981 Y7.2368 I-0.6624 J0
G3 X28.1319 Y7.3965 I-0.6398 J-0.1714
G3 X28.0267 Y7.5337 I-0.5737 J-0.3312
G3 X27.8895 Y7.639 I-0.4684 J-0.4684
G3 X27.7297 Y7.7052 I-0.3312 J-0.5737
G3 X27.5583 Y7.7277 I-0.1714 J-0.6398
G1 X26.574 Y7.7277
G3 X26.4374 Y7.7148 I0 J-0.7293
G3 X26.3196 Y7.6796 I0.113 J-0.5924
G3 X26.2114 Y7.6212 I0.2308 J-0.5572
G3 X26.1056 Y7.5337 I0.4099 J-0.6032
G3 X26.0181 Y7.428 I0.5157 J-0.5157
G3 X25.9598 Y7.3198 I0.4988 J-0.339
G3 X25.9245 Y7.202 I0.5572 J-0.2308
G3 X25.9116 Y7.0653 I0.7164 J-0.1366
G1 X25.9116 Y7.0653
G0 Z0.1
G0 X22.3289 Y7.0653
G1 Z-0.125 F30
G1 X22.3289 Y4.5814 F60
G1 X22.3289 Y4.0814
G1 X22.3289 Y1.9472
G1 X22.3289 Y1.9472
G3 X22.3419 Y1.8106 I0.7293 J0
G3 X22.3771 Y1.6928 I0.5924 J0.113
G3 X22.4355 Y1.5846 I0.5572 J0.2308
G3 X22.523 Y1.4788 I0.6032 J0.4099
G3 X22.6287 Y1.3913 I0.5157 J0.5157
G3 X22.7369 Y1.333 I0.339 J0.4988
G3 X22.8547 Y1.2977 I0.2308 J0.5572
G3 X22.9914 Y1.2848 I0.1366 J0.7164
G1 X23.9756 Y1.2848
G3 X24.147 Y1.3074 I0 J0.6624
G3 X24.3068 Y1.3736 I-0.1714 J0.6398
G3 X24.444 Y1.4788 I-0.3312 J0.5737
G3 X24.5493 Y1.616 I-0.4684 J0.4684
G3 X24.6154 Y1.7758 I-0.5737 J0.3312
G3 X24.638 Y1.9472 I-0.6398 J0.1714
G1 X24.638 Y1.9472
G1 X24.638 Y4.2347
G1 X24.638 Y4.7347
G1 X24.638 Y7.0653
G1 X24.638 Y7.0653
G3 X24.6154 Y7.2368 I-0.6624 J0
G3 X24.5493 Y7.3965 I-0.6398 J-0.1714
G3 X24.444 Y7.5337 I-0.5737 J-0.3312
G3 X24.3068 Y7.639 I-0.4684 J-0.4684
G3 X24.147 Y7.7052 I-0.3312 J-0.5737
G3 X23.9756 Y7.7277 I-0.1714 J-0.6398
G1 X22.9914 Y7.7277
G3 X22.8547 Y7.7148 I0 J-0.7293
G3 X22.7369 Y7.6796 I0.113 J-0.5924
G3 X22.6287 Y7.6212 I0.2308 J-0.5572
G3 X22.523 Y7.5337 I0.4099 J-0.6032
G3 X22.4355 Y7.428 I0.5157 J-0.5157
G3 X22.3771 Y7.3198 I0.4988 J-0.339
G3 X22.3419 Y7.202 I0.5572 J-0.2308
G3 X22.3289 Y7.0653 I0.7164 J-0.1366
G1 X22.3289 Y7.0653
G1 Z-0.25 F30
G1 X22.3289 Y4.5814 F60
G1 X22.3289 Y4.0814
G1 X22.3289 Y1.9472
G1 X22.3289 Y1.9472
G3 X22.3419 Y1.8106 I0.7293 J0
G3 X22.3771 Y1.6928 I0.5924 J0.113
G3 X22.4355 Y1.5846 I0.5572 J0.2308
G3 X22.523 Y1.4788 I0.6032 J0.4099
G3 X22.6287 Y1.3913 I0.5157 J0.5157
G3 X22.7369 Y1.333 I0.339 J0.4988
G3 X22.8547 Y1.2977 I0.2308 J0.5572
G3 X22.9914 Y1.2848 I0.1366 J0.7164
G1 X23.9756 Y1.2848
G3 X24.147 Y1.3074 I0 J0.6624
G3 X24.3068 Y1.3736 I-0.1714 J0.6398
G3 X24.444 Y1.4788 I-0.3312 J0.5737
G3 X24.5493 Y1.616 I-0.4684 J0.4684
G3 X24.6154 Y1.7758 I-0.5737 J0.3312
G3 X24.638 Y1.9472 I-0.6398 J0.1714
G1 X24.638 Y1.9472
G1 X24.638 Y4.2347
G1 X24.638 Y4.7347
G1 X24.638 Y7.0653
G1 X24.638 Y7.0653
G3 X24.6154 Y7.2368 I-0.6624 J0
G3 X24.5493 Y7.3965 I-0.6398 J-0.1714
G3 X24.444 Y7.5337 I-0.5737 J-0.3312
G3 X24.3068 Y7.639 I-0.4684 J-0.4684
G3 X24.147 Y7.7052 I-0.3312 J-0.5737
G3 X23.9756 Y7.7277 I-0.1714 J-0.6398
G1 X22.9914 Y7.7277
G3 X22.8547 Y7.7148 I0 J-0.7293
G3 X22.7369 Y7.6796 I0.113 J-0.5924
G3 X22.6287 Y7.6212 I0.2308 J-0.5572
G3 X22.523 Y7.5337 I0.4099 J-0.6032
G3 X22.4355 Y7.428 I0.5157 J-0.5157
G3 X22.3771 Y7.3198 I0.4988 J-0.339
G3 X22.3419 Y7.202 I0.5572 J-0.2308
G3 X22.3289 Y7.0653 I0.7164 J-0.1366
G1 X22.3289 Y7.0653
G1 Z-0.375 F30
G1 X22.3289 Y4.5814 F60
G1 X22.3289 Y4.0814
G1 X22.3289 Y1.9472
G1 X22.3289 Y1.9472
G3 X22.3419 Y1.8106 I0.7293 J0
G3 X22.3771 Y1.6928 I0.5924 J0.113
G3 X22.4355 Y1.5846 I0.5572 J0.2308
G3 X22.523 Y1.4788 I0.6032 J0.4099
G3 X22.6287 Y1.3913 I0.5157 J0.5157
G3 X22.7369 Y1.333 I0.339 J0.4988
G3 X22.8547 Y1.2977 I0.2308 J0.5572
G3 X22.9914 Y1.2848 I0.1366 J0.7164
G1 X23.9756 Y1.2848
G3 X24.147 Y1.3074 I0 J0.6624
G3 X24.3068 Y1.3736 I-0.1714 J0.6398
G3 X24.444 Y1.4788 I-0.3312 J0.5737
G3 X24.5493 Y1.616 I-0.4684 J0.4684
G3 X24.6154 Y1.7758 I-0.5737 J0.3312
G3 X24.638 Y1.9472 I-0.6398 J0.1714
G1 X24.638 Y1.9472
G1 X24.638 Y4.2347
G1 X24.638 Y4.7347
G1 X24.638 Y7.0653
G1 X24.638 Y7.0653
G3 X24.6154 Y7.2368 I-0.6624 J0
G3 X24.5493 Y7.3965 I-0.6398 J-0.1714
G3 X24.444 Y7.5337 I-0.5737 J-0.3312
G3 X24.3068 Y7.639 I-0.4684 J-0.4684
G3 X24.147 Y7.7052 I-0.3312 J-0.5737
G3 X23.9756 Y7.7277 I-0.1714 J-0.6398
G1 X22.9914 Y7.7277
G3 X22.8547 Y7.7148 I0 J-0.7293
G3 X22.7369 Y7.6796 I0.113 J-0.5924
G3 X22.6287 Y7.6212 I0.2308 J-0.5572
G3 X22.523 Y7.5337 I0.4099 J-0.6032
G3 X22.4355 Y7.428 I0.5157 J-0.5157
G3 X22.3771 Y7.3198 I0.4988 J-0.339
G3 X22.3419 Y7.202 I0.5572 J-0.2308
G3 X22.3289 Y7.0653 I0.7164 J-0.1366
G1 X22.3289 Y7.0653
G1 Z-0.5 F30
G1 X22.3289 Y4.5814 F60
G1 X22.3289 Y4.0814
G1 X22.3289 Y1.9472
G1 X22.3289 Y1.9472
G3 X22.3419 Y1.8106 I0.7293 J0
G3 X22.3771 Y1.6928 I0.5924 J0.113
G3 X22.4355 Y1.5846 I0.5572 J0.2308
G3 X22.523 Y1.4788 I0.6032 J0.4099
G3 X22.6287 Y1.3913 I0.5157 J0.5157
G3 X22.7369 Y1.333 I0.339 J0.4988
G3 X22.8547 Y1.2977 I0.2308 J0.5572
G3 X22.9914 Y1.2848 I0.1366 J0.7164
G1 X23.9756 Y1.2848
G3 X24.147 Y1.3074 I0 J0.6624
G3 X24.3068 Y1.3736 I-0.1714 J0.6398
G3 X24.444 Y1.4788 I-0.3312 J0.5737
G3 X24.5493 Y1.616 I-0.4684 J0.4684
G3 X24.6154 Y1.7758 I-0.5737 J0.3312
G3 X24.638 Y1.9472 I-0.6398 J0.1714
G1 X24.638 Y1.9472
G1 X24.638 Y4.2347
G1 X24.638 Y4.7347
G1 X24.638 Y7.0653
G1 X24.638 Y7.0653
G3 X24.6154 Y7.2368 I-0.6624 J0
G3 X24.5493 Y7.3965 I-0.6398 J-0.1714
G3 X24.444 Y7.5337 I-0.5737 J-0.3312
G3 X24.3068 Y7.639 I-0.4684 J-0.4684
G3 X24.147 Y7.7052 I-0.3312 J-0.5737
G3 X23.9756 Y7.7277 I-0.1714 J-0.6398
G1 X22.9914 Y7.7277
G3 X22.8547 Y7.7148 I0 J-0.7293
G3 X22.7369 Y7.6796 I0.113 J-0.5924
G3 X22.6287 Y7.6212 I0.2308 J-0.5572
G3 X22.523 Y7.5337 I0.4099 J-0.6032
G3 X22.4355 Y7.428 I0.5157 J-0.5157
G3 X22.3771 Y7.3198 I0.4988 J-0.339
G3 X22.3419 Y7.202 I0.5572 J-0.2308
G3 X22.3289 Y7.0653 I0.7164 J-0.1366
G1 X22.3289 Y7.0653
G1 Z-0.625 F30
G1 X22.3289 Y4.5814 F60
G1 Z-0.55 F30
G1 X22.3289 Y4.0814 F60
G1 Z-0.625 F30
G1 X22.3289 Y1.9472 F60
G1 X22.3289 Y1.9472
G3 X22.3419 Y1.8106 I0.7293 J0
G3 X22.3771 Y1.6928 I0.5924 J0.113
G3 X22.4355 Y1.5846 I0.5572 J0.2308
G3 X22.523 Y1.4788 I0.6032 J0.4099
G3 X22.6287 Y1.3913 I0.5157 J0.5157
G3 X22.7369 Y1.333 I0.339 J0.4988
G3 X22.8547 Y1.2977 I0.2308 J0.5572
G3 X22.9914 Y1.2848 I0.1366 J0.7164
G1 X23.9756 Y1.2848
G3 X24.147 Y1.3074 I0 J0.6624
G3 X24.3068 Y1.3736 I-0.1714 J0.6398
G3 X24.444 Y1.4788 I-0.3312 J0.5737
G3 X24.5493 Y1.616 I-0.4684 J0.4684
G3 X24.6154 Y1.7758 I-0.5737 J0.3312
G3 X24.638 Y1.9472 I-0.6398 J0.1714
G1 X24.638 Y1.9472
G1 X24.638 Y4.2347
G1 Z-0.55 F30
G1 X24.638 Y4.7347 F60
G1 Z-0.625 F30
G1 X24.638 Y7.0653 F60
G1 X24.638 Y7.0653
G3 X24.6154 Y7.2368 I-0.6624 J0
G3 X24.5493 Y7.3965 I-0.6398 J-0.1714
G3 X24.444 Y7.5337 I-0.5737 J-0.3312
G3 X24.3068 Y7.639 I-0.4684 J-0.4684
G3 X24.147 Y7.7052 I-0.3312 J-0.5737
G3 X23.9756 Y7.7277 I-0.1714 J-0.6398
G1 X22.9914 Y7.7277
G3 X22.8547 Y7.7148 I0 J-0.7293
G3 X22.7369 Y7.6796 I0.113 J-0.5924
G3 X22.6287 Y7.6212 I0.2308 J-0.5572
G3 X22.523 Y7.5337 I0.4099 J-0.6032
G3 X22.4355 Y7.428 I0.5157 J-0.5157
G3 X22.3771 Y7.3198 I0.4988 J-0.339
G3 X22.3419 Y7.202 I0.5572 J-0.2308
G3 X22.3289 Y7.0653 I0.7164 J-0.1366
G1 X22.3289 Y7.0653
G1 Z-0.75 F30
G1 X22.3289 Y4.5814 F60
G1 Z-0.55 F30
G1 X22.3289 Y4.0814 F60
G1 Z-0.75 F30
G1 X22.3289 Y1.9472 F60
G1 X22.3289 Y1.9472
G3 X22.3419 Y1.8106 I0.7293 J0
G3 X22.3771 Y1.6928 I0.5924 J0.113
G3 X22.4355 Y1.5846 I0.5572 J0.2308
G3 X22.523 Y1.4788 I0.6032 J0.4099
G3 X22.6287 Y1.3913 I0.5157 J0.5157
G3 X22.7369 Y1.333 I0.339 J0.4988
G3 X22.8547 Y1.2977 I0.2308 J0.5572
G3 X22.9914 Y1.2848 I0.1366 J0.7164
G1 X23.9756 Y1.2848
G3 X24.147 Y1.3074 I0 J0.6624
G3 X24.3068 Y1.3736 I-0.1714 J0.6398
G3 X24.444 Y1.4788 I-0.3312 J0.5737
G3 X24.5493 Y1.616 I-0.4684 J0.4684
G3 X24.6154 Y1.7758 I-0.5737 J0.3312
G3 X24.638 Y1.9472 I-0.6398 J0.1714
G1 X24.638 Y1.9472
G1 X24.638 Y4.2347
G1 Z-0.55 F30
G1 X24.638 Y4.7347 F60
G1 Z-0.75 F30
G1 X24.638 Y7.0653 F60
G1 X24.638 Y7.0653
G3 X24.6154 Y7.2368 I-0.6624 J0
G3 X24.5493 Y7.3965 I-0.6398 J-0.1714
G3 X24.444 Y7.5337 I-0.5737 J-0.3312
G3 X24.3068 Y7.639 I-0.4684 J-0.4684
G3 X24.147 Y7.7052 I-0.3312 J-0.5737
G3 X23.9756 Y7.7277 I-0.1714 J-0.6398
G1 X22.9914 Y7.7277
G3 X22.8547 Y7.7148 I0 J-0.7293
G3 X22.7369 Y7.6796 I0.113 J-0.5924
G3 X22.6287 Y7.6212 I0.2308 J-0.5572
G3 X22.523 Y7.5337 I0.4099 J-0.6032
G3 X22.4355 Y7.428 I0.5157 J-0.5157
G3 X22.3771 Y7.3198 I0.4988 J-0.339
G3 X22.3419 Y7.202 I0.5572 J-0.2308
G3 X22.3289 Y7.0653 I0.7164 J-0.1366
G1 X22.3289 Y7.0653
G1 Z-0.8 F30
G1 X22.3289 Y4.5814 F60
G1 Z-0.55 F30
G1 X22.3289 Y4.0814 F60
G1 Z-0.8 F30
G1 X22.3289 Y1.9472 F60
G1 X22.3289 Y1.9472
G3 X22.3419 Y1.8106 I0.7293 J0
G3 X22.3771 Y1.6928 I0.5924 J0.113
G3 X22.4355 Y1.5846 I0.5572 J0.2308
G3 X22.523 Y1.4788 I0.6032 J0.4099
G3 X22.6287 Y1.3913 I0.5157 J0.5157
G3 X22.7369 Y1.333 I0.339 J0.4988
G3 X22.8547 Y1.2977 I0.2308 J0.5572
G3 X22.9914 Y1.2848 I0.1366 J0.7164
G1 X23.9756 Y1.2848
G3 X24.147 Y1.3074 I0 J0.6624
G3 X24.3068 Y1.3736 I-0.1714 J0.6398
G3 X24.444 Y1.4788 I-0.3312 J0.5737
G3 X24.5493 Y1.616 I-0.4684 J0.4684
G3 X24.6154 Y1.7758 I-0.5737 J0.3312
G3 X24.638 Y1.9472 I-0.6398 J0.1714
G1 X24.638 Y1.9472
G1 X24.638 Y4.2347
G1 Z-0.55 F30
G1 X24.638 Y4.7347 F60
G1 Z-0.8 F30
G1 X24.638 Y7.0653 F60
G1 X24.638 Y7.0653
G3 X24.6154 Y7.2368 I-0.6624 J0
G3 X24.5493 Y7.3965 I-0.6398 J-0.1714
G3 X24.444 Y7.5337 I-0.5737 J-0.3312
G3 X24.3068 Y7.639 I-0.4684 J-0.4684
G3 X24.147 Y7.7052 I-0.3312 J-0.5737
G3 X23.9756 Y7.7277 I-0.1714 J-0.6398
G1 X22.9914 Y7.7277
G3 X22.8547 Y7.7148 I0 J-0.7293
G3 X22.7369 Y7.6796 I0.113 J-0.5924
G3 X22.6287 Y7.6212 I0.2308 J-0.5572
G3 X22.523 Y7.5337 I0.4099 J-0.6032
G3 X22.4355 Y7.428 I0.5157 J-0.5157
G3 X22.3771 Y7.3198 I0.4988 J-0.339
G3 X22.3419 Y7.202 I0.5572 J-0.2308
G3 X22.3289 Y7.0653 I0.7164 J-0.1366
G1 X22.3289 Y7.0653

(Slots)
G0 Z0.1
G0 X16.2797 Y8.1677
G1 Z-0.125 F30
G1 X16.2797 Y0.8449 F60
G3 X16.2912 Y0.7872 I0.1506 J0
G3 X16.3238 Y0.7384 I0.1391 J0.0576
G3 X16.3727 Y0.7057 I0.1065 J0.1065
G3 X16.4303 Y0.6943 I0.0576 J0.1391
G3 X16.488 Y0.7057 I0 J0.1506
G3 X16.5368 Y0.7384 I-0.0576 J0.1391
G3 X16.5695 Y0.7872 I-0.1065 J0.1065
G3 X16.5809 Y0.8449 I-0.1391 J0.0576
G1 X16.5809 Y8.1677
G3 X16.5695 Y8.2253 I-0.1506 J0
G3 X16.5368 Y8.2742 I-0.1391 J-0.0576
G3 X16.488 Y8.3068 I-0.1065 J-0.1065
G3 X16.4303 Y8.3183 I-0.0576 J-0.1391
G3 X16.3727 Y8.3068 I0 J-0.1506
G3 X16.3238 Y8.2742 I0.0576 J-0.1391
G3 X16.2912 Y8.2253 I0.1065 J-0.1065
G3 X16.2797 Y8.1677 I0.1391 J-0.0576
G1 Z-0.25 F30
G1 X16.2797 Y0.8449 F60
G3 X16.2912 Y0.7872 I0.1506 J0
G3 X16.3238 Y0.7384 I0.1391 J0.0576
G3 X16.3727 Y0.7057 I0.1065 J0.1065
G3 X16.4303 Y0.6943 I0.0576 J0.1391
G3 X16.488 Y0.7057 I0 J0.1506
G3 X16.5368 Y0.7384 I-0.0576 J0.1391
G3 X16.5695 Y0.7872 I-0.1065 J0.1065
G3 X16.5809 Y0.8449 I-0.1391 J0.0576
G1 X16.5809 Y8.1677
G3 X16.5695 Y8.2253 I-0.1506 J0
G3 X16.5368 Y8.2742 I-0.1391 J-0.0576
G3 X16.488 Y8.3068 I-0.1065 J-0.1065
G3 X16.4303 Y8.3183 I-0.0576 J-0.1391
G3 X16.3727 Y8.3068 I0 J-0.1506
G3 X16.3238 Y8.2742 I0.0576 J-0.1391
G3 X16.2912 Y8.2253 I0.1065 J-0.1065
G3 X16.2797 Y8.1677 I0.1391 J-0.0576
G1 Z-0.375 F30
G1 X16.2797 Y0.8449 F60
G3 X16.2912 Y0.7872 I0.1506 J0
G3 X16.3238 Y0.7384 I0.1391 J0.0576
G3 X16.3727 Y0.7057 I0.1065 J0.1065
G3 X16.4303 Y0.6943 I0.0576 J0.1391
G3 X16.488 Y0.7057 I0 J0.1506
G3 X16.5368 Y0.7384 I-0.0576 J0.1391
G3 X16.5695 Y0.7872 I-0.1065 J0.1065
G3 X16.5809 Y0.8449 I-0.1391 J0.0576
G1 X16.5809 Y8.1677
G3 X16.5695 Y8.2253 I-0.1506 J0
G3 X16.5368 Y8.2742 I-0.1391 J-0.0576
G3 X16.488 Y8.3068 I-0.1065 J-0.1065
G3 X16.4303 Y8.3183 I-0.0576 J-0.1391
G3 X16.3727 Y8.3068 I0 J-0.1506
G3 X16.3238 Y8.2742 I0.0576 J-0.1391
G3 X16.2912 Y8.2253 I0.1065 J-0.1065
G3 X16.2797 Y8.1677 I0.1391 J-0.0576
G1 Z-0.5 F30
G1 X16.2797 Y0.8449 F60
G3 X16.2912 Y0.7872 I0.1506 J0
G3 X16.3238 Y0.7384 I0.1391 J0.0576
G3 X16.3727 Y0.7057 I0.1065 J0.1065
G3 X16.4303 Y0.6943 I0.0576 J0.1391
G3 X16.488 Y0.7057 I0 J0.1506
G3 X16.5368 Y0.7384 I-0.0576 J0.1391
G3 X16.5695 Y0.7872 I-0.1065 J0.1065
G3 X16.5809 Y0.8449 I-0.1391 J0.0576
G1 X16.5809 Y8.1677
G3 X16.5695 Y8.2253 I-0.1506 J0
G3 X16.5368 Y8.2742 I-0.1391 J-0.0576
G3 X16.488 Y8.3068 I-0.1065 J-0.1065
G3 X16.4303 Y8.3183 I-0.0576 J-0.1391
G3 X16.3727 Y8.3068 I0 J-0.1506
G3 X16.3238 Y8.2742 I0.0576 J-0.1391
G3 X16.2912 Y8.2253 I0.1065 J-0.1065
G3 X16.2797 Y8.1677 I0.1391 J-0.0576
G1 Z-0.625 F30
G1 X16.2797 Y0.8449 F60
G3 X16.2912 Y0.7872 I0.1506 J0
G3 X16.3238 Y0.7384 I0.1391 J0.0576
G3 X16.3727 Y0.7057 I0.1065 J0.1065
G3 X16.4303 Y0.6943 I0.0576 J0.1391
G3 X16.488 Y0.7057 I0 J0.1506
G3 X16.5368 Y0.7384 I-0.0576 J0.1391
G3 X16.5695 Y0.7872 I-0.1065 J0.1065
G3 X16.5809 Y0.8449 I-0.1391 J0.0576
G1 X16.5809 Y8.1677
G3 X16.5695 Y8.2253 I-0.1506 J0
G3 X16.5368 Y8.2742 I-0.1391 J-0.0576
G3 X16.488 Y8.3068 I-0.1065 J-0.1065
G3 X16.4303 Y8.3183 I-0.0576 J-0.1391
G3 X16.3727 Y8.3068 I0 J-0.1506
G3 X16.3238 Y8.2742 I0.0576 J-0.1391
G3 X16.2912 Y8.2253 I0.1065 J-0.1065
G3 X16.2797 Y8.1677 I0.1391 J-0.0576
G1 Z-0.75 F30
G1 X16.2797 Y0.8449 F60
G3 X16.2912 Y0.7872 I0.1506 J0
G3 X16.3238 Y0.7384 I0.1391 J0.0576
G3 X16.3727 Y0.7057 I0.1065 J0.1065
G3 X16.4303 Y0.6943 I0.0576 J0.1391
G3 X16.488 Y0.7057 I0 J0.1506
G3 X16.5368 Y0.7384 I-0.0576 J0.1391
G3 X16.5695 Y0.7872 I-0.1065 J0.1065
G3 X16.5809 Y0.8449 I-0.1391 J0.0576
G1 X16.5809 Y8.1677
G3 X16.5695 Y8.2253 I-0.1506 J0
G3 X16.5368 Y8.2742 I-0.1391 J-0.0576
G3 X16.488 Y8.3068 I-0.1065 J-0.1065
G3 X16.4303 Y8.3183 I-0.0576 J-0.1391
G3 X16.3727 Y8.3068 I0 J-0.1506
G3 X16.3238 Y8.2742 I0.0576 J-0.1391
G3 X16.2912 Y8.2253 I0.1065 J-0.1065
G3 X16.2797 Y8.1677 I0.1391 J-0.0576
G1 Z-0.8 F30
G1 X16.2797 Y0.8449 F60
G3 X16.2912 Y0.7872 I0.1506 J0
G3 X16.3238 Y0.7384 I0.1391 J0.0576
G3 X16.3727 Y0.7057 I0.1065 J0.1065
G3 X16.4303 Y0.6943 I0.0576 J0.1391
G3 X16.488 Y0.7057 I0 J0.1506
G3 X16.5368 Y0.7384 I-0.0576 J0.1391
G3 X16.5695 Y0.7872 I-0.1065 J0.1065
G3 X16.5809 Y0.8449 I-0.1391 J0.0576
G1 X16.5809 Y8.1677
G3 X16.5695 Y8.2253 I-0.1506 J0
G3 X16.5368 Y8.2742 I-0.1391 J-0.0576
G3 X16.488 Y8.3068 I-0.1065 J-0.1065
G3 X16.4303 Y8.3183 I-0.0576 J-0.1391
G3 X16.3727 Y8.3068 I0 J-0.1506
G3 X16.3238 Y8.2742 I0.0576 J-0.1391
G3 X16.2912 Y8.2253 I0.1065 J-0.1065
G3 X16.2797 Y8.1677 I0.1391 J-0.0576
G0 Z0.1
G0 X18.5632 Y8.1677
G1 Z-0.125 F30
G1 X18.5632 Y0.8449 F60
G3 X18.5747 Y0.7872 I0.1506 J0
G3 X18.6073 Y0.7384 I0.1391 J0.0576
G3 X18.6562 Y0.7057 I0.1065 J0.1065
G3 X18.7138 Y0.6943 I0.0576 J0.1391
G3 X18.7714 Y0.7057 I0 J0.1506
G3 X18.8203 Y0.7384 I-0.0576 J0.1391
G3 X18.8529 Y0.7872 I-0.1065 J0.1065
G3 X18.8644 Y0.8449 I-0.1391 J0.0576
G1 X18.8644 Y8.1677
G3 X18.8529 Y8.2253 I-0.1506 J0
G3 X18.8203 Y8.2742 I-0.1391 J-0.0576
G3 X18.7714 Y8.3068 I-0.1065 J-0.1065
G3 X18.7138 Y8.3183 I-0.0576 J-0.1391
G3 X18.6562 Y8.3068 I0 J-0.1506
G3 X18.6073 Y8.2742 I0.0576 J-0.1391
G3 X18.5747 Y8.2253 I0.1065 J-0.1065
G3 X18.5632 Y8.1677 I0.1391 J-0.0576
G1 Z-0.25 F30
G1 X18.5632 Y0.8449 F60
G3 X18.5747 Y0.7872 I0.1506 J0
G3 X18.6073 Y0.7384 I0.1391 J0.0576
G3 X18.6562 Y0.7057 I0.1065 J0.1065
G3 X18.7138 Y0.6943 I0.0576 J0.1391
G3 X18.7714 Y0.7057 I0 J0.1506
G3 X18.8203 Y0.7384 I-0.0576 J0.1391
G3 X18.8529 Y0.7872 I-0.1065 J0.1065
G3 X18.8644 Y0.8449 I-0.1391 J0.0576
G1 X18.8644 Y8.1677
G3 X18.8529 Y8.2253 I-0.1506 J0
G3 X18.8203 Y8.2742 I-0.1391 J-0.0576
G3 X18.7714 Y8.3068 I-0.1065 J-0.1065
G3 X18.7138 Y8.3183 I-0.0576 J-0.1391
G3 X18.6562 Y8.3068 I0 J-0.1506
G3 X18.6073 Y8.2742 I0.0576 J-0.1391
G3 X18.5747 Y8.2253 I0.1065 J-0.1065
G3 X18.5632 Y8.1677 I0.1391 J-0.0576
G1 Z-0.375 F30
G1 X18.5632 Y0.8449 F60
G3 X18.5747 Y0.7872 I0.1506 J0
G3 X18.6073 Y0.7384 I0.1391 J0.0576
G3 X18.6562 Y0.7057 I0.1065 J0.1065
G3 X18.7138 Y0.6943 I0.0576 J0.1391
G3 X18.7714 Y0.7057 I0 J0.1506
G3 X18.8203 Y0.7384 I-0.0576 J0.1391
G3 X18.8529 Y0.7872 I-0.1065 J0.1065
G3 X18.8644 Y0.8449 I-0.1391 J0.0576
G1 X18.8644 Y8.1677
G3 X18.8529 Y8.2253 I-0.1506 J0
G3 X18.8203 Y8.2742 I-0.1391 J-0.0576
G3 X18.7714 Y8.3068 I-0.1065 J-0.1065
G3 X18.7138 Y8.3183 I-0.0576 J-0.1391
G3 X18.6562 Y8.3068 I0 J-0.1506
G3 X18.6073 Y8.2742 I0.0576 J-0.1391
G3 X18.5747 Y8.2253 I0.1065 J-0.1065
G3 X18.5632 Y8.1677 I0.1391 J-0.0576
G1 Z-0.5 F30
G1 X18.5632 Y0.8449 F60
G3 X18.5747 Y0.7872 I0.1506 J0
G3 X18.6073 Y0.7384 I0.1391 J0.0576
G3 X18.6562 Y0.7057 I0.1065 J0.1065
G3 X18.7138 Y0.6943 I0.0576 J0.1391
G3 X18.7714 Y0.7057 I0 J0.1506
G3 X18.8203 Y0.7384 I-0.0576 J0.1391
G3 X18.8529 Y0.7872 I-0.1065 J0.1065
G3 X18.8644 Y0.8449 I-0.1391 J0.0576
G1 X18.8644 Y8.1677
G3 X18.8529 Y8.2253 I-0.1506 J0
G3 X18.8203 Y8.2742 I-0.1391 J-0.0576
G3 X18.7714 Y8.3068 I-0.1065 J-0.1065
G3 X18.7138 Y8.3183 I-0.0576 J-0.1391
G3 X18.6562 Y8.3068 I0 J-0.1506
G3 X18.6073 Y8.2742 I0.0576 J-0.1391
G3 X18.5747 Y8.2253 I0.1065 J-0.1065
G3 X18.5632 Y8.1677 I0.1391 J-0.0576
G1 Z-0.625 F30
G1 X18.5632 Y0.8449 F60
G3 X18.5747 Y0.7872 I0.1506 J0
G3 X18.6073 Y0.7384 I0.1391 J0.0576
G3 X18.6562 Y0.7057 I0.1065 J0.1065
G3 X18.7138 Y0.6943 I0.0576 J0.1391
G3 X18.7714 Y0.7057 I0 J0.1506
G3 X18.8203 Y0.7384 I-0.0576 J0.1391
G3 X18.8529 Y0.7872 I-0.1065 J0.1065
G3 X18.8644 Y0.8449 I-0.1391 J0.0576
G1 X18.8644 Y8.1677
G3 X18.8529 Y8.2253 I-0.1506 J0
G3 X18.8203 Y8.2742 I-0.1391 J-0.0576
G3 X18.7714 Y8.3068 I-0.1065 J-0.1065
G3 X18.7138 Y8.3183 I-0.0576 J-0.1391
G3 X18.6562 Y8.3068 I0 J-0.1506
G3 X18.6073 Y8.2742 I0.0576 J-0.1391
G3 X18.5747 Y8.2253 I0.1065 J-0.1065
G3 X18.5632 Y8.1677 I0.1391 J-0.0576
G1 Z-0.75 F30
G1 X18.5632 Y0.8449 F60
G3 X18.5747 Y0.7872 I0.1506 J0
G3 X18.6073 Y0.7384 I0.1391 J0.0576
G3 X18.6562 Y0.7057 I0.1065 J0.1065
G3 X18.7138 Y0.6943 I0.0576 J0.1391
G3 X18.7714 Y0.7057 I0 J0.1506
G3 X18.8203 Y0.7384 I-0.0576 J0.1391
G3 X18.8529 Y0.7872 I-0.1065 J0.1065
G3 X18.8644 Y0.8449 I-0.1391 J0.0576
G1 X18.8644 Y8.1677
G3 X18.8529 Y8.2253 I-0.1506 J0
G3 X18.8203 Y8.2742 I-0.1391 J-0.0576
G3 X18.7714 Y8.3068 I-0.1065 J-0.1065
G3 X18.7138 Y8.3183 I-0.0576 J-0.1391
G3 X18.6562 Y8.3068 I0 J-0.1506
G3 X18.6073 Y8.2742 I0.0576 J-0.1391
G3 X18.5747 Y8.2253 I0.1065 J-0.1065
G3 X18.5632 Y8.1677 I0.1391 J-0.0576
G1 Z-0.8 F30
G1 X18.5632 Y0.8449 F60
G3 X18.5747 Y0.7872 I0.1506 J0
G3 X18.6073 Y0.7384 I0.1391 J0.0576
G3 X18.6562 Y0.7057 I0.1065 J0.1065
G3 X18.7138 Y0.6943 I0.0576 J0.1391
G3 X18.7714 Y0.7057 I0 J0.1506
G3 X18.8203 Y0.7384 I-0.0576 J0.1391
G3 X18.8529 Y0.7872 I-0.1065 J0.1065
G3 X18.8644 Y0.8449 I-0.1391 J0.0576
G1 X18.8644 Y8.1677
G3 X18.8529 Y8.2253 I-0.1506 J0
G3 X18.8203 Y8.2742 I-0.1391 J-0.0576
G3 X18.7714 Y8.3068 I-0.1065 J-0.1065
G3 X18.7138 Y8.3183 I-0.0576 J-0.1391
G3 X18.6562 Y8.3068 I0 J-0.1506
G3 X18.6073 Y8.2742 I0.0576 J-0.1391
G3 X18.5747 Y8.2253 I0.1065 J-0.1065
G3 X18.5632 Y8.1677 I0.1391 J-0.0576
G0 Z0.1
G0 X19.7049 Y8.1677
G1 Z-0.125 F30
G1 X19.7049 Y0.8449 F60
G3 X19.7164 Y0.7872 I0.1506 J0
G3 X19.749 Y0.7384 I0.1391 J0.0576
G3 X19.7979 Y0.7057 I0.1065 J0.1065
G3 X19.8555 Y0.6943 I0.0576 J0.1391
G3 X19.9132 Y0.7057 I0 J0.1506
G3 X19.962 Y0.7384 I-0.0576 J0.1391
G3 X19.9947 Y0.7872 I-0.1065 J0.1065
G3 X20.0061 Y0.8449 I-0.1391 J0.0576
G1 X20.0061 Y8.1677
G3 X19.9947 Y8.2253 I-0.1506 J0
G3 X19.962 Y8.2742 I-0.1391 J-0.0576
G3 X19.9132 Y8.3068 I-0.1065 J-0.1065
G3 X19.8555 Y8.3183 I-0.0576 J-0.1391
G3 X19.7979 Y8.3068 I0 J-0.1506
G3 X19.749 Y8.2742 I0.0576 J-0.1391
G3 X19.7164 Y8.2253 I0.1065 J-0.1065
G3 X19.7049 Y8.1677 I0.1391 J-0.0576
G1 Z-0.25 F30
G1 X19.7049 Y0.8449 F60
G3 X19.7164 Y0.7872 I0.1506 J0
G3 X19.749 Y0.7384 I0.1391 J0.0576
G3 X19.7979 Y0.7057 I0.1065 J0.1065
G3 X19.8555 Y0.6943 I0.0576 J0.1391
G3 X19.9132 Y0.7057 I0 J0.1506
G3 X19.962 Y0.7384 I-0.0576 J0.1391
G3 X19.9947 Y0.7872 I-0.1065 J0.1065
G3 X20.0061 Y0.8449 I-0.1391 J0.0576
G1 X20.0061 Y8.1677
G3 X19.9947 Y8.2253 I-0.1506 J0
G3 X19.962 Y8.2742 I-0.1391 J-0.0576
G3 X19.9132 Y8.3068 I-0.1065 J-0.1065
G3 X19.8555 Y8.3183 I-0.0576 J-0.1391
G3 X19.7979 Y8.3068 I0 J-0.1506
G3 X19.749 Y8.2742 I0.0576 J-0.1391
G3 X19.7164 Y8.2253 I0.1065 J-0.1065
G3 X19.7049 Y8.1677 I0.1391 J-0.0576
G1 Z-0.375 F30
G1 X19.7049 Y0.8449 F60
G3 X19.7164 Y0.7872 I0.1506 J0
G3 X19.749 Y0.7384 I0.1391 J0.0576
G3 X19.7979 Y0.7057 I0.1065 J0.1065
G3 X19.8555 Y0.6943 I0.0576 J0.1391
G3 X19.9132 Y0.7057 I0 J0.1506
G3 X19.962 Y0.7384 I-0.0576 J0.1391
G3 X19.9947 Y0.7872 I-0.1065 J0.1065
G3 X20.0061 Y0.8449 I-0.1391 J0.0576
G1 X20.0061 Y8.1677
G3 X19.9947 Y8.2253 I-0.1506 J0
G3 X19.962 Y8.2742 I-0.1391 J-0.0576
G3 X19.9132 Y8.3068 I-0.1065 J-0.1065
G3 X19.8555 Y8.3183 I-0.0576 J-0.1391
G3 X19.7979 Y8.3068 I0 J-0.1506
G3 X19.749 Y8.2742 I0.0576 J-0.1391
G3 X19.7164 Y8.2253 I0.1065 J-0.1065
G3 X19.7049 Y8.1677 I0.1391 J-0.0576
G1 Z-0.5 F30
G1 X19.7049 Y0.8449 F60
G3 X19.7164 Y0.7872 I0.1506 J0
G3 X19.749 Y0.7384 I0.1391 J0.0576
G3 X19.7979 Y0.7057 I0.1065 J0.1065
G3 X19.8555 Y0.6943 I0.0576 J0.1391
G3 X19.9132 Y0.7057 I0 J0.1506
G3 X19.962 Y0.7384 I-0.0576 J0.1391
G3 X19.9947 Y0.7872 I-0.1065 J0.1065
G3 X20.0061 Y0.8449 I-0.1391 J0.0576
G1 X20.0061 Y8.1677
G3 X19.9947 Y8.2253 I-0.1506 J0
G3 X19.962 Y8.2742 I-0.1391 J-0.0576
G3 X19.9132 Y8.3068 I-0.1065 J-0.1065
G3 X19.8555 Y8.3183 I-0.0576 J-0.1391
G3 X19.7979 Y8.3068 I0 J-0.1506
G3 X19.749 Y8.2742 I0.0576 J-0.1391
G3 X19.7164 Y8.2253 I0.1065 J-0.1065
G3 X19.7049 Y8.1677 I0.1391 J-0.0576
G1 Z-0.625 F30
G1 X19.7049 Y0.8449 F60
G3 X19.7164 Y0.7872 I0.1506 J0
G3 X19.749 Y0.7384 I0.1391 J0.0576
G3 X19.7979 Y0.7057 I0.1065 J0.1065
G3 X19.8555 Y0.6943 I0.0576 J0.1391
G3 X19.9132 Y0.7057 I0 J0.1506
G3 X19.962 Y0.7384 I-0.0576 J0.1391
G3 X19.9947 Y0.7872 I-0.1065 J0.1065
G3 X20.0061 Y0.8449 I-0.1391 J0.0576
G1 X20.0061 Y8.1677
G3 X19.9947 Y8.2253 I-0.1506 J0
G3 X19.962 Y8.2742 I-0.1391 J-0.0576
G3 X19.9132 Y8.3068 I-0.1065 J-0.1065
G3 X19.8555 Y8.3183 I-0.0576 J-0.1391
G3 X19.7979 Y8.3068 I0 J-0.1506
G3 X19.749 Y8.2742 I0.0576 J-0.1391
G3 X19.7164 Y8.2253 I0.1065 J-0.1065
G3 X19.7049 Y8.1677 I0.1391 J-0.0576
G1 Z-0.75 F30
G1 X19.7049 Y0.8449 F60
G3 X19.7164 Y0.7872 I0.1506 J0
G3 X19.749 Y0.7384 I0.1391 J0.0576
G3 X19.7979 Y0.7057 I0.1065 J0.1065
G3 X19.8555 Y0.6943 I0.0576 J0.1391
G3 X19.9132 Y0.7057 I0 J0.1506
G3 X19.962 Y0.7384 I-0.0576 J0.1391
G3 X19.9947 Y0.7872 I-0.1065 J0.1065
G3 X20.0061 Y0.8449 I-0.1391 J0.0576
G1 X20.0061 Y8.1677
G3 X19.9947 Y8.2253 I-0.1506 J0
G3 X19.962 Y8.2742 I-0.1391 J-0.0576
G3 X19.9132 Y8.3068 I-0.1065 J-0.1065
G3 X19.8555 Y8.3183 I-0.0576 J-0.1391
G3 X19.7979 Y8.3068 I0 J-0.1506
G3 X19.749 Y8.2742 I0.0576 J-0.1391
G3 X19.7164 Y8.2253 I0.1065 J-0.1065
G3 X19.7049 Y8.1677 I0.1391 J-0.0576
G1 Z-0.8 F30
G1 X19.7049 Y0.8449 F60
G3 X19.7164 Y0.7872 I0.1506 J0
G3 X19.749 Y0.7384 I0.1391 J0.0576
G3 X19.7979 Y0.7057 I0.1065 J0.1065
G3 X19.8555 Y0.6943 I0.0576 J0.1391
G3 X19.9132 Y0.7057 I0 J0.1506
G3 X19.962 Y0.7384 I-0.0576 J0.1391
G3 X19.9947 Y0.7872 I-0.1065 J0.1065
G3 X20.0061 Y0.8449 I-0.1391 J0.0576
G1 X20.0061 Y8.1677
G3 X19.9947 Y8.2253 I-0.1506 J0
G3 X19.962 Y8.2742 I-0.1391 J-0.0576
G3 X19.9132 Y8.3068 I-0.1065 J-0.1065
G3 X19.8555 Y8.3183 I-0.0576 J-0.1391
G3 X19.7979 Y8.3068 I0 J-0.1506
G3 X19.749 Y8.2742 I0.0576 J-0.1391
G3 X19.7164 Y8.2253 I0.1065 J-0.1065
G3 X19.7049 Y8.1677 I0.1391 J-0.0576
G0 Z0.1
G0 X17.4215 Y8.1677
G1 Z-0.125 F30
G1 X17.4215 Y0.8449 F60
G3 X17.4329 Y0.7872 I0.1506 J0
G3 X17.4656 Y0.7384 I0.1391 J0.0576
G3 X17.5144 Y0.7057 I0.1065 J0.1065
G3 X17.5721 Y0.6943 I0.0576 J0.1391
G3 X17.6297 Y0.7057 I0 J0.1506
G3 X17.6785 Y0.7384 I-0.0576 J0.1391
G3 X17.7112 Y0.7872 I-0.1065 J0.1065
G3 X17.7226 Y0.8449 I-0.1391 J0.0576
G1 X17.7226 Y8.1677
G3 X17.7112 Y8.2253 I-0.1506 J0
G3 X17.6785 Y8.2742 I-0.1391 J-0.0576
G3 X17.6297 Y8.3068 I-0.1065 J-0.1065
G3 X17.5721 Y8.3183 I-0.0576 J-0.1391
G3 X17.5144 Y8.3068 I0 J-0.1506
G3 X17.4656 Y8.2742 I0.0576 J-0.1391
G3 X17.4329 Y8.2253 I0.1065 J-0.1065
G3 X17.4215 Y8.1677 I0.1391 J-0.0576
G1 Z-0.25 F30
G1 X17.4215 Y0.8449 F60
G3 X17.4329 Y0.7872 I0.1506 J0
G3 X17.4656 Y0.7384 I0.1391 J0.0576
G3 X17.5144 Y0.7057 I0.1065 J0.1065
G3 X17.5721 Y0.6943 I0.0576 J0.1391
G3 X17.6297 Y0.7057 I0 J0.1506
G3 X17.6785 Y0.7384 I-0.0576 J0.1391
G3 X17.7112 Y0.7872 I-0.1065 J0.1065
G3 X17.7226 Y0.8449 I-0.1391 J0.0576
G1 X17.7226 Y8.1677
G3 X17.7112 Y8.2253 I-0.1506 J0
G3 X17.6785 Y8.2742 I-0.1391 J-0.0576
G3 X17.6297 Y8.3068 I-0.1065 J-0.1065
G3 X17.5721 Y8.3183 I-0.0576 J-0.1391
G3 X17.5144 Y8.3068 I0 J-0.1506
G3 X17.4656 Y8.2742 I0.0576 J-0.1391
G3 X17.4329 Y8.2253 I0.1065 J-0.1065
G3 X17.4215 Y8.1677 I0.1391 J-0.0576
G1 Z-0.375 F30
G1 X17.4215 Y0.8449 F60
G3 X17.4329 Y0.7872 I0.1506 J0
G3 X17.4656 Y0.7384 I0.1391 J0.0576
G3 X17.5144 Y0.7057 I0.1065 J0.1065
G3 X17.5721 Y0.6943 I0.0576 J0.1391
G3 X17.6297 Y0.7057 I0 J0.1506
G3 X17.6785 Y0.7384 I-0.0576 J0.1391
G3 X17.7112 Y0.7872 I-0.1065 J0.1065
G3 X17.7226 Y0.8449 I-0.1391 J0.0576
G1 X17.7226 Y8.1677
G3 X17.7112 Y8.2253 I-0.1506 J0
G3 X17.6785 Y8.2742 I-0.1391 J-0.0576
G3 X17.6297 Y8.3068 I-0.1065 J-0.1065
G3 X17.5721 Y8.3183 I-0.0576 J-0.1391
G3 X17.5144 Y8.3068 I0 J-0.1506
G3 X17.4656 Y8.2742 I0.0576 J-0.1391
G3 X17.4329 Y8.2253 I0.1065 J-0.1065
G3 X17.4215 Y8.1677 I0.1391 J-0.0576
G1 Z-0.5 F30
G1 X17.4215 Y0.8449 F60
G3 X17.4329 Y0.7872 I0.1506 J0
G3 X17.4656 Y0.7384 I0.1391 J0.0576
G3 X17.5144 Y0.7057 I0.1065 J0.1065
G3 X17.5721 Y0.6943 I0.0576 J0.1391
G3 X17.6297 Y0.7057 I0 J0.1506
G3 X17.6785 Y0.7384 I-0.0576 J0.1391
G3 X17.7112 Y0.7872 I-0.1065 J0.1065
G3 X17.7226 Y0.8449 I-0.1391 J0.0576
G1 X17.7226 Y8.1677
G3 X17.7112 Y8.2253 I-0.1506 J0
G3 X17.6785 Y8.2742 I-0.1391 J-0.0576
G3 X17.6297 Y8.3068 I-0.1065 J-0.1065
G3 X17.5721 Y8.3183 I-0.0576 J-0.1391
G3 X17.5144 Y8.3068 I0 J-0.1506
G3 X17.4656 Y8.2742 I0.0576 J-0.1391
G3 X17.4329 Y8.2253 I0.1065 J-0.1065
G3 X17.4215 Y8.1677 I0.1391 J-0.0576
G1 Z-0.625 F30
G1 X17.4215 Y0.8449 F60
G3 X17.4329 Y0.7872 I0.1506 J0
G3 X17.4656 Y0.7384 I0.1391 J0.0576
G3 X17.5144 Y0.7057 I0.1065 J0.1065
G3 X17.5721 Y0.6943 I0.0576 J0.1391
G3 X17.6297 Y0.7057 I0 J0.1506
G3 X17.6785 Y0.7384 I-0.0576 J0.1391
G3 X17.7112 Y0.7872 I-0.1065 J0.1065
G3 X17.7226 Y0.8449 I-0.1391 J0.0576
G1 X17.7226 Y8.1677
G3 X17.7112 Y8.2253 I-0.1506 J0
G3 X17.6785 Y8.2742 I-0.1391 J-0.0576
G3 X17.6297 Y8.3068 I-0.1065 J-0.1065
G3 X17.5721 Y8.3183 I-0.0576 J-0.1391
G3 X17.5144 Y8.3068 I0 J-0.1506
G3 X17.4656 Y8.2742 I0.0576 J-0.1391
G3 X17.4329 Y8.2253 I0.1065 J-0.1065
G3 X17.4215 Y8.1677 I0.1391 J-0.0576
G1 Z-0.75 F30
G1 X17.4215 Y0.8449 F60
G3 X17.4329 Y0.7872 I0.1506 J0
G3 X17.4656 Y0.7384 I0.1391 J0.0576
G3 X17.5144 Y0.7057 I0.1065 J0.1065
G3 X17.5721 Y0.6943 I0.0576 J0.1391
G3 X17.6297 Y0.7057 I0 J0.1506
G3 X17.6785 Y0.7384 I-0.0576 J0.1391
G3 X17.7112 Y0.7872 I-0.1065 J0.1065
G3 X17.7226 Y0.8449 I-0.1391 J0.0576
G1 X17.7226 Y8.1677
G3 X17.7112 Y8.2253 I-0.1506 J0
G3 X17.6785 Y8.2742 I-0.1391 J-0.0576
G3 X17.6297 Y8.3068 I-0.1065 J-0.1065
G3 X17.5721 Y8.3183 I-0.0576 J-0.1391
G3 X17.5144 Y8.3068 I0 J-0.1506
G3 X17.4656 Y8.2742 I0.0576 J-0.1391
G3 X17.4329 Y8.2253 I0.1065 J-0.1065
G3 X17.4215 Y8.1677 I0.1391 J-0.0576
G1 Z-0.8 F30
G1 X17.4215 Y0.8449 F60
G3 X17.4329 Y0.7872 I0.1506 J0
G3 X17.4656 Y0.7384 I0.1391 J0.0576
G3 X17.5144 Y0.7057 I0.1065 J0.1065
G3 X17.5721 Y0.6943 I0.0576 J0.1391
G3 X17.6297 Y0.7057 I0 J0.1506
G3 X17.6785 Y0.7384 I-0.0576 J0.1391
G3 X17.7112 Y0.7872 I-0.1065 J0.1065
G3 X17.7226 Y0.8449 I-0.1391 J0.0576
G1 X17.7226 Y8.1677
G3 X17.7112 Y8.2253 I-0.1506 J0
G3 X17.6785 Y8.2742 I-0.1391 J-0.0576
G3 X17.6297 Y8.3068 I-0.1065 J-0.1065
G3 X17.5721 Y8.3183 I-0.0576 J-0.1391
G3 X17.5144 Y8.3068 I0 J-0.1506
G3 X17.4656 Y8.2742 I0.0576 J-0.1391
G3 X17.4329 Y8.2253 I0.1065 J-0.1065
G3 X17.4215 Y8.1677 I0.1391 J-0.0576
G0 Z0.1
G0 X3.7207 Y8.1677
G1 Z-0.125 F30
G1 X3.7207 Y0.8449 F60
G3 X3.7322 Y0.7873 I0.1506 J0.0001
G3 X3.7648 Y0.7385 I0.1391 J0.0577
G3 X3.8137 Y0.7059 I0.1065 J0.1065
G3 X3.8713 Y0.6944 I0.0576 J0.1391
G3 X3.9289 Y0.7059 I0 J0.1506
G3 X3.9777 Y0.7385 I-0.0576 J0.1391
G3 X4.0104 Y0.7873 I-0.1065 J0.1065
G3 X4.0219 Y0.8449 I-0.1391 J0.0577
G1 X4.0219 Y8.1676
G3 X4.0104 Y8.2252 I-0.1506 J-0.0001
G3 X3.9777 Y8.2741 I-0.1391 J-0.0577
G3 X3.9289 Y8.3067 I-0.1065 J-0.1065
G3 X3.8713 Y8.3182 I-0.0576 J-0.1391
G3 X3.8137 Y8.3067 I0 J-0.1506
G3 X3.7648 Y8.2741 I0.0576 J-0.1391
G3 X3.7322 Y8.2252 I0.1065 J-0.1065
G3 X3.7207 Y8.1677 I0.1391 J-0.0577
G1 Z-0.25 F30
G1 X3.7207 Y0.8449 F60
G3 X3.7322 Y0.7873 I0.1506 J0.0001
G3 X3.7648 Y0.7385 I0.1391 J0.0577
G3 X3.8137 Y0.7059 I0.1065 J0.1065
G3 X3.8713 Y0.6944 I0.0576 J0.1391
G3 X3.9289 Y0.7059 I0 J0.1506
G3 X3.9777 Y0.7385 I-0.0576 J0.1391
G3 X4.0104 Y0.7873 I-0.1065 J0.1065
G3 X4.0219 Y0.8449 I-0.1391 J0.0577
G1 X4.0219 Y8.1676
G3 X4.0104 Y8.2252 I-0.1506 J-0.0001
G3 X3.9777 Y8.2741 I-0.1391 J-0.0577
G3 X3.9289 Y8.3067 I-0.1065 J-0.1065
G3 X3.8713 Y8.3182 I-0.0576 J-0.1391
G3 X3.8137 Y8.3067 I0 J-0.1506
G3 X3.7648 Y8.2741 I0.0576 J-0.1391
G3 X3.7322 Y8.2252 I0.1065 J-0.1065
G3 X3.7207 Y8.1677 I0.1391 J-0.0577
G1 Z-0.375 F30
G1 X3.7207 Y0.8449 F60
G3 X3.7322 Y0.7873 I0.1506 J0.0001
G3 X3.7648 Y0.7385 I0.1391 J0.0577
G3 X3.8137 Y0.7059 I0.1065 J0.1065
G3 X3.8713 Y0.6944 I0.0576 J0.1391
G3 X3.9289 Y0.7059 I0 J0.1506
G3 X3.9777 Y0.7385 I-0.0576 J0.1391
G3 X4.0104 Y0.7873 I-0.1065 J0.1065
G3 X4.0219 Y0.8449 I-0.1391 J0.0577
G1 X4.0219 Y8.1676
G3 X4.0104 Y8.2252 I-0.1506 J-0.0001
G3 X3.9777 Y8.2741 I-0.1391 J-0.0577
G3 X3.9289 Y8.3067 I-0.1065 J-0.1065
G3 X3.8713 Y8.3182 I-0.0576 J-0.1391
G3 X3.8137 Y8.3067 I0 J-0.1506
G3 X3.7648 Y8.2741 I0.0576 J-0.1391
G3 X3.7322 Y8.2252 I0.1065 J-0.1065
G3 X3.7207 Y8.1677 I0.1391 J-0.0577
G1 Z-0.5 F30
G1 X3.7207 Y0.8449 F60
G3 X3.7322 Y0.7873 I0.1506 J0.0001
G3 X3.7648 Y0.7385 I0.1391 J0.0577
G3 X3.8137 Y0.7059 I0.1065 J0.1065
G3 X3.8713 Y0.6944 I0.0576 J0.1391
G3 X3.9289 Y0.7059 I0 J0.1506
G3 X3.9777 Y0.7385 I-0.0576 J0.1391
G3 X4.0104 Y0.7873 I-0.1065 J0.1065
G3 X4.0219 Y0.8449 I-0.1391 J0.0577
G1 X4.0219 Y8.1676
G3 X4.0104 Y8.2252 I-0.1506 J-0.0001
G3 X3.9777 Y8.2741 I-0.1391 J-0.0577
G3 X3.9289 Y8.3067 I-0.1065 J-0.1065
G3 X3.8713 Y8.3182 I-0.0576 J-0.1391
G3 X3.8137 Y8.3067 I0 J-0.1506
G3 X3.7648 Y8.2741 I0.0576 J-0.1391
G3 X3.7322 Y8.2252 I0.1065 J-0.1065
G3 X3.7207 Y8.1677 I0.1391 J-0.0577
G1 Z-0.625 F30
G1 X3.7207 Y0.8449 F60
G3 X3.7322 Y0.7873 I0.1506 J0.0001
G3 X3.7648 Y0.7385 I0.1391 J0.0577
G3 X3.8137 Y0.7059 I0.1065 J0.1065
G3 X3.8713 Y0.6944 I0.0576 J0.1391
G3 X3.9289 Y0.7059 I0 J0.1506
G3 X3.9777 Y0.7385 I-0.0576 J0.1391
G3 X4.0104 Y0.7873 I-0.1065 J0.1065
G3 X4.0219 Y0.8449 I-0.1391 J0.0577
G1 X4.0219 Y8.1676
G3 X4.0104 Y8.2252 I-0.1506 J-0.0001
G3 X3.9777 Y8.2741 I-0.1391 J-0.0577
G3 X3.9289 Y8.3067 I-0.1065 J-0.1065
G3 X3.8713 Y8.3182 I-0.0576 J-0.1391
G3 X3.8137 Y8.3067 I0 J-0.1506
G3 X3.7648 Y8.2741 I0.0576 J-0.1391
G3 X3.7322 Y8.2252 I0.1065 J-0.1065
G3 X3.7207 Y8.1677 I0.1391 J-0.0577
G1 Z-0.75 F30
G1 X3.7207 Y0.8449 F60
G3 X3.7322 Y0.7873 I0.1506 J0.0001
G3 X3.7648 Y0.7385 I0.1391 J0.0577
G3 X3.8137 Y0.7059 I0.1065 J0.1065
G3 X3.8713 Y0.6944 I0.0576 J0.1391
G3 X3.9289 Y0.7059 I0 J0.1506
G3 X3.9777 Y0.7385 I-0.0576 J0.1391
G3 X4.0104 Y0.7873 I-0.1065 J0.1065
G3 X4.0219 Y0.8449 I-0.1391 J0.0577
G1 X4.0219 Y8.1676
G3 X4.0104 Y8.2252 I-0.1506 J-0.0001
G3 X3.9777 Y8.2741 I-0.1391 J-0.0577
G3 X3.9289 Y8.3067 I-0.1065 J-0.1065
G3 X3.8713 Y8.3182 I-0.0576 J-0.1391
G3 X3.8137 Y8.3067 I0 J-0.1506
G3 X3.7648 Y8.2741 I0.0576 J-0.1391
G3 X3.7322 Y8.2252 I0.1065 J-0.1065
G3 X3.7207 Y8.1677 I0.1391 J-0.0577
G1 Z-0.8 F30
G1 X3.7207 Y0.8449 F60
G3 X3.7322 Y0.7873 I0.1506 J0.0001
G3 X3.7648 Y0.7385 I0.1391 J0.0577
G3 X3.8137 Y0.7059 I0.1065 J0.1065
G3 X3.8713 Y0.6944 I0.0576 J0.1391
G3 X3.9289 Y0.7059 I0 J0.1506
G3 X3.9777 Y0.7385 I-0.0576 J0.1391
G3 X4.0104 Y0.7873 I-0.1065 J0.1065
G3 X4.0219 Y0.8449 I-0.1391 J0.0577
G1 X4.0219 Y8.1676
G3 X4.0104 Y8.2252 I-0.1506 J-0.0001
G3 X3.9777 Y8.2741 I-0.1391 J-0.0577
G3 X3.9289 Y8.3067 I-0.1065 J-0.1065
G3 X3.8713 Y8.3182 I-0.0576 J-0.1391
G3 X3.8137 Y8.3067 I0 J-0.1506
G3 X3.7648 Y8.2741 I0.0576 J-0.1391
G3 X3.7322 Y8.2252 I0.1065 J-0.1065
G3 X3.7207 Y8.1677 I0.1391 J-0.0577
G0 Z0.1
G0 X4.8624 Y8.1677
G1 Z-0.125 F30
G1 X4.8624 Y0.845 F60
G3 X4.8739 Y0.7875 I0.1506 J0.0002
G3 X4.9066 Y0.7387 I0.1391 J0.0578
G3 X4.9554 Y0.7061 I0.1064 J0.1066
G3 X5.013 Y0.6946 I0.0576 J0.1391
G3 X5.0706 Y0.7061 I0 J0.1506
G3 X5.1194 Y0.7387 I-0.0576 J0.1391
G3 X5.1521 Y0.7875 I-0.1064 J0.1066
G3 X5.1636 Y0.8449 I-0.1391 J0.0578
G1 X5.1636 Y8.1675
G3 X5.1521 Y8.2251 I-0.1506 J-0.0002
G3 X5.1194 Y8.2739 I-0.1391 J-0.0578
G3 X5.0706 Y8.3065 I-0.1064 J-0.1066
G3 X5.013 Y8.3179 I-0.0576 J-0.1391
G3 X4.9554 Y8.3065 I0 J-0.1506
G3 X4.9066 Y8.2739 I0.0576 J-0.1391
G3 X4.8739 Y8.2251 I0.1064 J-0.1066
G3 X4.8624 Y8.1677 I0.1391 J-0.0578
G1 Z-0.25 F30
G1 X4.8624 Y0.845 F60
G3 X4.8739 Y0.7875 I0.1506 J0.0002
G3 X4.9066 Y0.7387 I0.1391 J0.0578
G3 X4.9554 Y0.7061 I0.1064 J0.1066
G3 X5.013 Y0.6946 I0.0576 J0.1391
G3 X5.0706 Y0.7061 I0 J0.1506
G3 X5.1194 Y0.7387 I-0.0576 J0.1391
G3 X5.1521 Y0.7875 I-0.1064 J0.1066
G3 X5.1636 Y0.8449 I-0.1391 J0.0578
G1 X5.1636 Y8.1675
G3 X5.1521 Y8.2251 I-0.1506 J-0.0002
G3 X5.1194 Y8.2739 I-0.1391 J-0.0578
G3 X5.0706 Y8.3065 I-0.1064 J-0.1066
G3 X5.013 Y8.3179 I-0.0576 J-0.1391
G3 X4.9554 Y8.3065 I0 J-0.1506
G3 X4.9066 Y8.2739 I0.0576 J-0.1391
G3 X4.8739 Y8.2251 I0.1064 J-0.1066
G3 X4.8624 Y8.1677 I0.1391 J-0.0578
G1 Z-0.375 F30
G1 X4.8624 Y0.845 F60
G3 X4.8739 Y0.7875 I0.1506 J0.0002
G3 X4.9066 Y0.7387 I0.1391 J0.0578
G3 X4.9554 Y0.7061 I0.1064 J0.1066
G3 X5.013 Y0.6946 I0.0576 J0.1391
G3 X5.0706 Y0.7061 I0 J0.1506
G3 X5.1194 Y0.7387 I-0.0576 J0.1391
G3 X5.1521 Y0.7875 I-0.1064 J0.1066
G3 X5.1636 Y0.8449 I-0.1391 J0.0578
G1 X5.1636 Y8.1675
G3 X5.1521 Y8.2251 I-0.1506 J-0.0002
G3 X5.1194 Y8.2739 I-0.1391 J-0.0578
G3 X5.0706 Y8.3065 I-0.1064 J-0.1066
G3 X5.013 Y8.3179 I-0.0576 J-0.1391
G3 X4.9554 Y8.3065 I0 J-0.1506
G3 X4.9066 Y8.2739 I0.0576 J-0.1391
G3 X4.8739 Y8.2251 I0.1064 J-0.1066
G3 X4.8624 Y8.1677 I0.1391 J-0.0578
G1 Z-0.5 F30
G1 X4.8624 Y0.845 F60
G3 X4.8739 Y0.7875 I0.1506 J0.0002
G3 X4.9066 Y0.7387 I0.1391 J0.0578
G3 X4.9554 Y0.7061 I0.1064 J0.1066
G3 X5.013 Y0.6946 I0.0576 J0.1391
G3 X5.0706 Y0.7061 I0 J0.1506
G3 X5.1194 Y0.7387 I-0.0576 J0.1391
G3 X5.1521 Y0.7875 I-0.1064 J0.1066
G3 X5.1636 Y0.8449 I-0.1391 J0.0578
G1 X5.1636 Y8.1675
G3 X5.1521 Y8.2251 I-0.1506 J-0.0002
G3 X5.1194 Y8.2739 I-0.1391 J-0.0578
G3 X5.0706 Y8.3065 I-0.1064 J-0.1066
G3 X5.013 Y8.3179 I-0.0576 J-0.1391
G3 X4.9554 Y8.3065 I0 J-0.1506
G3 X4.9066 Y8.2739 I0.0576 J-0.1391
G3 X4.8739 Y8.2251 I0.1064 J-0.1066
G3 X4.8624 Y8.1677 I0.1391 J-0.0578
G1 Z-0.625 F30
G1 X4.8624 Y0.845 F60
G3 X4.8739 Y0.7875 I0.1506 J0.0002
G3 X4.9066 Y0.7387 I0.1391 J0.0578
G3 X4.9554 Y0.7061 I0.1064 J0.1066
G3 X5.013 Y0.6946 I0.0576 J0.1391
G3 X5.0706 Y0.7061 I0 J0.1506
G3 X5.1194 Y0.7387 I-0.0576 J0.1391
G3 X5.1521 Y0.7875 I-0.1064 J0.1066
G3 X5.1636 Y0.8449 I-0.1391 J0.0578
G1 X5.1636 Y8.1675
G3 X5.1521 Y8.2251 I-0.1506 J-0.0002
G3 X5.1194 Y8.2739 I-0.1391 J-0.0578
G3 X5.0706 Y8.3065 I-0.1064 J-0.1066
G3 X5.013 Y8.3179 I-0.0576 J-0.1391
G3 X4.9554 Y8.3065 I0 J-0.1506
G3 X4.9066 Y8.2739 I0.0576 J-0.1391
G3 X4.8739 Y8.2251 I0.1064 J-0.1066
G3 X4.8624 Y8.1677 I0.1391 J-0.0578
G1 Z-0.75 F30
G1 X4.8624 Y0.845 F60
G3 X4.8739 Y0.7875 I0.1506 J0.0002
G3 X4.9066 Y0.7387 I0.1391 J0.0578
G3 X4.9554 Y0.7061 I0.1064 J0.1066
G3 X5.013 Y0.6946 I0.0576 J0.1391
G3 X5.0706 Y0.7061 I0 J0.1506
G3 X5.1194 Y0.7387 I-0.0576 J0.1391
G3 X5.1521 Y0.7875 I-0.1064 J0.1066
G3 X5.1636 Y0.8449 I-0.1391 J0.0578
G1 X5.1636 Y8.1675
G3 X5.1521 Y8.2251 I-0.1506 J-0.0002
G3 X5.1194 Y8.2739 I-0.1391 J-0.0578
G3 X5.0706 Y8.3065 I-0.1064 J-0.1066
G3 X5.013 Y8.3179 I-0.0576 J-0.1391
G3 X4.9554 Y8.3065 I0 J-0.1506
G3 X4.9066 Y8.2739 I0.0576 J-0.1391
G3 X4.8739 Y8.2251 I0.1064 J-0.1066
G3 X4.8624 Y8.1677 I0.1391 J-0.0578
G1 Z-0.8 F30
G1 X4.8624 Y0.845 F60
G3 X4.8739 Y0.7875 I0.1506 J0.0002
G3 X4.9066 Y0.7387 I0.1391 J0.0578
G3 X4.9554 Y0.7061 I0.1064 J0.1066
G3 X5.013 Y0.6946 I0.0576 J0.1391
G3 X5.0706 Y0.7061 I0 J0.1506
G3 X5.1194 Y0.7387 I-0.0576 J0.1391
G3 X5.1521 Y0.7875 I-0.1064 J0.1066
G3 X5.1636 Y0.8449 I-0.1391 J0.0578
G1 X5.1636 Y8.1675
G3 X5.1521 Y8.2251 I-0.1506 J-0.0002
G3 X5.1194 Y8.2739 I-0.1391 J-0.0578
G3 X5.0706 Y8.3065 I-0.1064 J-0.1066
G3 X5.013 Y8.3179 I-0.0576 J-0.1391
G3 X4.9554 Y8.3065 I0 J-0.1506
G3 X4.9066 Y8.2739 I0.0576 J-0.1391
G3 X4.8739 Y8.2251 I0.1064 J-0.1066
G3 X4.8624 Y8.1677 I0.1391 J-0.0578
G0 Z0.1
G0 X15.138 Y8.1677
G1 Z-0.125 F30
G1 X15.138 Y0.8451 F60
G3 X15.1495 Y0.7875 I0.1506 J0.0003
G3 X15.1822 Y0.7388 I0.139 J0.0578
G3 X15.231 Y0.7062 I0.1064 J0.1066
G3 X15.2886 Y0.6948 I0.0576 J0.1392
G3 X15.3462 Y0.7062 I0 J0.1506
G3 X15.395 Y0.7388 I-0.0576 J0.1392
G3 X15.4276 Y0.7875 I-0.1064 J0.1066
G3 X15.4392 Y0.8449 I-0.139 J0.0578
G1 X15.4392 Y8.1675
G3 X15.4276 Y8.225 I-0.1506 J-0.0003
G3 X15.395 Y8.2738 I-0.139 J-0.0578
G3 X15.3462 Y8.3064 I-0.1064 J-0.1066
G3 X15.2886 Y8.3178 I-0.0576 J-0.1392
G3 X15.231 Y8.3064 I0 J-0.1506
G3 X15.1822 Y8.2738 I0.0576 J-0.1392
G3 X15.1495 Y8.225 I0.1064 J-0.1066
G3 X15.138 Y8.1677 I0.139 J-0.0578
G1 Z-0.25 F30
G1 X15.138 Y0.8451 F60
G3 X15.1495 Y0.7875 I0.1506 J0.0003
G3 X15.1822 Y0.7388 I0.139 J0.0578
G3 X15.231 Y0.7062 I0.1064 J0.1066
G3 X15.2886 Y0.6948 I0.0576 J0.1392
G3 X15.3462 Y0.7062 I0 J0.1506
G3 X15.395 Y0.7388 I-0.0576 J0.1392
G3 X15.4276 Y0.7875 I-0.1064 J0.1066
G3 X15.4392 Y0.8449 I-0.139 J0.0578
G1 X15.4392 Y8.1675
G3 X15.4276 Y8.225 I-0.1506 J-0.0003
G3 X15.395 Y8.2738 I-0.139 J-0.0578
G3 X15.3462 Y8.3064 I-0.1064 J-0.1066
G3 X15.2886 Y8.3178 I-0.0576 J-0.1392
G3 X15.231 Y8.3064 I0 J-0.1506
G3 X15.1822 Y8.2738 I0.0576 J-0.1392
G3 X15.1495 Y8.225 I0.1064 J-0.1066
G3 X15.138 Y8.1677 I0.139 J-0.0578
G1 Z-0.375 F30
G1 X15.138 Y0.8451 F60
G3 X15.1495 Y0.7875 I0.1506 J0.0003
G3 X15.1822 Y0.7388 I0.139 J0.0578
G3 X15.231 Y0.7062 I0.1064 J0.1066
G3 X15.2886 Y0.6948 I0.0576 J0.1392
G3 X15.3462 Y0.7062 I0 J0.1506
G3 X15.395 Y0.7388 I-0.0576 J0.1392
G3 X15.4276 Y0.7875 I-0.1064 J0.1066
G3 X15.4392 Y0.8449 I-0.139 J0.0578
G1 X15.4392 Y8.1675
G3 X15.4276 Y8.225 I-0.1506 J-0.0003
G3 X15.395 Y8.2738 I-0.139 J-0.0578
G3 X15.3462 Y8.3064 I-0.1064 J-0.1066
G3 X15.2886 Y8.3178 I-0.0576 J-0.1392
G3 X15.231 Y8.3064 I0 J-0.1506
G3 X15.1822 Y8.2738 I0.0576 J-0.1392
G3 X15.1495 Y8.225 I0.1064 J-0.1066
G3 X15.138 Y8.1677 I0.139 J-0.0578
G1 Z-0.5 F30
G1 X15.138 Y0.8451 F60
G3 X15.1495 Y0.7875 I0.1506 J0.0003
G3 X15.1822 Y0.7388 I0.139 J0.0578
G3 X15.231 Y0.7062 I0.1064 J0.1066
G3 X15.2886 Y0.6948 I0.0576 J0.1392
G3 X15.3462 Y0.7062 I0 J0.1506
G3 X15.395 Y0.7388 I-0.0576 J0.1392
G3 X15.4276 Y0.7875 I-0.1064 J0.1066
G3 X15.4392 Y0.8449 I-0.139 J0.0578
G1 X15.4392 Y8.1675
G3 X15.4276 Y8.225 I-0.1506 J-0.0003
G3 X15.395 Y8.2738 I-0.139 J-0.0578
G3 X15.3462 Y8.3064 I-0.1064 J-0.1066
G3 X15.2886 Y8.3178 I-0.0576 J-0.1392
G3 X15.231 Y8.3064 I0 J-0.1506
G3 X15.1822 Y8.2738 I0.0576 J-0.1392
G3 X15.1495 Y8.225 I0.1064 J-0.1066
G3 X15.138 Y8.1677 I0.139 J-0.0578
G1 Z-0.625 F30
G1 X15.138 Y0.8451 F60
G3 X15.1495 Y0.7875 I0.1506 J0.0003
G3 X15.1822 Y0.7388 I0.139 J0.0578
G3 X15.231 Y0.7062 I0.1064 J0.1066
G3 X15.2886 Y0.6948 I0.0576 J0.1392
G3 X15.3462 Y0.7062 I0 J0.1506
G3 X15.395 Y0.7388 I-0.0576 J0.1392
G3 X15.4276 Y0.7875 I-0.1064 J0.1066
G3 X15.4392 Y0.8449 I-0.139 J0.0578
G1 X15.4392 Y8.1675
G3 X15.4276 Y8.225 I-0.1506 J-0.0003
G3 X15.395 Y8.2738 I-0.139 J-0.0578
G3 X15.3462 Y8.3064 I-0.1064 J-0.1066
G3 X15.2886 Y8.3178 I-0.0576 J-0.1392
G3 X15.231 Y8.3064 I0 J-0.1506
G3 X15.1822 Y8.2738 I0.0576 J-0.1392
G3 X15.1495 Y8.225 I0.1064 J-0.1066
G3 X15.138 Y8.1677 I0.139 J-0.0578
G1 Z-0.75 F30
G1 X15.138 Y0.8451 F60
G3 X15.1495 Y0.7875 I0.1506 J0.0003
G3 X15.1822 Y0.7388 I0.139 J0.0578
G3 X15.231 Y0.7062 I0.1064 J0.1066
G3 X15.2886 Y0.6948 I0.0576 J0.1392
G3 X15.3462 Y0.7062 I0 J0.1506
G3 X15.395 Y0.7388 I-0.0576 J0.1392
G3 X15.4276 Y0.7875 I-0.1064 J0.1066
G3 X15.4392 Y0.8449 I-0.139 J0.0578
G1 X15.4392 Y8.1675
G3 X15.4276 Y8.225 I-0.1506 J-0.0003
G3 X15.395 Y8.2738 I-0.139 J-0.0578
G3 X15.3462 Y8.3064 I-0.1064 J-0.1066
G3 X15.2886 Y8.3178 I-0.0576 J-0.1392
G3 X15.231 Y8.3064 I0 J-0.1506
G3 X15.1822 Y8.2738 I0.0576 J-0.1392
G3 X15.1495 Y8.225 I0.1064 J-0.1066
G3 X15.138 Y8.1677 I0.139 J-0.0578
G1 Z-0.8 F30
G1 X15.138 Y0.8451 F60
G3 X15.1495 Y0.7875 I0.1506 J0.0003
G3 X15.1822 Y0.7388 I0.139 J0.0578
G3 X15.231 Y0.7062 I0.1064 J0.1066
G3 X15.2886 Y0.6948 I0.0576 J0.1392
G3 X15.3462 Y0.7062 I0 J0.1506
G3 X15.395 Y0.7388 I-0.0576 J0.1392
G3 X15.4276 Y0.7875 I-0.1064 J0.1066
G3 X15.4392 Y0.8449 I-0.139 J0.0578
G1 X15.4392 Y8.1675
G3 X15.4276 Y8.225 I-0.1506 J-0.0003
G3 X15.395 Y8.2738 I-0.139 J-0.0578
G3 X15.3462 Y8.3064 I-0.1064 J-0.1066
G3 X15.2886 Y8.3178 I-0.0576 J-0.1392
G3 X15.231 Y8.3064 I0 J-0.1506
G3 X15.1822 Y8.2738 I0.0576 J-0.1392
G3 X15.1495 Y8.225 I0.1064 J-0.1066
G3 X15.138 Y8.1677 I0.139 J-0.0578
G0 Z0.1
G0 X12.014 Y0.8449
G1 Z-0.125 F30
G1 X12.014 Y8.1675 F60
G3 X12.0024 Y8.225 I-0.1506 J-0.0003
G3 X11.9698 Y8.2738 I-0.139 J-0.0578
G3 X11.921 Y8.3064 I-0.1064 J-0.1066
G3 X11.8634 Y8.3178 I-0.0576 J-0.1392
G3 X11.8058 Y8.3064 I0 J-0.1506
G3 X11.757 Y8.2738 I0.0576 J-0.1392
G3 X11.7243 Y8.225 I0.1064 J-0.1066
G3 X11.7128 Y8.1677 I0.139 J-0.0578
G1 X11.7128 Y0.8451
G3 X11.7243 Y0.7875 I0.1506 J0.0003
G3 X11.757 Y0.7388 I0.139 J0.0578
G3 X11.8058 Y0.7062 I0.1064 J0.1066
G3 X11.8634 Y0.6948 I0.0576 J0.1392
G3 X11.921 Y0.7062 I0 J0.1506
G3 X11.9698 Y0.7388 I-0.0576 J0.1392
G3 X12.0024 Y0.7875 I-0.1064 J0.1066
G3 X12.014 Y0.8449 I-0.139 J0.0578
G1 Z-0.25 F30
G1 X12.014 Y8.1675 F60
G3 X12.0024 Y8.225 I-0.1506 J-0.0003
G3 X11.9698 Y8.2738 I-0.139 J-0.0578
G3 X11.921 Y8.3064 I-0.1064 J-0.1066
G3 X11.8634 Y8.3178 I-0.0576 J-0.1392
G3 X11.8058 Y8.3064 I0 J-0.1506
G3 X11.757 Y8.2738 I0.0576 J-0.1392
G3 X11.7243 Y8.225 I0.1064 J-0.1066
G3 X11.7128 Y8.1677 I0.139 J-0.0578
G1 X11.7128 Y0.8451
G3 X11.7243 Y0.7875 I0.1506 J0.0003
G3 X11.757 Y0.7388 I0.139 J0.0578
G3 X11.8058 Y0.7062 I0.1064 J0.1066
G3 X11.8634 Y0.6948 I0.0576 J0.1392
G3 X11.921 Y0.7062 I0 J0.1506
G3 X11.9698 Y0.7388 I-0.0576 J0.1392
G3 X12.0024 Y0.7875 I-0.1064 J0.1066
G3 X12.014 Y0.8449 I-0.139 J0.0578
G1 Z-0.375 F30
G1 X12.014 Y8.1675 F60
G3 X12.0024 Y8.225 I-0.1506 J-0.0003
G3 X11.9698 Y8.2738 I-0.139 J-0.0578
G3 X11.921 Y8.3064 I-0.1064 J-0.1066
G3 X11.8634 Y8.3178 I-0.0576 J-0.1392
G3 X11.8058 Y8.3064 I0 J-0.1506
G3 X11.757 Y8.2738 I0.0576 J-0.1392
G3 X11.7243 Y8.225 I0.1064 J-0.1066
G3 X11.7128 Y8.1677 I0.139 J-0.0578
G1 X11.7128 Y0.8451
G3 X11.7243 Y0.7875 I0.1506 J0.0003
G3 X11.757 Y0.7388 I0.139 J0.0578
G3 X11.8058 Y0.7062 I0.1064 J0.1066
G3 X11.8634 Y0.6948 I0.0576 J0.1392
G3 X11.921 Y0.7062 I0 J0.1506
G3 X11.9698 Y0.7388 I-0.0576 J0.1392
G3 X12.0024 Y0.7875 I-0.1064 J0.1066
G3 X12.014 Y0.8449 I-0.139 J0.0578
G1 Z-0.5 F30
G1 X12.014 Y8.1675 F60
G3 X12.0024 Y8.225 I-0.1506 J-0.0003
G3 X11.9698 Y8.2738 I-0.139 J-0.0578
G3 X11.921 Y8.3064 I-0.1064 J-0.1066
G3 X11.8634 Y8.3178 I-0.0576 J-0.1392
G3 X11.8058 Y8.3064 I0 J-0.1506
G3 X11.757 Y8.2738 I0.0576 J-0.1392
G3 X11.7243 Y8.225 I0.1064 J-0.1066
G3 X11.7128 Y8.1677 I0.139 J-0.0578
G1 X11.7128 Y0.8451
G3 X11.7243 Y0.7875 I0.1506 J0.0003
G3 X11.757 Y0.7388 I0.139 J0.0578
G3 X11.8058 Y0.7062 I0.1064 J0.1066
G3 X11.8634 Y0.6948 I0.0576 J0.1392
G3 X11.921 Y0.7062 I0 J0.1506
G3 X11.9698 Y0.7388 I-0.0576 J0.1392
G3 X12.0024 Y0.7875 I-0.1064 J0.1066
G3 X12.014 Y0.8449 I-0.139 J0.0578
G1 Z-0.625 F30
G1 X12.014 Y8.1675 F60
G3 X12.0024 Y8.225 I-0.1506 J-0.0003
G3 X11.9698 Y8.2738 I-0.139 J-0.0578
G3 X11.921 Y8.3064 I-0.1064 J-0.1066
G3 X11.8634 Y8.3178 I-0.0576 J-0.1392
G3 X11.8058 Y8.3064 I0 J-0.1506
G3 X11.757 Y8.2738 I0.0576 J-0.1392
G3 X11.7243 Y8.225 I0.1064 J-0.1066
G3 X11.7128 Y8.1677 I0.139 J-0.0578
G1 X11.7128 Y0.8451
G3 X11.7243 Y0.7875 I0.1506 J0.0003
G3 X11.757 Y0.7388 I0.139 J0.0578
G3 X11.8058 Y0.7062 I0.1064 J0.1066
G3 X11.8634 Y0.6948 I0.0576 J0.1392
G3 X11.921 Y0.7062 I0 J0.1506
G3 X11.9698 Y0.7388 I-0.0576 J0.1392
G3 X12.0024 Y0.7875 I-0.1064 J0.1066
G3 X12.014 Y0.8449 I-0.139 J0.0578
G1 Z-0.75 F30
G1 X12.014 Y8.1675 F60
G3 X12.0024 Y8.225 I-0.1506 J-0.0003
G3 X11.9698 Y8.2738 I-0.139 J-0.0578
G3 X11.921 Y8.3064 I-0.1064 J-0.1066
G3 X11.8634 Y8.3178 I-0.0576 J-0.1392
G3 X11.8058 Y8.3064 I0 J-0.1506
G3 X11.757 Y8.2738 I0.0576 J-0.1392
G3 X11.7243 Y8.225 I0.1064 J-0.1066
G3 X11.7128 Y8.1677 I0.139 J-0.0578
G1 X11.7128 Y0.8451
G3 X11.7243 Y0.7875 I0.1506 J0.0003
G3 X11.757 Y0.7388 I0.139 J0.0578
G3 X11.8058 Y0.7062 I0.1064 J0.1066
G3 X11.8634 Y0.6948 I0.0576 J0.1392
G3 X11.921 Y0.7062 I0 J0.1506
G3 X11.9698 Y0.7388 I-0.0576 J0.1392
G3 X12.0024 Y0.7875 I-0.1064 J0.1066
G3 X12.014 Y0.8449 I-0.139 J0.0578
G1 Z-0.8 F30
G1 X12.014 Y8.1675 F60
G3 X12.0024 Y8.225 I-0.1506 J-0.0003
G3 X11.9698 Y8.2738 I-0.139 J-0.0578
G3 X11.921 Y8.3064 I-0.1064 J-0.1066
G3 X11.8634 Y8.3178 I-0.0576 J-0.1392
G3 X11.8058 Y8.3064 I0 J-0.1506
G3 X11.757 Y8.2738 I0.0576 J-0.1392
G3 X11.7243 Y8.225 I0.1064 J-0.1066
G3 X11.7128 Y8.1677 I0.139 J-0.0578
G1 X11.7128 Y0.8451
G3 X11.7243 Y0.7875 I0.1506 J0.0003
G3 X11.757 Y0.7388 I0.139 J0.0578
G3 X11.8058 Y0.7062 I0.1064 J0.1066
G3 X11.8634 Y0.6948 I0.0576 J0.1392
G3 X11.921 Y0.7062 I0 J0.1506
G3 X11.9698 Y0.7388 I-0.0576 J0.1392
G3 X12.0024 Y0.7875 I-0.1064 J0.1066
G3 X12.014 Y0.8449 I-0.139 J0.0578
G0 Z0.1
G0 X14.2975 Y0.8449
G1 Z-0.125 F30
G1 X14.2975 Y8.1675 F60
G3 X14.2859 Y8.225 I-0.1506 J-0.0003
G3 X14.2532 Y8.2738 I-0.139 J-0.0578
G3 X14.2044 Y8.3064 I-0.1064 J-0.1066
G3 X14.1469 Y8.3178 I-0.0576 J-0.1392
G3 X14.0893 Y8.3064 I0 J-0.1506
G3 X14.0405 Y8.2738 I0.0576 J-0.1392
G3 X14.0078 Y8.225 I0.1064 J-0.1066
G3 X13.9963 Y8.1677 I0.139 J-0.0578
G1 X13.9963 Y0.8451
G3 X14.0078 Y0.7875 I0.1506 J0.0003
G3 X14.0405 Y0.7388 I0.139 J0.0578
G3 X14.0893 Y0.7062 I0.1064 J0.1066
G3 X14.1469 Y0.6948 I0.0576 J0.1392
G3 X14.2044 Y0.7062 I0 J0.1506
G3 X14.2532 Y0.7388 I-0.0576 J0.1392
G3 X14.2859 Y0.7875 I-0.1064 J0.1066
G3 X14.2975 Y0.8449 I-0.139 J0.0578
G1 Z-0.25 F30
G1 X14.2975 Y8.1675 F60
G3 X14.2859 Y8.225 I-0.1506 J-0.0003
G3 X14.2532 Y8.2738 I-0.139 J-0.0578
G3 X14.2044 Y8.3064 I-0.1064 J-0.1066
G3 X14.1469 Y8.3178 I-0.0576 J-0.1392
G3 X14.0893 Y8.3064 I0 J-0.1506
G3 X14.0405 Y8.2738 I0.0576 J-0.1392
G3 X14.0078 Y8.225 I0.1064 J-0.1066
G3 X13.9963 Y8.1677 I0.139 J-0.0578
G1 X13.9963 Y0.8451
G3 X14.0078 Y0.7875 I0.1506 J0.0003
G3 X14.0405 Y0.7388 I0.139 J0.0578
G3 X14.0893 Y0.7062 I0.1064 J0.1066
G3 X14.1469 Y0.6948 I0.0576 J0.1392
G3 X14.2044 Y0.7062 I0 J0.1506
G3 X14.2532 Y0.7388 I-0.0576 J0.1392
G3 X14.2859 Y0.7875 I-0.1064 J0.1066
G3 X14.2975 Y0.8449 I-0.139 J0.0578
G1 Z-0.375 F30
G1 X14.2975 Y8.1675 F60
G3 X14.2859 Y8.225 I-0.1506 J-0.0003
G3 X14.2532 Y8.2738 I-0.139 J-0.0578
G3 X14.2044 Y8.3064 I-0.1064 J-0.1066
G3 X14.1469 Y8.3178 I-0.0576 J-0.1392
G3 X14.0893 Y8.3064 I0 J-0.1506
G3 X14.0405 Y8.2738 I0.0576 J-0.1392
G3 X14.0078 Y8.225 I0.1064 J-0.1066
G3 X13.9963 Y8.1677 I0.139 J-0.0578
G1 X13.9963 Y0.8451
G3 X14.0078 Y0.7875 I0.1506 J0.0003
G3 X14.0405 Y0.7388 I0.139 J0.0578
G3 X14.0893 Y0.7062 I0.1064 J0.1066
G3 X14.1469 Y0.6948 I0.0576 J0.1392
G3 X14.2044 Y0.7062 I0 J0.1506
G3 X14.2532 Y0.7388 I-0.0576 J0.1392
G3 X14.2859 Y0.7875 I-0.1064 J0.1066
G3 X14.2975 Y0.8449 I-0.139 J0.0578
G1 Z-0.5 F30
G1 X14.2975 Y8.1675 F60
G3 X14.2859 Y8.225 I-0.1506 J-0.0003
G3 X14.2532 Y8.2738 I-0.139 J-0.0578
G3 X14.2044 Y8.3064 I-0.1064 J-0.1066
G3 X14.1469 Y8.3178 I-0.0576 J-0.1392
G3 X14.0893 Y8.3064 I0 J-0.1506
G3 X14.0405 Y8.2738 I0.0576 J-0.1392
G3 X14.0078 Y8.225 I0.1064 J-0.1066
G3 X13.9963 Y8.1677 I0.139 J-0.0578
G1 X13.9963 Y0.8451
G3 X14.0078 Y0.7875 I0.1506 J0.0003
G3 X14.0405 Y0.7388 I0.139 J0.0578
G3 X14.0893 Y0.7062 I0.1064 J0.1066
G3 X14.1469 Y0.6948 I0.0576 J0.1392
G3 X14.2044 Y0.7062 I0 J0.1506
G3 X14.2532 Y0.7388 I-0.0576 J0.1392
G3 X14.2859 Y0.7875 I-0.1064 J0.1066
G3 X14.2975 Y0.8449 I-0.139 J0.0578
G1 Z-0.625 F30
G1 X14.2975 Y8.1675 F60
G3 X14.2859 Y8.225 I-0.1506 J-0.0003
G3 X14.2532 Y8.2738 I-0.139 J-0.0578
G3 X14.2044 Y8.3064 I-0.1064 J-0.1066
G3 X14.1469 Y8.3178 I-0.0576 J-0.1392
G3 X14.0893 Y8.3064 I0 J-0.1506
G3 X14.0405 Y8.2738 I0.0576 J-0.1392
G3 X14.0078 Y8.225 I0.1064 J-0.1066
G3 X13.9963 Y8.1677 I0.139 J-0.0578
G1 X13.9963 Y0.8451
G3 X14.0078 Y0.7875 I0.1506 J0.0003
G3 X14.0405 Y0.7388 I0.139 J0.0578
G3 X14.0893 Y0.7062 I0.1064 J0.1066
G3 X14.1469 Y0.6948 I0.0576 J0.1392
G3 X14.2044 Y0.7062 I0 J0.1506
G3 X14.2532 Y0.7388 I-0.0576 J0.1392
G3 X14.2859 Y0.7875 I-0.1064 J0.1066
G3 X14.2975 Y0.8449 I-0.139 J0.0578
G1 Z-0.75 F30
G1 X14.2975 Y8.1675 F60
G3 X14.2859 Y8.225 I-0.1506 J-0.0003
G3 X14.2532 Y8.2738 I-0.139 J-0.0578
G3 X14.2044 Y8.3064 I-0.1064 J-0.1066
G3 X14.1469 Y8.3178 I-0.0576 J-0.1392
G3 X14.0893 Y8.3064 I0 J-0.1506
G3 X14.0405 Y8.2738 I0.0576 J-0.1392
G3 X14.0078 Y8.225 I0.1064 J-0.1066
G3 X13.9963 Y8.1677 I0.139 J-0.0578
G1 X13.9963 Y0.8451
G3 X14.0078 Y0.7875 I0.1506 J0.0003
G3 X14.0405 Y0.7388 I0.139 J0.0578
G3 X14.0893 Y0.7062 I0.1064 J0.1066
G3 X14.1469 Y0.6948 I0.0576 J0.1392
G3 X14.2044 Y0.7062 I0 J0.1506
G3 X14.2532 Y0.7388 I-0.0576 J0.1392
G3 X14.2859 Y0.7875 I-0.1064 J0.1066
G3 X14.2975 Y0.8449 I-0.139 J0.0578
G1 Z-0.8 F30
G1 X14.2975 Y8.1675 F60
G3 X14.2859 Y8.225 I-0.1506 J-0.0003
G3 X14.2532 Y8.2738 I-0.139 J-0.0578
G3 X14.2044 Y8.3064 I-0.1064 J-0.1066
G3 X14.1469 Y8.3178 I-0.0576 J-0.1392
G3 X14.0893 Y8.3064 I0 J-0.1506
G3 X14.0405 Y8.2738 I0.0576 J-0.1392
G3 X14.0078 Y8.225 I0.1064 J-0.1066
G3 X13.9963 Y8.1677 I0.139 J-0.0578
G1 X13.9963 Y0.8451
G3 X14.0078 Y0.7875 I0.1506 J0.0003
G3 X14.0405 Y0.7388 I0.139 J0.0578
G3 X14.0893 Y0.7062 I0.1064 J0.1066
G3 X14.1469 Y0.6948 I0.0576 J0.1392
G3 X14.2044 Y0.7062 I0 J0.1506
G3 X14.2532 Y0.7388 I-0.0576 J0.1392
G3 X14.2859 Y0.7875 I-0.1064 J0.1066
G3 X14.2975 Y0.8449 I-0.139 J0.0578
G0 Z0.1
G0 X13.1557 Y0.8449
G1 Z-0.125 F30
G1 X13.1557 Y8.1675 F60
G3 X13.1442 Y8.225 I-0.1506 J-0.0003
G3 X13.1115 Y8.2738 I-0.139 J-0.0578
G3 X13.0627 Y8.3064 I-0.1064 J-0.1066
G3 X13.0051 Y8.3178 I-0.0576 J-0.1392
G3 X12.9476 Y8.3064 I0 J-0.1506
G3 X12.8987 Y8.2738 I0.0576 J-0.1392
G3 X12.8661 Y8.225 I0.1064 J-0.1066
G3 X12.8545 Y8.1677 I0.139 J-0.0578
G1 X12.8545 Y0.8451
G3 X12.8661 Y0.7875 I0.1506 J0.0003
G3 X12.8987 Y0.7388 I0.139 J0.0578
G3 X12.9476 Y0.7062 I0.1064 J0.1066
G3 X13.0051 Y0.6948 I0.0576 J0.1392
G3 X13.0627 Y0.7062 I0 J0.1506
G3 X13.1115 Y0.7388 I-0.0576 J0.1392
G3 X13.1442 Y0.7875 I-0.1064 J0.1066
G3 X13.1557 Y0.8449 I-0.139 J0.0578
G1 Z-0.25 F30
G1 X13.1557 Y8.1675 F60
G3 X13.1442 Y8.225 I-0.1506 J-0.0003
G3 X13.1115 Y8.2738 I-0.139 J-0.0578
G3 X13.0627 Y8.3064 I-0.1064 J-0.1066
G3 X13.0051 Y8.3178 I-0.0576 J-0.1392
G3 X12.9476 Y8.3064 I0 J-0.1506
G3 X12.8987 Y8.2738 I0.0576 J-0.1392
G3 X12.8661 Y8.225 I0.1064 J-0.1066
G3 X12.8545 Y8.1677 I0.139 J-0.0578
G1 X12.8545 Y0.8451
G3 X12.8661 Y0.7875 I0.1506 J0.0003
G3 X12.8987 Y0.7388 I0.139 J0.0578
G3 X12.9476 Y0.7062 I0.1064 J0.1066
G3 X13.0051 Y0.6948 I0.0576 J0.1392
G3 X13.0627 Y0.7062 I0 J0.1506
G3 X13.1115 Y0.7388 I-0.0576 J0.1392
G3 X13.1442 Y0.7875 I-0.1064 J0.1066
G3 X13.1557 Y0.8449 I-0.139 J0.0578
G1 Z-0.375 F30
G1 X13.1557 Y8.1675 F60
G3 X13.1442 Y8.225 I-0.1506 J-0.0003
G3 X13.1115 Y8.2738 I-0.139 J-0.0578
G3 X13.0627 Y8.3064 I-0.1064 J-0.1066
G3 X13.0051 Y8.3178 I-0.0576 J-0.1392
G3 X12.9476 Y8.3064 I0 J-0.1506
G3 X12.8987 Y8.2738 I0.0576 J-0.1392
G3 X12.8661 Y8.225 I0.1064 J-0.1066
G3 X12.8545 Y8.1677 I0.139 J-0.0578
G1 X12.8545 Y0.8451
G3 X12.8661 Y0.7875 I0.1506 J0.0003
G3 X12.8987 Y0.7388 I0.139 J0.0578
G3 X12.9476 Y0.7062 I0.1064 J0.1066
G3 X13.0051 Y0.6948 I0.0576 J0.1392
G3 X13.0627 Y0.7062 I0 J0.1506
G3 X13.1115 Y0.7388 I-0.0576 J0.1392
G3 X13.1442 Y0.7875 I-0.1064 J0.1066
G3 X13.1557 Y0.8449 I-0.139 J0.0578
G1 Z-0.5 F30
G1 X13.1557 Y8.1675 F60
G3 X13.1442 Y8.225 I-0.1506 J-0.0003
G3 X13.1115 Y8.2738 I-0.139 J-0.0578
G3 X13.0627 Y8.3064 I-0.1064 J-0.1066
G3 X13.0051 Y8.3178 I-0.0576 J-0.1392
G3 X12.9476 Y8.3064 I0 J-0.1506
G3 X12.8987 Y8.2738 I0.0576 J-0.1392
G3 X12.8661 Y8.225 I0.1064 J-0.1066
G3 X12.8545 Y8.1677 I0.139 J-0.0578
G1 X12.8545 Y0.8451
G3 X12.8661 Y0.7875 I0.1506 J0.0003
G3 X12.8987 Y0.7388 I0.139 J0.0578
G3 X12.9476 Y0.7062 I0.1064 J0.1066
G3 X13.0051 Y0.6948 I0.0576 J0.1392
G3 X13.0627 Y0.7062 I0 J0.1506
G3 X13.1115 Y0.7388 I-0.0576 J0.1392
G3 X13.1442 Y0.7875 I-0.1064 J0.1066
G3 X13.1557 Y0.8449 I-0.139 J0.0578
G1 Z-0.625 F30
G1 X13.1557 Y8.1675 F60
G3 X13.1442 Y8.225 I-0.1506 J-0.0003
G3 X13.1115 Y8.2738 I-0.139 J-0.0578
G3 X13.0627 Y8.3064 I-0.1064 J-0.1066
G3 X13.0051 Y8.3178 I-0.0576 J-0.1392
G3 X12.9476 Y8.3064 I0 J-0.1506
G3 X12.8987 Y8.2738 I0.0576 J-0.1392
G3 X12.8661 Y8.225 I0.1064 J-0.1066
G3 X12.8545 Y8.1677 I0.139 J-0.0578
G1 X12.8545 Y0.8451
G3 X12.8661 Y0.7875 I0.1506 J0.0003
G3 X12.8987 Y0.7388 I0.139 J0.0578
G3 X12.9476 Y0.7062 I0.1064 J0.1066
G3 X13.0051 Y0.6948 I0.0576 J0.1392
G3 X13.0627 Y0.7062 I0 J0.1506
G3 X13.1115 Y0.7388 I-0.0576 J0.1392
G3 X13.1442 Y0.7875 I-0.1064 J0.1066
G3 X13.1557 Y0.8449 I-0.139 J0.0578
G1 Z-0.75 F30
G1 X13.1557 Y8.1675 F60
G3 X13.1442 Y8.225 I-0.1506 J-0.0003
G3 X13.1115 Y8.2738 I-0.139 J-0.0578
G3 X13.0627 Y8.3064 I-0.1064 J-0.1066
G3 X13.0051 Y8.3178 I-0.0576 J-0.1392
G3 X12.9476 Y8.3064 I0 J-0.1506
G3 X12.8987 Y8.2738 I0.0576 J-0.1392
G3 X12.8661 Y8.225 I0.1064 J-0.1066
G3 X12.8545 Y8.1677 I0.139 J-0.0578
G1 X12.8545 Y0.8451
G3 X12.8661 Y0.7875 I0.1506 J0.0003
G3 X12.8987 Y0.7388 I0.139 J0.0578
G3 X12.9476 Y0.7062 I0.1064 J0.1066
G3 X13.0051 Y0.6948 I0.0576 J0.1392
G3 X13.0627 Y0.7062 I0 J0.1506
G3 X13.1115 Y0.7388 I-0.0576 J0.1392
G3 X13.1442 Y0.7875 I-0.1064 J0.1066
G3 X13.1557 Y0.8449 I-0.139 J0.0578
G1 Z-0.8 F30
G1 X13.1557 Y8.1675 F60
G3 X13.1442 Y8.225 I-0.1506 J-0.0003
G3 X13.1115 Y8.2738 I-0.139 J-0.0578
G3 X13.0627 Y8.3064 I-0.1064 J-0.1066
G3 X13.0051 Y8.3178 I-0.0576 J-0.1392
G3 X12.9476 Y8.3064 I0 J-0.1506
G3 X12.8987 Y8.2738 I0.0576 J-0.1392
G3 X12.8661 Y8.225 I0.1064 J-0.1066
G3 X12.8545 Y8.1677 I0.139 J-0.0578
G1 X12.8545 Y0.8451
G3 X12.8661 Y0.7875 I0.1506 J0.0003
G3 X12.8987 Y0.7388 I0.139 J0.0578
G3 X12.9476 Y0.7062 I0.1064 J0.1066
G3 X13.0051 Y0.6948 I0.0576 J0.1392
G3 X13.0627 Y0.7062 I0 J0.1506
G3 X13.1115 Y0.7388 I-0.0576 J0.1392
G3 X13.1442 Y0.7875 I-0.1064 J0.1066
G3 X13.1557 Y0.8449 I-0.139 J0.0578
G0 Z0.1
G0 X8.5888 Y0.8449
G1 Z-0.125 F30
G1 X8.5888 Y8.1675 F60
G3 X8.5773 Y8.225 I-0.1506 J-0.0003
G3 X8.5446 Y8.2738 I-0.139 J-0.0578
G3 X8.4958 Y8.3064 I-0.1064 J-0.1066
G3 X8.4382 Y8.3178 I-0.0576 J-0.1392
G3 X8.3806 Y8.3064 I0 J-0.1506
G3 X8.3318 Y8.2738 I0.0576 J-0.1392
G3 X8.2992 Y8.225 I0.1064 J-0.1066
G3 X8.2876 Y8.1677 I0.139 J-0.0578
G1 X8.2876 Y0.8451
G3 X8.2992 Y0.7875 I0.1506 J0.0003
G3 X8.3318 Y0.7388 I0.139 J0.0578
G3 X8.3806 Y0.7062 I0.1064 J0.1066
G3 X8.4382 Y0.6948 I0.0576 J0.1392
G3 X8.4958 Y0.7062 I0 J0.1506
G3 X8.5446 Y0.7388 I-0.0576 J0.1392
G3 X8.5773 Y0.7875 I-0.1064 J0.1066
G3 X8.5888 Y0.8449 I-0.139 J0.0578
G1 Z-0.25 F30
G1 X8.5888 Y8.1675 F60
G3 X8.5773 Y8.225 I-0.1506 J-0.0003
G3 X8.5446 Y8.2738 I-0.139 J-0.0578
G3 X8.4958 Y8.3064 I-0.1064 J-0.1066
G3 X8.4382 Y8.3178 I-0.0576 J-0.1392
G3 X8.3806 Y8.3064 I0 J-0.1506
G3 X8.3318 Y8.2738 I0.0576 J-0.1392
G3 X8.2992 Y8.225 I0.1064 J-0.1066
G3 X8.2876 Y8.1677 I0.139 J-0.0578
G1 X8.2876 Y0.8451
G3 X8.2992 Y0.7875 I0.1506 J0.0003
G3 X8.3318 Y0.7388 I0.139 J0.0578
G3 X8.3806 Y0.7062 I0.1064 J0.1066
G3 X8.4382 Y0.6948 I0.0576 J0.1392
G3 X8.4958 Y0.7062 I0 J0.1506
G3 X8.5446 Y0.7388 I-0.0576 J0.1392
G3 X8.5773 Y0.7875 I-0.1064 J0.1066
G3 X8.5888 Y0.8449 I-0.139 J0.0578
G1 Z-0.375 F30
G1 X8.5888 Y8.1675 F60
G3 X8.5773 Y8.225 I-0.1506 J-0.0003
G3 X8.5446 Y8.2738 I-0.139 J-0.0578
G3 X8.4958 Y8.3064 I-0.1064 J-0.1066
G3 X8.4382 Y8.3178 I-0.0576 J-0.1392
G3 X8.3806 Y8.3064 I0 J-0.1506
G3 X8.3318 Y8.2738 I0.0576 J-0.1392
G3 X8.2992 Y8.225 I0.1064 J-0.1066
G3 X8.2876 Y8.1677 I0.139 J-0.0578
G1 X8.2876 Y0.8451
G3 X8.2992 Y0.7875 I0.1506 J0.0003
G3 X8.3318 Y0.7388 I0.139 J0.0578
G3 X8.3806 Y0.7062 I0.1064 J0.1066
G3 X8.4382 Y0.6948 I0.0576 J0.1392
G3 X8.4958 Y0.7062 I0 J0.1506
G3 X8.5446 Y0.7388 I-0.0576 J0.1392
G3 X8.5773 Y0.7875 I-0.1064 J0.1066
G3 X8.5888 Y0.8449 I-0.139 J0.0578
G1 Z-0.5 F30
G1 X8.5888 Y8.1675 F60
G3 X8.5773 Y8.225 I-0.1506 J-0.0003
G3 X8.5446 Y8.2738 I-0.139 J-0.0578
G3 X8.4958 Y8.3064 I-0.1064 J-0.1066
G3 X8.4382 Y8.3178 I-0.0576 J-0.1392
G3 X8.3806 Y8.3064 I0 J-0.1506
G3 X8.3318 Y8.2738 I0.0576 J-0.1392
G3 X8.2992 Y8.225 I0.1064 J-0.1066
G3 X8.2876 Y8.1677 I0.139 J-0.0578
G1 X8.2876 Y0.8451
G3 X8.2992 Y0.7875 I0.1506 J0.0003
G3 X8.3318 Y0.7388 I0.139 J0.0578
G3 X8.3806 Y0.7062 I0.1064 J0.1066
G3 X8.4382 Y0.6948 I0.0576 J0.1392
G3 X8.4958 Y0.7062 I0 J0.1506
G3 X8.5446 Y0.7388 I-0.0576 J0.1392
G3 X8.5773 Y0.7875 I-0.1064 J0.1066
G3 X8.5888 Y0.8449 I-0.139 J0.0578
G1 Z-0.625 F30
G1 X8.5888 Y8.1675 F60
G3 X8.5773 Y8.225 I-0.1506 J-0.0003
G3 X8.5446 Y8.2738 I-0.139 J-0.0578
G3 X8.4958 Y8.3064 I-0.1064 J-0.1066
G3 X8.4382 Y8.3178 I-0.0576 J-0.1392
G3 X8.3806 Y8.3064 I0 J-0.1506
G3 X8.3318 Y8.2738 I0.0576 J-0.1392
G3 X8.2992 Y8.225 I0.1064 J-0.1066
G3 X8.2876 Y8.1677 I0.139 J-0.0578
G1 X8.2876 Y0.8451
G3 X8.2992 Y0.7875 I0.1506 J0.0003
G3 X8.3318 Y0.7388 I0.139 J0.0578
G3 X8.3806 Y0.7062 I0.1064 J0.1066
G3 X8.4382 Y0.6948 I0.0576 J0.1392
G3 X8.4958 Y0.7062 I0 J0.1506
G3 X8.5446 Y0.7388 I-0.0576 J0.1392
G3 X8.5773 Y0.7875 I-0.1064 J0.1066
G3 X8.5888 Y0.8449 I-0.139 J0.0578
G1 Z-0.75 F30
G1 X8.5888 Y8.1675 F60
G3 X8.5773 Y8.225 I-0.1506 J-0.0003
G3 X8.5446 Y8.2738 I-0.139 J-0.0578
G3 X8.4958 Y8.3064 I-0.1064 J-0.1066
G3 X8.4382 Y8.3178 I-0.0576 J-0.1392
G3 X8.3806 Y8.3064 I0 J-0.1506
G3 X8.3318 Y8.2738 I0.0576 J-0.1392
G3 X8.2992 Y8.225 I0.1064 J-0.1066
G3 X8.2876 Y8.1677 I0.139 J-0.0578
G1 X8.2876 Y0.8451
G3 X8.2992 Y0.7875 I0.1506 J0.0003
G3 X8.3318 Y0.7388 I0.139 J0.0578
G3 X8.3806 Y0.7062 I0.1064 J0.1066
G3 X8.4382 Y0.6948 I0.0576 J0.1392
G3 X8.4958 Y0.7062 I0 J0.1506
G3 X8.5446 Y0.7388 I-0.0576 J0.1392
G3 X8.5773 Y0.7875 I-0.1064 J0.1066
G3 X8.5888 Y0.8449 I-0.139 J0.0578
G1 Z-0.8 F30
G1 X8.5888 Y8.1675 F60
G3 X8.5773 Y8.225 I-0.1506 J-0.0003
G3 X8.5446 Y8.2738 I-0.139 J-0.0578
G3 X8.4958 Y8.3064 I-0.1064 J-0.1066
G3 X8.4382 Y8.3178 I-0.0576 J-0.1392
G3 X8.3806 Y8.3064 I0 J-0.1506
G3 X8.3318 Y8.2738 I0.0576 J-0.1392
G3 X8.2992 Y8.225 I0.1064 J-0.1066
G3 X8.2876 Y8.1677 I0.139 J-0.0578
G1 X8.2876 Y0.8451
G3 X8.2992 Y0.7875 I0.1506 J0.0003
G3 X8.3318 Y0.7388 I0.139 J0.0578
G3 X8.3806 Y0.7062 I0.1064 J0.1066
G3 X8.4382 Y0.6948 I0.0576 J0.1392
G3 X8.4958 Y0.7062 I0 J0.1506
G3 X8.5446 Y0.7388 I-0.0576 J0.1392
G3 X8.5773 Y0.7875 I-0.1064 J0.1066
G3 X8.5888 Y0.8449 I-0.139 J0.0578
G0 Z0.1
G0 X6.3053 Y0.8449
G1 Z-0.125 F30
G1 X6.3053 Y8.1675 F60
G3 X6.2938 Y8.225 I-0.1506 J-0.0003
G3 X6.2611 Y8.2738 I-0.139 J-0.0578
G3 X6.2123 Y8.3064 I-0.1064 J-0.1066
G3 X6.1547 Y8.3178 I-0.0576 J-0.1392
G3 X6.0972 Y8.3064 I0 J-0.1506
G3 X6.0483 Y8.2738 I0.0576 J-0.1392
G3 X6.0157 Y8.225 I0.1064 J-0.1066
G3 X6.0041 Y8.1677 I0.139 J-0.0578
G1 X6.0041 Y0.8451
G3 X6.0157 Y0.7875 I0.1506 J0.0003
G3 X6.0483 Y0.7388 I0.139 J0.0578
G3 X6.0972 Y0.7062 I0.1064 J0.1066
G3 X6.1547 Y0.6948 I0.0576 J0.1392
G3 X6.2123 Y0.7062 I0 J0.1506
G3 X6.2611 Y0.7388 I-0.0576 J0.1392
G3 X6.2938 Y0.7875 I-0.1064 J0.1066
G3 X6.3053 Y0.8449 I-0.139 J0.0578
G1 Z-0.25 F30
G1 X6.3053 Y8.1675 F60
G3 X6.2938 Y8.225 I-0.1506 J-0.0003
G3 X6.2611 Y8.2738 I-0.139 J-0.0578
G3 X6.2123 Y8.3064 I-0.1064 J-0.1066
G3 X6.1547 Y8.3178 I-0.0576 J-0.1392
G3 X6.0972 Y8.3064 I0 J-0.1506
G3 X6.0483 Y8.2738 I0.0576 J-0.1392
G3 X6.0157 Y8.225 I0.1064 J-0.1066
G3 X6.0041 Y8.1677 I0.139 J-0.0578
G1 X6.0041 Y0.8451
G3 X6.0157 Y0.7875 I0.1506 J0.0003
G3 X6.0483 Y0.7388 I0.139 J0.0578
G3 X6.0972 Y0.7062 I0.1064 J0.1066
G3 X6.1547 Y0.6948 I0.0576 J0.1392
G3 X6.2123 Y0.7062 I0 J0.1506
G3 X6.2611 Y0.7388 I-0.0576 J0.1392
G3 X6.2938 Y0.7875 I-0.1064 J0.1066
G3 X6.3053 Y0.8449 I-0.139 J0.0578
G1 Z-0.375 F30
G1 X6.3053 Y8.1675 F60
G3 X6.2938 Y8.225 I-0.1506 J-0.0003
G3 X6.2611 Y8.2738 I-0.139 J-0.0578
G3 X6.2123 Y8.3064 I-0.1064 J-0.1066
G3 X6.1547 Y8.3178 I-0.0576 J-0.1392
G3 X6.0972 Y8.3064 I0 J-0.1506
G3 X6.0483 Y8.2738 I0.0576 J-0.1392
G3 X6.0157 Y8.225 I0.1064 J-0.1066
G3 X6.0041 Y8.1677 I0.139 J-0.0578
G1 X6.0041 Y0.8451
G3 X6.0157 Y0.7875 I0.1506 J0.0003
G3 X6.0483 Y0.7388 I0.139 J0.0578
G3 X6.0972 Y0.7062 I0.1064 J0.1066
G3 X6.1547 Y0.6948 I0.0576 J0.1392
G3 X6.2123 Y0.7062 I0 J0.1506
G3 X6.2611 Y0.7388 I-0.0576 J0.1392
G3 X6.2938 Y0.7875 I-0.1064 J0.1066
G3 X6.3053 Y0.8449 I-0.139 J0.0578
G1 Z-0.5 F30
G1 X6.3053 Y8.1675 F60
G3 X6.2938 Y8.225 I-0.1506 J-0.0003
G3 X6.2611 Y8.2738 I-0.139 J-0.0578
G3 X6.2123 Y8.3064 I-0.1064 J-0.1066
G3 X6.1547 Y8.3178 I-0.0576 J-0.1392
G3 X6.0972 Y8.3064 I0 J-0.1506
G3 X6.0483 Y8.2738 I0.0576 J-0.1392
G3 X6.0157 Y8.225 I0.1064 J-0.1066
G3 X6.0041 Y8.1677 I0.139 J-0.0578
G1 X6.0041 Y0.8451
G3 X6.0157 Y0.7875 I0.1506 J0.0003
G3 X6.0483 Y0.7388 I0.139 J0.0578
G3 X6.0972 Y0.7062 I0.1064 J0.1066
G3 X6.1547 Y0.6948 I0.0576 J0.1392
G3 X6.2123 Y0.7062 I0 J0.1506
G3 X6.2611 Y0.7388 I-0.0576 J0.1392
G3 X6.2938 Y0.7875 I-0.1064 J0.1066
G3 X6.3053 Y0.8449 I-0.139 J0.0578
G1 Z-0.625 F30
G1 X6.3053 Y8.1675 F60
G3 X6.2938 Y8.225 I-0.1506 J-0.0003
G3 X6.2611 Y8.2738 I-0.139 J-0.0578
G3 X6.2123 Y8.3064 I-0.1064 J-0.1066
G3 X6.1547 Y8.3178 I-0.0576 J-0.1392
G3 X6.0972 Y8.3064 I0 J-0.1506
G3 X6.0483 Y8.2738 I0.0576 J-0.1392
G3 X6.0157 Y8.225 I0.1064 J-0.1066
G3 X6.0041 Y8.1677 I0.139 J-0.0578
G1 X6.0041 Y0.8451
G3 X6.0157 Y0.7875 I0.1506 J0.0003
G3 X6.0483 Y0.7388 I0.139 J0.0578
G3 X6.0972 Y0.7062 I0.1064 J0.1066
G3 X6.1547 Y0.6948 I0.0576 J0.1392
G3 X6.2123 Y0.7062 I0 J0.1506
G3 X6.2611 Y0.7388 I-0.0576 J0.1392
G3 X6.2938 Y0.7875 I-0.1064 J0.1066
G3 X6.3053 Y0.8449 I-0.139 J0.0578
G1 Z-0.75 F30
G1 X6.3053 Y8.1675 F60
G3 X6.2938 Y8.225 I-0.1506 J-0.0003
G3 X6.2611 Y8.2738 I-0.139 J-0.0578
G3 X6.2123 Y8.3064 I-0.1064 J-0.1066
G3 X6.1547 Y8.3178 I-0.0576 J-0.1392
G3 X6.0972 Y8.3064 I0 J-0.1506
G3 X6.0483 Y8.2738 I0.0576 J-0.1392
G3 X6.0157 Y8.225 I0.1064 J-0.1066
G3 X6.0041 Y8.1677 I0.139 J-0.0578
G1 X6.0041 Y0.8451
G3 X6.0157 Y0.7875 I0.1506 J0.0003
G3 X6.0483 Y0.7388 I0.139 J0.0578
G3 X6.0972 Y0.7062 I0.1064 J0.1066
G3 X6.1547 Y0.6948 I0.0576 J0.1392
G3 X6.2123 Y0.7062 I0 J0.1506
G3 X6.2611 Y0.7388 I-0.0576 J0.1392
G3 X6.2938 Y0.7875 I-0.1064 J0.1066
G3 X6.3053 Y0.8449 I-0.139 J0.0578
G1 Z-0.8 F30
G1 X6.3053 Y8.1675 F60
G3 X6.2938 Y8.225 I-0.1506 J-0.0003
G3 X6.2611 Y8.2738 I-0.139 J-0.0578
G3 X6.2123 Y8.3064 I-0.1064 J-0.1066
G3 X6.1547 Y8.3178 I-0.0576 J-0.1392
G3 X6.0972 Y8.3064 I0 J-0.1506
G3 X6.0483 Y8.2738 I0.0576 J-0.1392
G3 X6.0157 Y8.225 I0.1064 J-0.1066
G3 X6.0041 Y8.1677 I0.139 J-0.0578
G1 X6.0041 Y0.8451
G3 X6.0157 Y0.7875 I0.1506 J0.0003
G3 X6.0483 Y0.7388 I0.139 J0.0578
G3 X6.0972 Y0.7062 I0.1064 J0.1066
G3 X6.1547 Y0.6948 I0.0576 J0.1392
G3 X6.2123 Y0.7062 I0 J0.1506
G3 X6.2611 Y0.7388 I-0.0576 J0.1392
G3 X6.2938 Y0.7875 I-0.1064 J0.1066
G3 X6.3053 Y0.8449 I-0.139 J0.0578
G0 Z0.1
G0 X7.4471 Y0.8449
G1 Z-0.125 F30
G1 X7.4471 Y8.1675 F60
G3 X7.4355 Y8.225 I-0.1506 J-0.0003
G3 X7.4029 Y8.2738 I-0.139 J-0.0578
G3 X7.354 Y8.3064 I-0.1064 J-0.1066
G3 X7.2965 Y8.3178 I-0.0576 J-0.1392
G3 X7.2389 Y8.3064 I0 J-0.1506
G3 X7.1901 Y8.2738 I0.0576 J-0.1392
G3 X7.1574 Y8.225 I0.1064 J-0.1066
G3 X7.1459 Y8.1677 I0.139 J-0.0578
G1 X7.1459 Y0.8451
G3 X7.1574 Y0.7875 I0.1506 J0.0003
G3 X7.1901 Y0.7388 I0.139 J0.0578
G3 X7.2389 Y0.7062 I0.1064 J0.1066
G3 X7.2965 Y0.6948 I0.0576 J0.1392
G3 X7.354 Y0.7062 I0 J0.1506
G3 X7.4029 Y0.7388 I-0.0576 J0.1392
G3 X7.4355 Y0.7875 I-0.1064 J0.1066
G3 X7.4471 Y0.8449 I-0.139 J0.0578
G1 Z-0.25 F30
G1 X7.4471 Y8.1675 F60
G3 X7.4355 Y8.225 I-0.1506 J-0.0003
G3 X7.4029 Y8.2738 I-0.139 J-0.0578
G3 X7.354 Y8.3064 I-0.1064 J-0.1066
G3 X7.2965 Y8.3178 I-0.0576 J-0.1392
G3 X7.2389 Y8.3064 I0 J-0.1506
G3 X7.1901 Y8.2738 I0.0576 J-0.1392
G3 X7.1574 Y8.225 I0.1064 J-0.1066
G3 X7.1459 Y8.1677 I0.139 J-0.0578
G1 X7.1459 Y0.8451
G3 X7.1574 Y0.7875 I0.1506 J0.0003
G3 X7.1901 Y0.7388 I0.139 J0.0578
G3 X7.2389 Y0.7062 I0.1064 J0.1066
G3 X7.2965 Y0.6948 I0.0576 J0.1392
G3 X7.354 Y0.7062 I0 J0.1506
G3 X7.4029 Y0.7388 I-0.0576 J0.1392
G3 X7.4355 Y0.7875 I-0.1064 J0.1066
G3 X7.4471 Y0.8449 I-0.139 J0.0578
G1 Z-0.375 F30
G1 X7.4471 Y8.1675 F60
G3 X7.4355 Y8.225 I-0.1506 J-0.0003
G3 X7.4029 Y8.2738 I-0.139 J-0.0578
G3 X7.354 Y8.3064 I-0.1064 J-0.1066
G3 X7.2965 Y8.3178 I-0.0576 J-0.1392
G3 X7.2389 Y8.3064 I0 J-0.1506
G3 X7.1901 Y8.2738 I0.0576 J-0.1392
G3 X7.1574 Y8.225 I0.1064 J-0.1066
G3 X7.1459 Y8.1677 I0.139 J-0.0578
G1 X7.1459 Y0.8451
G3 X7.1574 Y0.7875 I0.1506 J0.0003
G3 X7.1901 Y0.7388 I0.139 J0.0578
G3 X7.2389 Y0.7062 I0.1064 J0.1066
G3 X7.2965 Y0.6948 I0.0576 J0.1392
G3 X7.354 Y0.7062 I0 J0.1506
G3 X7.4029 Y0.7388 I-0.0576 J0.1392
G3 X7.4355 Y0.7875 I-0.1064 J0.1066
G3 X7.4471 Y0.8449 I-0.139 J0.0578
G1 Z-0.5 F30
G1 X7.4471 Y8.1675 F60
G3 X7.4355 Y8.225 I-0.1506 J-0.0003
G3 X7.4029 Y8.2738 I-0.139 J-0.0578
G3 X7.354 Y8.3064 I-0.1064 J-0.1066
G3 X7.2965 Y8.3178 I-0.0576 J-0.1392
G3 X7.2389 Y8.3064 I0 J-0.1506
G3 X7.1901 Y8.2738 I0.0576 J-0.1392
G3 X7.1574 Y8.225 I0.1064 J-0.1066
G3 X7.1459 Y8.1677 I0.139 J-0.0578
G1 X7.1459 Y0.8451
G3 X7.1574 Y0.7875 I0.1506 J0.0003
G3 X7.1901 Y0.7388 I0.139 J0.0578
G3 X7.2389 Y0.7062 I0.1064 J0.1066
G3 X7.2965 Y0.6948 I0.0576 J0.1392
G3 X7.354 Y0.7062 I0 J0.1506
G3 X7.4029 Y0.7388 I-0.0576 J0.1392
G3 X7.4355 Y0.7875 I-0.1064 J0.1066
G3 X7.4471 Y0.8449 I-0.139 J0.0578
G1 Z-0.625 F30
G1 X7.4471 Y8.1675 F60
G3 X7.4355 Y8.225 I-0.1506 J-0.0003
G3 X7.4029 Y8.2738 I-0.139 J-0.0578
G3 X7.354 Y8.3064 I-0.1064 J-0.1066
G3 X7.2965 Y8.3178 I-0.0576 J-0.1392
G3 X7.2389 Y8.3064 I0 J-0.1506
G3 X7.1901 Y8.2738 I0.0576 J-0.1392
G3 X7.1574 Y8.225 I0.1064 J-0.1066
G3 X7.1459 Y8.1677 I0.139 J-0.0578
G1 X7.1459 Y0.8451
G3 X7.1574 Y0.7875 I0.1506 J0.0003
G3 X7.1901 Y0.7388 I0.139 J0.0578
G3 X7.2389 Y0.7062 I0.1064 J0.1066
G3 X7.2965 Y0.6948 I0.0576 J0.1392
G3 X7.354 Y0.7062 I0 J0.1506
G3 X7.4029 Y0.7388 I-0.0576 J0.1392
G3 X7.4355 Y0.7875 I-0.1064 J0.1066
G3 X7.4471 Y0.8449 I-0.139 J0.0578
G1 Z-0.75 F30
G1 X7.4471 Y8.1675 F60
G3 X7.4355 Y8.225 I-0.1506 J-0.0003
G3 X7.4029 Y8.2738 I-0.139 J-0.0578
G3 X7.354 Y8.3064 I-0.1064 J-0.1066
G3 X7.2965 Y8.3178 I-0.0576 J-0.1392
G3 X7.2389 Y8.3064 I0 J-0.1506
G3 X7.1901 Y8.2738 I0.0576 J-0.1392
G3 X7.1574 Y8.225 I0.1064 J-0.1066
G3 X7.1459 Y8.1677 I0.139 J-0.0578
G1 X7.1459 Y0.8451
G3 X7.1574 Y0.7875 I0.1506 J0.0003
G3 X7.1901 Y0.7388 I0.139 J0.0578
G3 X7.2389 Y0.7062 I0.1064 J0.1066
G3 X7.2965 Y0.6948 I0.0576 J0.1392
G3 X7.354 Y0.7062 I0 J0.1506
G3 X7.4029 Y0.7388 I-0.0576 J0.1392
G3 X7.4355 Y0.7875 I-0.1064 J0.1066
G3 X7.4471 Y0.8449 I-0.139 J0.0578
G1 Z-0.8 F30
G1 X7.4471 Y8.1675 F60
G3 X7.4355 Y8.225 I-0.1506 J-0.0003
G3 X7.4029 Y8.2738 I-0.139 J-0.0578
G3 X7.354 Y8.3064 I-0.1064 J-0.1066
G3 X7.2965 Y8.3178 I-0.0576 J-0.1392
G3 X7.2389 Y8.3064 I0 J-0.1506
G3 X7.1901 Y8.2738 I0.0576 J-0.1392
G3 X7.1574 Y8.225 I0.1064 J-0.1066
G3 X7.1459 Y8.1677 I0.139 J-0.0578
G1 X7.1459 Y0.8451
G3 X7.1574 Y0.7875 I0.1506 J0.0003
G3 X7.1901 Y0.7388 I0.139 J0.0578
G3 X7.2389 Y0.7062 I0.1064 J0.1066
G3 X7.2965 Y0.6948 I0.0576 J0.1392
G3 X7.354 Y0.7062 I0 J0.1506
G3 X7.4029 Y0.7388 I-0.0576 J0.1392
G3 X7.4355 Y0.7875 I-0.1064 J0.1066
G3 X7.4471 Y0.8449 I-0.139 J0.0578
G0 Z0.1
G0 X9.4293 Y8.1677
G1 Z-0.125 F30
G1 X9.4293 Y0.8451 F60
G3 X9.4409 Y0.7875 I0.1506 J0.0003
G3 X9.4735 Y0.7388 I0.139 J0.0578
G3 X9.5224 Y0.7062 I0.1064 J0.1066
G3 X9.5799 Y0.6948 I0.0576 J0.1392
G3 X9.6375 Y0.7062 I0 J0.1506
G3 X9.6863 Y0.7388 I-0.0576 J0.1392
G3 X9.719 Y0.7875 I-0.1064 J0.1066
G3 X9.7305 Y0.8449 I-0.139 J0.0578
G1 X9.7305 Y8.1675
G3 X9.719 Y8.225 I-0.1506 J-0.0003
G3 X9.6863 Y8.2738 I-0.139 J-0.0578
G3 X9.6375 Y8.3064 I-0.1064 J-0.1066
G3 X9.5799 Y8.3178 I-0.0576 J-0.1392
G3 X9.5224 Y8.3064 I0 J-0.1506
G3 X9.4735 Y8.2738 I0.0576 J-0.1392
G3 X9.4409 Y8.225 I0.1064 J-0.1066
G3 X9.4293 Y8.1677 I0.139 J-0.0578
G1 Z-0.25 F30
G1 X9.4293 Y0.8451 F60
G3 X9.4409 Y0.7875 I0.1506 J0.0003
G3 X9.4735 Y0.7388 I0.139 J0.0578
G3 X9.5224 Y0.7062 I0.1064 J0.1066
G3 X9.5799 Y0.6948 I0.0576 J0.1392
G3 X9.6375 Y0.7062 I0 J0.1506
G3 X9.6863 Y0.7388 I-0.0576 J0.1392
G3 X9.719 Y0.7875 I-0.1064 J0.1066
G3 X9.7305 Y0.8449 I-0.139 J0.0578
G1 X9.7305 Y8.1675
G3 X9.719 Y8.225 I-0.1506 J-0.0003
G3 X9.6863 Y8.2738 I-0.139 J-0.0578
G3 X9.6375 Y8.3064 I-0.1064 J-0.1066
G3 X9.5799 Y8.3178 I-0.0576 J-0.1392
G3 X9.5224 Y8.3064 I0 J-0.1506
G3 X9.4735 Y8.2738 I0.0576 J-0.1392
G3 X9.4409 Y8.225 I0.1064 J-0.1066
G3 X9.4293 Y8.1677 I0.139 J-0.0578
G1 Z-0.375 F30
G1 X9.4293 Y0.8451 F60
G3 X9.4409 Y0.7875 I0.1506 J0.0003
G3 X9.4735 Y0.7388 I0.139 J0.0578
G3 X9.5224 Y0.7062 I0.1064 J0.1066
G3 X9.5799 Y0.6948 I0.0576 J0.1392
G3 X9.6375 Y0.7062 I0 J0.1506
G3 X9.6863 Y0.7388 I-0.0576 J0.1392
G3 X9.719 Y0.7875 I-0.1064 J0.1066
G3 X9.7305 Y0.8449 I-0.139 J0.0578
G1 X9.7305 Y8.1675
G3 X9.719 Y8.225 I-0.1506 J-0.0003
G3 X9.6863 Y8.2738 I-0.139 J-0.0578
G3 X9.6375 Y8.3064 I-0.1064 J-0.1066
G3 X9.5799 Y8.3178 I-0.0576 J-0.1392
G3 X9.5224 Y8.3064 I0 J-0.1506
G3 X9.4735 Y8.2738 I0.0576 J-0.1392
G3 X9.4409 Y8.225 I0.1064 J-0.1066
G3 X9.4293 Y8.1677 I0.139 J-0.0578
G1 Z-0.5 F30
G1 X9.4293 Y0.8451 F60
G3 X9.4409 Y0.7875 I0.1506 J0.0003
G3 X9.4735 Y0.7388 I0.139 J0.0578
G3 X9.5224 Y0.7062 I0.1064 J0.1066
G3 X9.5799 Y0.6948 I0.0576 J0.1392
G3 X9.6375 Y0.7062 I0 J0.1506
G3 X9.6863 Y0.7388 I-0.0576 J0.1392
G3 X9.719 Y0.7875 I-0.1064 J0.1066
G3 X9.7305 Y0.8449 I-0.139 J0.0578
G1 X9.7305 Y8.1675
G3 X9.719 Y8.225 I-0.1506 J-0.0003
G3 X9.6863 Y8.2738 I-0.139 J-0.0578
G3 X9.6375 Y8.3064 I-0.1064 J-0.1066
G3 X9.5799 Y8.3178 I-0.0576 J-0.1392
G3 X9.5224 Y8.3064 I0 J-0.1506
G3 X9.4735 Y8.2738 I0.0576 J-0.1392
G3 X9.4409 Y8.225 I0.1064 J-0.1066
G3 X9.4293 Y8.1677 I0.139 J-0.0578
G1 Z-0.625 F30
G1 X9.4293 Y0.8451 F60
G3 X9.4409 Y0.7875 I0.1506 J0.0003
G3 X9.4735 Y0.7388 I0.139 J0.0578
G3 X9.5224 Y0.7062 I0.1064 J0.1066
G3 X9.5799 Y0.6948 I0.0576 J0.1392
G3 X9.6375 Y0.7062 I0 J0.1506
G3 X9.6863 Y0.7388 I-0.0576 J0.1392
G3 X9.719 Y0.7875 I-0.1064 J0.1066
G3 X9.7305 Y0.8449 I-0.139 J0.0578
G1 X9.7305 Y8.1675
G3 X9.719 Y8.225 I-0.1506 J-0.0003
G3 X9.6863 Y8.2738 I-0.139 J-0.0578
G3 X9.6375 Y8.3064 I-0.1064 J-0.1066
G3 X9.5799 Y8.3178 I-0.0576 J-0.1392
G3 X9.5224 Y8.3064 I0 J-0.1506
G3 X9.4735 Y8.2738 I0.0576 J-0.1392
G3 X9.4409 Y8.225 I0.1064 J-0.1066
G3 X9.4293 Y8.1677 I0.139 J-0.0578
G1 Z-0.75 F30
G1 X9.4293 Y0.8451 F60
G3 X9.4409 Y0.7875 I0.1506 J0.0003
G3 X9.4735 Y0.7388 I0.139 J0.0578
G3 X9.5224 Y0.7062 I0.1064 J0.1066
G3 X9.5799 Y0.6948 I0.0576 J0.1392
G3 X9.6375 Y0.7062 I0 J0.1506
G3 X9.6863 Y0.7388 I-0.0576 J0.1392
G3 X9.719 Y0.7875 I-0.1064 J0.1066
G3 X9.7305 Y0.8449 I-0.139 J0.0578
G1 X9.7305 Y8.1675
G3 X9.719 Y8.225 I-0.1506 J-0.0003
G3 X9.6863 Y8.2738 I-0.139 J-0.0578
G3 X9.6375 Y8.3064 I-0.1064 J-0.1066
G3 X9.5799 Y8.3178 I-0.0576 J-0.1392
G3 X9.5224 Y8.3064 I0 J-0.1506
G3 X9.4735 Y8.2738 I0.0576 J-0.1392
G3 X9.4409 Y8.225 I0.1064 J-0.1066
G3 X9.4293 Y8.1677 I0.139 J-0.0578
G1 Z-0.8 F30
G1 X9.4293 Y0.8451 F60
G3 X9.4409 Y0.7875 I0.1506 J0.0003
G3 X9.4735 Y0.7388 I0.139 J0.0578
G3 X9.5224 Y0.7062 I0.1064 J0.1066
G3 X9.5799 Y0.6948 I0.0576 J0.1392
G3 X9.6375 Y0.7062 I0 J0.1506
G3 X9.6863 Y0.7388 I-0.0576 J0.1392
G3 X9.719 Y0.7875 I-0.1064 J0.1066
G3 X9.7305 Y0.8449 I-0.139 J0.0578
G1 X9.7305 Y8.1675
G3 X9.719 Y8.225 I-0.1506 J-0.0003
G3 X9.6863 Y8.2738 I-0.139 J-0.0578
G3 X9.6375 Y8.3064 I-0.1064 J-0.1066
G3 X9.5799 Y8.3178 I-0.0576 J-0.1392
G3 X9.5224 Y8.3064 I0 J-0.1506
G3 X9.4735 Y8.2738 I0.0576 J-0.1392
G3 X9.4409 Y8.225 I0.1064 J-0.1066
G3 X9.4293 Y8.1677 I0.139 J-0.0578
G0 Z0.1
G0 X10.8723 Y0.8449
G1 Z-0.125 F30
G1 X10.8723 Y8.1675 F60
G3 X10.8607 Y8.225 I-0.1506 J-0.0003
G3 X10.8281 Y8.2738 I-0.139 J-0.0578
G3 X10.7792 Y8.3064 I-0.1064 J-0.1066
G3 X10.7217 Y8.3178 I-0.0576 J-0.1392
G3 X10.6641 Y8.3064 I0 J-0.1506
G3 X10.6153 Y8.2738 I0.0576 J-0.1392
G3 X10.5826 Y8.225 I0.1064 J-0.1066
G3 X10.5711 Y8.1677 I0.139 J-0.0578
G1 X10.5711 Y0.8451
G3 X10.5826 Y0.7875 I0.1506 J0.0003
G3 X10.6153 Y0.7388 I0.139 J0.0578
G3 X10.6641 Y0.7062 I0.1064 J0.1066
G3 X10.7217 Y0.6948 I0.0576 J0.1392
G3 X10.7792 Y0.7062 I0 J0.1506
G3 X10.8281 Y0.7388 I-0.0576 J0.1392
G3 X10.8607 Y0.7875 I-0.1064 J0.1066
G3 X10.8723 Y0.8449 I-0.139 J0.0578
G1 Z-0.25 F30
G1 X10.8723 Y8.1675 F60
G3 X10.8607 Y8.225 I-0.1506 J-0.0003
G3 X10.8281 Y8.2738 I-0.139 J-0.0578
G3 X10.7792 Y8.3064 I-0.1064 J-0.1066
G3 X10.7217 Y8.3178 I-0.0576 J-0.1392
G3 X10.6641 Y8.3064 I0 J-0.1506
G3 X10.6153 Y8.2738 I0.0576 J-0.1392
G3 X10.5826 Y8.225 I0.1064 J-0.1066
G3 X10.5711 Y8.1677 I0.139 J-0.0578
G1 X10.5711 Y0.8451
G3 X10.5826 Y0.7875 I0.1506 J0.0003
G3 X10.6153 Y0.7388 I0.139 J0.0578
G3 X10.6641 Y0.7062 I0.1064 J0.1066
G3 X10.7217 Y0.6948 I0.0576 J0.1392
G3 X10.7792 Y0.7062 I0 J0.1506
G3 X10.8281 Y0.7388 I-0.0576 J0.1392
G3 X10.8607 Y0.7875 I-0.1064 J0.1066
G3 X10.8723 Y0.8449 I-0.139 J0.0578
G1 Z-0.375 F30
G1 X10.8723 Y8.1675 F60
G3 X10.8607 Y8.225 I-0.1506 J-0.0003
G3 X10.8281 Y8.2738 I-0.139 J-0.0578
G3 X10.7792 Y8.3064 I-0.1064 J-0.1066
G3 X10.7217 Y8.3178 I-0.0576 J-0.1392
G3 X10.6641 Y8.3064 I0 J-0.1506
G3 X10.6153 Y8.2738 I0.0576 J-0.1392
G3 X10.5826 Y8.225 I0.1064 J-0.1066
G3 X10.5711 Y8.1677 I0.139 J-0.0578
G1 X10.5711 Y0.8451
G3 X10.5826 Y0.7875 I0.1506 J0.0003
G3 X10.6153 Y0.7388 I0.139 J0.0578
G3 X10.6641 Y0.7062 I0.1064 J0.1066
G3 X10.7217 Y0.6948 I0.0576 J0.1392
G3 X10.7792 Y0.7062 I0 J0.1506
G3 X10.8281 Y0.7388 I-0.0576 J0.1392
G3 X10.8607 Y0.7875 I-0.1064 J0.1066
G3 X10.8723 Y0.8449 I-0.139 J0.0578
G1 Z-0.5 F30
G1 X10.8723 Y8.1675 F60
G3 X10.8607 Y8.225 I-0.1506 J-0.0003
G3 X10.8281 Y8.2738 I-0.139 J-0.0578
G3 X10.7792 Y8.3064 I-0.1064 J-0.1066
G3 X10.7217 Y8.3178 I-0.0576 J-0.1392
G3 X10.6641 Y8.3064 I0 J-0.1506
G3 X10.6153 Y8.2738 I0.0576 J-0.1392
G3 X10.5826 Y8.225 I0.1064 J-0.1066
G3 X10.5711 Y8.1677 I0.139 J-0.0578
G1 X10.5711 Y0.8451
G3 X10.5826 Y0.7875 I0.1506 J0.0003
G3 X10.6153 Y0.7388 I0.139 J0.0578
G3 X10.6641 Y0.7062 I0.1064 J0.1066
G3 X10.7217 Y0.6948 I0.0576 J0.1392
G3 X10.7792 Y0.7062 I0 J0.1506
G3 X10.8281 Y0.7388 I-0.0576 J0.1392
G3 X10.8607 Y0.7875 I-0.1064 J0.1066
G3 X10.8723 Y0.8449 I-0.139 J0.0578
G1 Z-0.625 F30
G1 X10.8723 Y8.1675 F60
G3 X10.8607 Y8.225 I-0.1506 J-0.0003
G3 X10.8281 Y8.2738 I-0.139 J-0.0578
G3 X10.7792 Y8.3064 I-0.1064 J-0.1066
G3 X10.7217 Y8.3178 I-0.0576 J-0.1392
G3 X10.6641 Y8.3064 I0 J-0.1506
G3 X10.6153 Y8.2738 I0.0576 J-0.1392
G3 X10.5826 Y8.225 I0.1064 J-0.1066
G3 X10.5711 Y8.1677 I0.139 J-0.0578
G1 X10.5711 Y0.8451
G3 X10.5826 Y0.7875 I0.1506 J0.0003
G3 X10.6153 Y0.7388 I0.139 J0.0578
G3 X10.6641 Y0.7062 I0.1064 J0.1066
G3 X10.7217 Y0.6948 I0.0576 J0.1392
G3 X10.7792 Y0.7062 I0 J0.1506
G3 X10.8281 Y0.7388 I-0.0576 J0.1392
G3 X10.8607 Y0.7875 I-0.1064 J0.1066
G3 X10.8723 Y0.8449 I-0.139 J0.0578
G1 Z-0.75 F30
G1 X10.8723 Y8.1675 F60
G3 X10.8607 Y8.225 I-0.1506 J-0.0003
G3 X10.8281 Y8.2738 I-0.139 J-0.0578
G3 X10.7792 Y8.3064 I-0.1064 J-0.1066
G3 X10.7217 Y8.3178 I-0.0576 J-0.1392
G3 X10.6641 Y8.3064 I0 J-0.1506
G3 X10.6153 Y8.2738 I0.0576 J-0.1392
G3 X10.5826 Y8.225 I0.1064 J-0.1066
G3 X10.5711 Y8.1677 I0.139 J-0.0578
G1 X10.5711 Y0.8451
G3 X10.5826 Y0.7875 I0.1506 J0.0003
G3 X10.6153 Y0.7388 I0.139 J0.0578
G3 X10.6641 Y0.7062 I0.1064 J0.1066
G3 X10.7217 Y0.6948 I0.0576 J0.1392
G3 X10.7792 Y0.7062 I0 J0.1506
G3 X10.8281 Y0.7388 I-0.0576 J0.1392
G3 X10.8607 Y0.7875 I-0.1064 J0.1066
G3 X10.8723 Y0.8449 I-0.139 J0.0578
G1 Z-0.8 F30
G1 X10.8723 Y8.1675 F60
G3 X10.8607 Y8.225 I-0.1506 J-0.0003
G3 X10.8281 Y8.2738 I-0.139 J-0.0578
G3 X10.7792 Y8.3064 I-0.1064 J-0.1066
G3 X10.7217 Y8.3178 I-0.0576 J-0.1392
G3 X10.6641 Y8.3064 I0 J-0.1506
G3 X10.6153 Y8.2738 I0.0576 J-0.1392
G3 X10.5826 Y8.225 I0.1064 J-0.1066
G3 X10.5711 Y8.1677 I0.139 J-0.0578
G1 X10.5711 Y0.8451
G3 X10.5826 Y0.7875 I0.1506 J0.0003
G3 X10.6153 Y0.7388 I0.139 J0.0578
G3 X10.6641 Y0.7062 I0.1064 J0.1066
G3 X10.7217 Y0.6948 I0.0576 J0.1392
G3 X10.7792 Y0.7062 I0 J0.1506
G3 X10.8281 Y0.7388 I-0.0576 J0.1392
G3 X10.8607 Y0.7875 I-0.1064 J0.1066
G3 X10.8723 Y0.8449 I-0.139 J0.0578

(Mug Indent)
G0 Z0.1
G0 X7.432 Y4.1346
G1 Z-0.125 F30
G1 X7.432 Y4.878 F60
G1 X7.1609 Y4.878
G1 X7.1609 Y4.1345
G1 X7.432 Y4.1346
G1 X7.582 Y3.9846 F60
G1 X7.582 Y5.028 F60
G1 X7.0109 Y5.028
G1 X7.011 Y3.9845
G1 X7.582 Y3.9846
G1 X7.7321 Y3.8346 F60
G1 X7.732 Y5.178 F60
G1 X6.8609 Y5.178
G1 X6.861 Y3.8345
G1 X7.7321 Y3.8346
G1 X7.8821 Y3.6846 F60
G1 X7.882 Y5.328 F60
G1 X6.7109 Y5.328
G1 X6.711 Y3.6845
G1 X7.8821 Y3.6846
G1 X8.0321 Y3.5346 F60
G1 X8.032 Y5.478 F60
G1 X6.5609 Y5.4779
G1 X6.561 Y3.5345
G1 X8.0321 Y3.5346
G1 X8.1821 Y3.3846 F60
G1 X8.1819 Y5.6281 F60
G1 X6.4109 Y5.6279
G1 X6.411 Y3.3845
G1 X8.1821 Y3.3846
G1 X8.3321 Y3.2346 F60
G1 X8.3319 Y5.7781 F60
G1 X6.2608 Y5.7779
G1 X6.261 Y3.2345
G1 X8.3321 Y3.2346
G1 X8.4821 Y3.0846 F60
G1 X8.4819 Y5.9281 F60
G1 X6.1108 Y5.9279
G1 X6.111 Y3.0845
G1 X8.4821 Y3.0846
G1 X8.6321 Y2.9346 F60
G1 X8.6319 Y6.0781 F60
G1 X5.9608 Y6.0779
G1 X5.961 Y2.9345
G1 X8.6321 Y2.9346
G1 X8.7821 Y2.7847 F60
G1 X8.7819 Y6.2281 F60
G1 X5.8108 Y6.2279
G1 X5.811 Y2.7845
G1 X8.7821 Y2.7847
G1 X8.9321 Y2.6347 F60
G1 X8.9319 Y6.3781 F60
G1 X5.6608 Y6.3779
G1 X5.661 Y2.6344
G1 X8.9321 Y2.6347
G1 X9.0821 Y2.4847 F60
G1 X9.0819 Y6.5281 F60
G1 X5.5108 Y6.5279
G1 X5.511 Y2.4844
G1 X9.0821 Y2.4847
G1 X9.2321 Y2.3347 F60
G1 X9.2319 Y6.6781 F60
G1 X5.3608 Y6.6779
G1 X5.361 Y2.3344
G1 X9.2321 Y2.3347
G1 X9.3822 Y2.1847 F60
G1 X9.3819 Y6.8281 F60
G1 X5.2108 Y6.8279
G1 X5.2111 Y2.1844
G1 X9.3822 Y2.1847
G1 X9.5322 Y2.0347 F60
G1 X9.5319 Y6.9782 F60
G1 X5.0608 Y6.9778
G1 X5.0611 Y2.0344
G1 X9.5322 Y2.0347
G1 X9.6822 Y1.8847 F60
G1 X9.6819 Y7.1282 F60
G1 X4.9108 Y7.1278
G1 X4.9111 Y1.8844
G1 X9.6822 Y1.8847
G1 X9.8322 Y1.7347 F60
G1 X9.8319 Y7.2782 F60
G1 X4.7608 Y7.2778
G1 X4.7611 Y1.7344
G1 X9.8322 Y1.7347
G1 X9.9822 Y1.5847 F60
G1 X9.9818 Y7.4282 F60
G1 X4.6108 Y7.4278
G1 X4.6111 Y1.5844
G1 X9.9822 Y1.5847
G1 X10.1322 Y1.4348 F60
G1 X10.1318 Y7.5782 F60
G1 X4.4607 Y7.5778
G1 X4.4611 Y1.4344
G1 X10.1322 Y1.4348
G1 X10.2822 Y1.2848 F60
G1 X10.2818 Y7.7282 F60
G1 X4.3107 Y7.7278
G1 X4.3111 Y1.2844
G1 X10.2822 Y1.2848
G1 X10.4322 Y1.1348 F60
G1 X10.4318 Y7.8782 F60
G1 X4.1607 Y7.8778
G1 X4.1611 Y1.1343
G1 X10.4322 Y1.1348
G1 X10.5822 Y0.9848 F60
G1 X10.5818 Y8.0282 F60
G1 X4.0107 Y8.0278
G1 X4.0111 Y0.9843
G1 X10.5822 Y0.9848
G1 X10.7322 Y0.8348 F60
G1 X10.7318 Y8.1782 F60
G1 X3.8607 Y8.1778
G1 X3.8611 Y0.8343
G1 X10.7322 Y0.8348
G1 X10.8823 Y0.8349 F60
G1 X10.8823 Y0.8349 F60
G1 X10.8823 Y8.1777
G1 X10.8823 Y8.1777
G3 X10.8771 Y8.2167 I-0.1506 J0
G3 X10.8621 Y8.253 I-0.1455 J-0.039
G3 X10.8381 Y8.2842 I-0.1304 J-0.0753
G3 X10.807 Y8.3081 I-0.1065 J-0.1065
G3 X10.7706 Y8.3232 I-0.0753 J-0.1304
G3 X10.7317 Y8.3283 I-0.039 J-0.1455
G1 X3.8613 Y8.3283
G3 X3.8223 Y8.3232 I0 J-0.1506
G3 X3.786 Y8.3081 I0.039 J-0.1455
G3 X3.7548 Y8.2842 I0.0753 J-0.1304
G3 X3.7309 Y8.253 I0.1065 J-0.1065
G3 X3.7158 Y8.2167 I0.1304 J-0.0753
G3 X3.7107 Y8.1777 I0.1455 J-0.039
G1 X3.7107 Y8.1777
G1 X3.7107 Y0.8349
G1 X3.7107 Y0.8349
G3 X3.7158 Y0.7959 I0.1506 J0
G3 X3.7309 Y0.7596 I0.1455 J0.039
G3 X3.7548 Y0.7284 I0.1304 J0.0753
G3 X3.786 Y0.7044 I0.1065 J0.1065
G3 X3.8223 Y0.6894 I0.0753 J0.1304
G3 X3.8613 Y0.6843 I0.039 J0.1455
G1 X10.7317 Y0.6843
G3 X10.7706 Y0.6894 I0 J0.1506
G3 X10.807 Y0.7044 I-0.039 J0.1455
G3 X10.8381 Y0.7284 I-0.0753 J0.1304
G3 X10.8621 Y0.7596 I-0.1065 J0.1065
G3 X10.8771 Y0.7959 I-0.1304 J0.0753
G3 X10.8823 Y0.8349 I-0.1455 J0.039
G0 Z0.1
G0 X7.432 Y4.1346
G1 Z-0.25 F30
G1 X7.432 Y4.878 F60
G1 X7.1609 Y4.878
G1 X7.1609 Y4.1345
G1 X7.432 Y4.1346
G1 X7.582 Y3.9846 F60
G1 X7.582 Y5.028 F60
G1 X7.0109 Y5.028
G1 X7.011 Y3.9845
G1 X7.582 Y3.9846
G1 X7.7321 Y3.8346 F60
G1 X7.732 Y5.178 F60
G1 X6.8609 Y5.178
G1 X6.861 Y3.8345
G1 X7.7321 Y3.8346
G1 X7.8821 Y3.6846 F60
G1 X7.882 Y5.328 F60
G1 X6.7109 Y5.328
G1 X6.711 Y3.6845
G1 X7.8821 Y3.6846
G1 X8.0321 Y3.5346 F60
G1 X8.032 Y5.478 F60
G1 X6.5609 Y5.4779
G1 X6.561 Y3.5345
G1 X8.0321 Y3.5346
G1 X8.1821 Y3.3846 F60
G1 X8.1819 Y5.6281 F60
G1 X6.4109 Y5.6279
G1 X6.411 Y3.3845
G1 X8.1821 Y3.3846
G1 X8.3321 Y3.2346 F60
G1 X8.3319 Y5.7781 F60
G1 X6.2608 Y5.7779
G1 X6.261 Y3.2345
G1 X8.3321 Y3.2346
G1 X8.4821 Y3.0846 F60
G1 X8.4819 Y5.9281 F60
G1 X6.1108 Y5.9279
G1 X6.111 Y3.0845
G1 X8.4821 Y3.0846
G1 X8.6321 Y2.9346 F60
G1 X8.6319 Y6.0781 F60
G1 X5.9608 Y6.0779
G1 X5.961 Y2.9345
G1 X8.6321 Y2.9346
G1 X8.7821 Y2.7847 F60
G1 X8.7819 Y6.2281 F60
G1 X5.8108 Y6.2279
G1 X5.811 Y2.7845
G1 X8.7821 Y2.7847
G1 X8.9321 Y2.6347 F60
G1 X8.9319 Y6.3781 F60
G1 X5.6608 Y6.3779
G1 X5.661 Y2.6344
G1 X8.9321 Y2.6347
G1 X9.0821 Y2.4847 F60
G1 X9.0819 Y6.5281 F60
G1 X5.5108 Y6.5279
G1 X5.511 Y2.4844
G1 X9.0821 Y2.4847
G1 X9.2321 Y2.3347 F60
G1 X9.2319 Y6.6781 F60
G1 X5.3608 Y6.6779
G1 X5.361 Y2.3344
G1 X9.2321 Y2.3347
G1 X9.3822 Y2.1847 F60
G1 X9.3819 Y6.8281 F60
G1 X5.2108 Y6.8279
G1 X5.2111 Y2.1844
G1 X9.3822 Y2.1847
G1 X9.5322 Y2.0347 F60
G1 X9.5319 Y6.9782 F60
G1 X5.0608 Y6.9778
G1 X5.0611 Y2.0344
G1 X9.5322 Y2.0347
G1 X9.6822 Y1.8847 F60
G1 X9.6819 Y7.1282 F60
G1 X4.9108 Y7.1278
G1 X4.9111 Y1.8844
G1 X9.6822 Y1.8847
G1 X9.8322 Y1.7347 F60
G1 X9.8319 Y7.2782 F60
G1 X4.7608 Y7.2778
G1 X4.7611 Y1.7344
G1 X9.8322 Y1.7347
G1 X9.9822 Y1.5847 F60
G1 X9.9818 Y7.4282 F60
G1 X4.6108 Y7.4278
G1 X4.6111 Y1.5844
G1 X9.9822 Y1.5847
G1 X10.1322 Y1.4348 F60
G1 X10.1318 Y7.5782 F60
G1 X4.4607 Y7.5778
G1 X4.4611 Y1.4344
G1 X10.1322 Y1.4348
G1 X10.2822 Y1.2848 F60
G1 X10.2818 Y7.7282 F60
G1 X4.3107 Y7.7278
G1 X4.3111 Y1.2844
G1 X10.2822 Y1.2848
G1 X10.4322 Y1.1348 F60
G1 X10.4318 Y7.8782 F60
G1 X4.1607 Y7.8778
G1 X4.1611 Y1.1343
G1 X10.4322 Y1.1348
G1 X10.5822 Y0.9848 F60
G1 X10.5818 Y8.0282 F60
G1 X4.0107 Y8.0278
G1 X4.0111 Y0.9843
G1 X10.5822 Y0.9848
G1 X10.7322 Y0.8348 F60
G1 X10.7318 Y8.1782 F60
G1 X3.8607 Y8.1778
G1 X3.8611 Y0.8343
G1 X10.7322 Y0.8348
G1 X10.8823 Y0.8349 F60
G1 X10.8823 Y0.8349 F60
G1 X10.8823 Y8.1777
G1 X10.8823 Y8.1777
G3 X10.8771 Y8.2167 I-0.1506 J0
G3 X10.8621 Y8.253 I-0.1455 J-0.039
G3 X10.8381 Y8.2842 I-0.1304 J-0.0753
G3 X10.807 Y8.3081 I-0.1065 J-0.1065
G3 X10.7706 Y8.3232 I-0.0753 J-0.1304
G3 X10.7317 Y8.3283 I-0.039 J-0.1455
G1 X3.8613 Y8.3283
G3 X3.8223 Y8.3232 I0 J-0.1506
G3 X3.786 Y8.3081 I0.039 J-0.1455
G3 X3.7548 Y8.2842 I0.0753 J-0.1304
G3 X3.7309 Y8.253 I0.1065 J-0.1065
G3 X3.7158 Y8.2167 I0.1304 J-0.0753
G3 X3.7107 Y8.1777 I0.1455 J-0.039
G1 X3.7107 Y8.1777
G1 X3.7107 Y0.8349
G1 X3.7107 Y0.8349
G3 X3.7158 Y0.7959 I0.1506 J0
G3 X3.7309 Y0.7596 I0.1455 J0.039
G3 X3.7548 Y0.7284 I0.1304 J0.0753
G3 X3.786 Y0.7044 I0.1065 J0.1065
G3 X3.8223 Y0.6894 I0.0753 J0.1304
G3 X3.8613 Y0.6843 I0.039 J0.1455
G1 X10.7317 Y0.6843
G3 X10.7706 Y0.6894 I0 J0.1506
G3 X10.807 Y0.7044 I-0.039 J0.1455
G3 X10.8381 Y0.7284 I-0.0753 J0.1304
G3 X10.8621 Y0.7596 I-0.1065 J0.1065
G3 X10.8771 Y0.7959 I-0.1304 J0.0753
G3 X10.8823 Y0.8349 I-0.1455 J0.039

(Top Outline)
G0 Z0.1
G0 X31.387 Y9.1588
G1 Z-0.125 F30
G1 X16.7708 Y9.1588 F60
G1 X16.2708 Y9.1588
G1 X0.8043 Y9.1588
G3 X0.6369 Y9.143 I0 J-0.8939
G3 X0.4845 Y9.0974 I0.1462 J-0.7664
G3 X0.3445 Y9.0219 I0.2986 J-0.7209
G3 X0.2149 Y8.9147 I0.5024 J-0.7393
G3 X0.1076 Y8.785 I0.6321 J-0.6321
G3 X0.0321 Y8.6451 I0.6453 J-0.4386
G3 X-0.0135 Y8.4927 I0.7209 J-0.2986
G3 X-0.0293 Y8.3252 I0.878 J-0.1675
G1 X-0.0293 Y8.3252
G1 X-0.0293 Y4.9372
G1 X-0.0293 Y4.4372
G1 X-0.0293 Y0.6874
G1 X-0.0293 Y0.6874
G3 X-0.0135 Y0.5199 I0.8939 J0
G3 X0.0321 Y0.3675 I0.7664 J0.1462
G3 X0.1076 Y0.2275 I0.7209 J0.2986
G3 X0.2149 Y0.0979 I0.7393 J0.5024
G3 X0.3445 Y-0.0093 I0.6321 J0.6321
G3 X0.4845 Y-0.0849 I0.4386 J0.6453
G3 X0.6369 Y-0.1305 I0.2986 J0.7209
G3 X0.8043 Y-0.1463 I0.1675 J0.878
G1 X15.9906 Y-0.1463
G1 X16.4906 Y-0.1463
G1 X31.387 Y-0.1463
G3 X31.6028 Y-0.1179 I0 J0.8337
G3 X31.8039 Y-0.0346 I-0.2158 J0.8053
G3 X31.9765 Y0.0979 I-0.4168 J0.722
G3 X32.109 Y0.2705 I-0.5895 J0.5895
G3 X32.1923 Y0.4716 I-0.722 J0.4168
G3 X32.2207 Y0.6874 I-0.8053 J0.2158
G1 X32.2207 Y0.6874
G1 X32.2207 Y3.6669
G1 X32.2207 Y4.1669
G1 X32.2207 Y8.3252
G1 X32.2207 Y8.3252
G3 X32.1923 Y8.5409 I-0.8337 J0
G3 X32.109 Y8.742 I-0.8053 J-0.2158
G3 X31.9765 Y8.9147 I-0.722 J-0.4168
G3 X31.8039 Y9.0471 I-0.5895 J-0.5895
G3 X31.6028 Y9.1304 I-0.4168 J-0.722
G3 X31.387 Y9.1588 I-0.2158 J-0.8053
G1 Z-0.25 F30
G1 X16.7708 Y9.1588 F60
G1 X16.2708 Y9.1588
G1 X0.8043 Y9.1588
G3 X0.6369 Y9.143 I0 J-0.8939
G3 X0.4845 Y9.0974 I0.1462 J-0.7664
G3 X0.3445 Y9.0219 I0.2986 J-0.7209
G3 X0.2149 Y8.9147 I0.5024 J-0.7393
G3 X0.1076 Y8.785 I0.6321 J-0.6321
G3 X0.0321 Y8.6451 I0.6453 J-0.4386
G3 X-0.0135 Y8.4927 I0.7209 J-0.2986
G3 X-0.0293 Y8.3252 I0.878 J-0.1675
G1 X-0.0293 Y8.3252
G1 X-0.0293 Y4.9372
G1 X-0.0293 Y4.4372
G1 X-0.0293 Y0.6874
G1 X-0.0293 Y0.6874
G3 X-0.0135 Y0.5199 I0.8939 J0
G3 X0.0321 Y0.3675 I0.7664 J0.1462
G3 X0.1076 Y0.2275 I0.7209 J0.2986
G3 X0.2149 Y0.0979 I0.7393 J0.5024
G3 X0.3445 Y-0.0093 I0.6321 J0.6321
G3 X0.4845 Y-0.0849 I0.4386 J0.6453
G3 X0.6369 Y-0.1305 I0.2986 J0.7209
G3 X0.8043 Y-0.1463 I0.1675 J0.878
G1 X15.9906 Y-0.1463
G1 X16.4906 Y-0.1463
G1 X31.387 Y-0.1463
G3 X31.6028 Y-0.1179 I0 J0.8337
G3 X31.8039 Y-0.0346 I-0.2158 J0.8053
G3 X31.9765 Y0.0979 I-0.4168 J0.722
G3 X32.109 Y0.2705 I-0.5895 J0.5895
G3 X32.1923 Y0.4716 I-0.722 J0.4168
G3 X32.2207 Y0.6874 I-0.8053 J0.2158
G1 X32.2207 Y0.6874
G1 X32.2207 Y3.6669
G1 X32.2207 Y4.1669
G1 X32.2207 Y8.3252
G1 X32.2207 Y8.3252
G3 X32.1923 Y8.5409 I-0.8337 J0
G3 X32.109 Y8.742 I-0.8053 J-0.2158
G3 X31.9765 Y8.9147 I-0.722 J-0.4168
G3 X31.8039 Y9.0471 I-0.5895 J-0.5895
G3 X31.6028 Y9.1304 I-0.4168 J-0.722
G3 X31.387 Y9.1588 I-0.2158 J-0.8053
G1 Z-0.375 F30
G1 X16.7708 Y9.1588 F60
G1 X16.2708 Y9.1588
G1 X0.8043 Y9.1588
G3 X0.6369 Y9.143 I0 J-0.8939
G3 X0.4845 Y9.0974 I0.1462 J-0.7664
G3 X0.3445 Y9.0219 I0.2986 J-0.7209
G3 X0.2149 Y8.9147 I0.5024 J-0.7393
G3 X0.1076 Y8.785 I0.6321 J-0.6321
G3 X0.0321 Y8.6451 I0.6453 J-0.4386
G3 X-0.0135 Y8.4927 I0.7209 J-0.2986
G3 X-0.0293 Y8.3252 I0.878 J-0.1675
G1 X-0.0293 Y8.3252
G1 X-0.0293 Y4.9372
G1 X-0.0293 Y4.4372
G1 X-0.0293 Y0.6874
G1 X-0.0293 Y0.6874
G3 X-0.0135 Y0.5199 I0.8939 J0
G3 X0.0321 Y0.3675 I0.7664 J0.1462
G3 X0.1076 Y0.2275 I0.7209 J0.2986
G3 X0.2149 Y0.0979 I0.7393 J0.5024
G3 X0.3445 Y-0.0093 I0.6321 J0.6321
G3 X0.4845 Y-0.0849 I0.4386 J0.6453
G3 X0.6369 Y-0.1305 I0.2986 J0.7209
G3 X0.8043 Y-0.1463 I0.1675 J0.878
G1 X15.9906 Y-0.1463
G1 X16.4906 Y-0.1463
G1 X31.387 Y-0.1463
G3 X31.6028 Y-0.1179 I0 J0.8337
G3 X31.8039 Y-0.0346 I-0.2158 J0.8053
G3 X31.9765 Y0.0979 I-0.4168 J0.722
G3 X32.109 Y0.2705 I-0.5895 J0.5895
G3 X32.1923 Y0.4716 I-0.722 J0.4168
G3 X32.2207 Y0.6874 I-0.8053 J0.2158
G1 X32.2207 Y0.6874
G1 X32.2207 Y3.6669
G1 X32.2207 Y4.1669
G1 X32.2207 Y8.3252
G1 X32.2207 Y8.3252
G3 X32.1923 Y8.5409 I-0.8337 J0
G3 X32.109 Y8.742 I-0.8053 J-0.2158
G3 X31.9765 Y8.9147 I-0.722 J-0.4168
G3 X31.8039 Y9.0471 I-0.5895 J-0.5895
G3 X31.6028 Y9.1304 I-0.4168 J-0.722
G3 X31.387 Y9.1588 I-0.2158 J-0.8053
G1 Z-0.5 F30
G1 X16.7708 Y9.1588 F60
G1 X16.2708 Y9.1588
G1 X0.8043 Y9.1588
G3 X0.6369 Y9.143 I0 J-0.8939
G3 X0.4845 Y9.0974 I0.1462 J-0.7664
G3 X0.3445 Y9.0219 I0.2986 J-0.7209
G3 X0.2149 Y8.9147 I0.5024 J-0.7393
G3 X0.1076 Y8.785 I0.6321 J-0.6321
G3 X0.0321 Y8.6451 I0.6453 J-0.4386
G3 X-0.0135 Y8.4927 I0.7209 J-0.2986
G3 X-0.0293 Y8.3252 I0.878 J-0.1675
G1 X-0.0293 Y8.3252
G1 X-0.0293 Y4.9372
G1 X-0.0293 Y4.4372
G1 X-0.0293 Y0.6874
G1 X-0.0293 Y0.6874
G3 X-0.0135 Y0.5199 I0.8939 J0
G3 X0.0321 Y0.3675 I0.7664 J0.1462
G3 X0.1076 Y0.2275 I0.7209 J0.2986
G3 X0.2149 Y0.0979 I0.7393 J0.5024
G3 X0.3445 Y-0.0093 I0.6321 J0.6321
G3 X0.4845 Y-0.0849 I0.4386 J0.6453
G3 X0.6369 Y-0.1305 I0.2986 J0.7209
G3 X0.8043 Y-0.1463 I0.1675 J0.878
G1 X15.9906 Y-0.1463
G1 X16.4906 Y-0.1463
G1 X31.387 Y-0.1463
G3 X31.6028 Y-0.1179 I0 J0.8337
G3 X31.8039 Y-0.0346 I-0.2158 J0.8053
G3 X31.9765 Y0.0979 I-0.4168 J0.722
G3 X32.109 Y0.2705 I-0.5895 J0.5895
G3 X32.1923 Y0.4716 I-0.722 J0.4168
G3 X32.2207 Y0.6874 I-0.8053 J0.2158
G1 X32.2207 Y0.6874
G1 X32.2207 Y3.6669
G1 X32.2207 Y4.1669
G1 X32.2207 Y8.3252
G1 X32.2207 Y8.3252
G3 X32.1923 Y8.5409 I-0.8337 J0
G3 X32.109 Y8.742 I-0.8053 J-0.2158
G3 X31.9765 Y8.9147 I-0.722 J-0.4168
G3 X31.8039 Y9.0471 I-0.5895 J-0.5895
G3 X31.6028 Y9.1304 I-0.4168 J-0.722
G3 X31.387 Y9.1588 I-0.2158 J-0.8053
G1 Z-0.625 F30
G1 X16.7708 Y9.1588 F60
G1 Z-0.55 F30
G1 X16.2708 Y9.1588 F60
G1 Z-0.625 F30
G1 X0.8043 Y9.1588 F60
G3 X0.6369 Y9.143 I0 J-0.8939
G3 X0.4845 Y9.0974 I0.1462 J-0.7664
G3 X0.3445 Y9.0219 I0.2986 J-0.7209
G3 X0.2149 Y8.9147 I0.5024 J-0.7393
G3 X0.1076 Y8.785 I0.6321 J-0.6321
G3 X0.0321 Y8.6451 I0.6453 J-0.4386
G3 X-0.0135 Y8.4927 I0.7209 J-0.2986
G3 X-0.0293 Y8.3252 I0.878 J-0.1675
G1 X-0.0293 Y8.3252
G1 X-0.0293 Y4.9372
G1 Z-0.55 F30
G1 X-0.0293 Y4.4372 F60
G1 Z-0.625 F30
G1 X-0.0293 Y0.6874 F60
G1 X-0.0293 Y0.6874
G3 X-0.0135 Y0.5199 I0.8939 J0
G3 X0.0321 Y0.3675 I0.7664 J0.1462
G3 X0.1076 Y0.2275 I0.7209 J0.2986
