(Generated by PartKam Version 0.05)

G20 G90 G40

(Pockets)
G0 Z0.15
T0 M6
G17
M3
G0 X6.1944 Y4.8238
G1 Z-0.14 F30
G1 X6.1944 Y3.564 F60
G3 X6.1985 Y3.521 I0.2293 J0
G3 X6.2045 Y3.5009 I0.1012 J0.0193
G3 X6.2145 Y3.4824 I0.0952 J0.0394
G3 X6.242 Y3.4491 I0.1896 J0.1289
G3 X6.2752 Y3.4216 I0.1621 J0.1621
G3 X6.2937 Y3.4117 I0.0579 J0.0852
G3 X6.3138 Y3.4056 I0.0394 J0.0952
G3 X6.3568 Y3.4016 I0.043 J0.2252
G3 X6.3998 Y3.4056 I0 J0.2293
G3 X6.4199 Y3.4117 I-0.0193 J0.1012
G3 X6.4384 Y3.4216 I-0.0394 J0.0952
G3 X6.4716 Y3.4491 I-0.1289 J0.1896
G3 X6.4991 Y3.4824 I-0.1621 J0.1621
G3 X6.5091 Y3.5009 I-0.0852 J0.0579
G3 X6.5151 Y3.521 I-0.0952 J0.0394
G3 X6.5192 Y3.564 I-0.2252 J0.043
G1 X6.5192 Y4.8238
G3 X6.5151 Y4.8668 I-0.2293 J0
G3 X6.5091 Y4.8869 I-0.1012 J-0.0193
G3 X6.4991 Y4.9054 I-0.0952 J-0.0394
G3 X6.4716 Y4.9387 I-0.1896 J-0.1289
G3 X6.4384 Y4.9662 I-0.1621 J-0.1621
G3 X6.4199 Y4.9761 I-0.0579 J-0.0852
G3 X6.3998 Y4.9822 I-0.0394 J-0.0952
G3 X6.3568 Y4.9862 I-0.043 J-0.2252
G3 X6.3138 Y4.9822 I0 J-0.2293
G3 X6.2937 Y4.9761 I0.0193 J-0.1012
G3 X6.2752 Y4.9662 I0.0394 J-0.0952
G3 X6.242 Y4.9387 I0.1289 J-0.1896
G3 X6.2145 Y4.9054 I0.1621 J-0.1621
G3 X6.2045 Y4.8869 I0.0852 J-0.0579
G3 X6.1985 Y4.8668 I0.0952 J-0.0394
G3 X6.1944 Y4.8238 I0.2252 J-0.043
G1 X6.0944 Y4.8238 F60
G1 X6.0944 Y3.564 F60
G3 X6.1002 Y3.5023 I0.3293 J0
G3 X6.1121 Y3.4626 I0.1995 J0.038
G3 X6.1318 Y3.4262 I0.1876 J0.0777
G3 X6.1713 Y3.3784 I0.2724 J0.1851
G3 X6.219 Y3.3389 I0.2329 J0.2329
G3 X6.2554 Y3.3193 I0.1141 J0.1679
G3 X6.2951 Y3.3074 I0.0777 J0.1876
G3 X6.3568 Y3.3016 I0.0617 J0.3235
G3 X6.4185 Y3.3074 I0 J0.3293
G3 X6.4582 Y3.3193 I-0.038 J0.1995
G3 X6.4946 Y3.3389 I-0.0777 J0.1876
G3 X6.5423 Y3.3784 I-0.1851 J0.2724
G3 X6.5819 Y3.4262 I-0.2329 J0.2329
G3 X6.6015 Y3.4626 I-0.1679 J0.1141
G3 X6.6134 Y3.5023 I-0.1876 J0.0777
G3 X6.6192 Y3.564 I-0.3235 J0.0617
G1 X6.6192 Y4.8238
G3 X6.6134 Y4.8855 I-0.3293 J0
G3 X6.6015 Y4.9252 I-0.1995 J-0.038
G3 X6.5819 Y4.9616 I-0.1876 J-0.0777
G3 X6.5423 Y5.0094 I-0.2724 J-0.1851
G3 X6.4946 Y5.0489 I-0.2329 J-0.2329
G3 X6.4582 Y5.0685 I-0.1141 J-0.1679
G3 X6.4185 Y5.0804 I-0.0777 J-0.1876
G3 X6.3568 Y5.0862 I-0.0617 J-0.3235
G3 X6.2951 Y5.0804 I0 J-0.3293
G3 X6.2554 Y5.0685 I0.038 J-0.1995
G3 X6.219 Y5.0489 I0.0777 J-0.1876
G3 X6.1713 Y5.0094 I0.1851 J-0.2724
G3 X6.1318 Y4.9616 I0.2329 J-0.2329
G3 X6.1121 Y4.9252 I0.1679 J-0.1141
G3 X6.1002 Y4.8855 I0.1876 J-0.0777
G3 X6.0944 Y4.8238 I0.3235 J-0.0617
G1 X5.9944 Y4.8238 F60
G1 X5.9944 Y3.564 F60
G3 X6.002 Y3.4835 I0.4293 J0
G3 X6.0197 Y3.4243 I0.2977 J0.0568
G3 X6.049 Y3.37 I0.28 J0.116
G3 X6.1005 Y3.3077 I0.3551 J0.2413
G3 X6.1628 Y3.2562 I0.3036 J0.3036
G3 X6.2172 Y3.2269 I0.1704 J0.2507
G3 X6.2764 Y3.2092 I0.116 J0.28
G3 X6.3568 Y3.2016 I0.0804 J0.4217
G3 X6.4372 Y3.2092 I0 J0.4293
G3 X6.4964 Y3.2269 I-0.0568 J0.2977
G3 X6.5508 Y3.2562 I-0.116 J0.28
G3 X6.6131 Y3.3077 I-0.2413 J0.3551
G3 X6.6646 Y3.37 I-0.3036 J0.3036
G3 X6.6939 Y3.4243 I-0.2507 J0.1704
G3 X6.7116 Y3.4835 I-0.28 J0.116
G3 X6.7192 Y3.564 I-0.4217 J0.0804
G1 X6.7192 Y4.8238
G3 X6.7116 Y4.9043 I-0.4293 J0
G3 X6.6939 Y4.9634 I-0.2977 J-0.0568
G3 X6.6646 Y5.0178 I-0.28 J-0.116
G3 X6.6131 Y5.0801 I-0.3551 J-0.2413
G3 X6.5508 Y5.1316 I-0.3036 J-0.3036
G3 X6.4964 Y5.1609 I-0.1704 J-0.2507
G3 X6.4372 Y5.1786 I-0.116 J-0.28
G3 X6.3568 Y5.1862 I-0.0804 J-0.4217
G3 X6.2764 Y5.1786 I0 J-0.4293
G3 X6.2172 Y5.1609 I0.0568 J-0.2977
G3 X6.1628 Y5.1316 I0.116 J-0.28
G3 X6.1005 Y5.0801 I0.2413 J-0.3551
G3 X6.049 Y5.0178 I0.3036 J-0.3036
G3 X6.0197 Y4.9634 I0.2507 J-0.1704
G3 X6.002 Y4.9043 I0.28 J-0.116
G3 X5.9944 Y4.8238 I0.4217 J-0.0804
G1 X5.8944 Y4.8238 F60
G1 X5.8944 Y3.564 F60
G3 X5.9038 Y3.4648 I0.5293 J0
G3 X5.9273 Y3.3861 I0.3959 J0.0755
G3 X5.9663 Y3.3138 I0.3724 J0.1542
G3 X6.0298 Y3.237 I0.4378 J0.2975
G3 X6.1066 Y3.1735 I0.3743 J0.3743
G3 X6.1789 Y3.1345 I0.2266 J0.3334
G3 X6.2576 Y3.1109 I0.1542 J0.3724
G3 X6.3568 Y3.1016 I0.0992 J0.5199
G3 X6.456 Y3.1109 I0 J0.5293
G3 X6.5347 Y3.1345 I-0.0755 J0.3959
G3 X6.607 Y3.1735 I-0.1542 J0.3724
G3 X6.6838 Y3.237 I-0.2975 J0.4378
G3 X6.7473 Y3.3138 I-0.3743 J0.3743
G3 X6.7863 Y3.3861 I-0.3334 J0.2266
G3 X6.8098 Y3.4648 I-0.3724 J0.1542
G3 X6.8192 Y3.564 I-0.5199 J0.0992
G1 X6.8192 Y4.8238
G3 X6.8098 Y4.923 I-0.5293 J0
G3 X6.7863 Y5.0017 I-0.3959 J-0.0755
G3 X6.7473 Y5.074 I-0.3724 J-0.1542
G3 X6.6838 Y5.1508 I-0.4378 J-0.2975
G3 X6.607 Y5.2143 I-0.3743 J-0.3743
G3 X6.5347 Y5.2533 I-0.2266 J-0.3334
G3 X6.456 Y5.2768 I-0.1542 J-0.3724
G3 X6.3568 Y5.2862 I-0.0992 J-0.5199
G3 X6.2576 Y5.2768 I0 J-0.5293
G3 X6.1789 Y5.2533 I0.0755 J-0.3959
G3 X6.1066 Y5.2143 I0.1542 J-0.3724
G3 X6.0298 Y5.1508 I0.2975 J-0.4378
G3 X5.9663 Y5.074 I0.3743 J-0.3743
G3 X5.9273 Y5.0017 I0.3334 J-0.2266
G3 X5.9038 Y4.923 I0.3724 J-0.1542
G3 X5.8944 Y4.8238 I0.5199 J-0.0992
G0 Z0.15
G0 X5.6944 Y4.8238
G1 Z-0.14 F30
G1 X5.6944 Y3.564 F60
G3 X5.7073 Y3.4273 I0.7293 J0
G3 X5.7425 Y3.3095 I0.5924 J0.113
G3 X5.8009 Y3.2013 I0.5572 J0.2308
G3 X5.8884 Y3.0956 I0.6032 J0.4099
G3 X5.9942 Y3.0081 I0.5157 J0.5157
G3 X6.1024 Y2.9497 I0.339 J0.4988
G3 X6.2202 Y2.9145 I0.2308 J0.5572
G3 X6.3568 Y2.9016 I0.1366 J0.7164
G3 X6.4934 Y2.9145 I0 J0.7293
G3 X6.6112 Y2.9497 I-0.113 J0.5924
G3 X6.7194 Y3.0081 I-0.2308 J0.5572
G3 X6.8252 Y3.0956 I-0.4099 J0.6032
G3 X6.9127 Y3.2013 I-0.5157 J0.5157
G3 X6.9711 Y3.3095 I-0.4988 J0.339
G3 X7.0063 Y3.4273 I-0.5572 J0.2308
G3 X7.0192 Y3.564 I-0.7164 J0.1366
G1 X7.0192 Y4.8238
G3 X7.0063 Y4.9605 I-0.7293 J0
G3 X6.9711 Y5.0783 I-0.5924 J-0.113
G3 X6.9127 Y5.1865 I-0.5572 J-0.2308
G3 X6.8252 Y5.2922 I-0.6032 J-0.4099
G3 X6.7194 Y5.3797 I-0.5157 J-0.5157
G3 X6.6112 Y5.4381 I-0.339 J-0.4988
G3 X6.4934 Y5.4733 I-0.2308 J-0.5572
G3 X6.3568 Y5.4862 I-0.1366 J-0.7164
G3 X6.2202 Y5.4733 I0 J-0.7293
G3 X6.1024 Y5.4381 I0.113 J-0.5924
G3 X5.9942 Y5.3797 I0.2308 J-0.5572
G3 X5.8884 Y5.2922 I0.4099 J-0.6032
G3 X5.8009 Y5.1865 I0.5157 J-0.5157
G3 X5.7425 Y5.0783 I0.4988 J-0.339
G3 X5.7073 Y4.9605 I0.5572 J-0.2308
G3 X5.6944 Y4.8238 I0.7164 J-0.1366
G0 Z0.15
G0 X4.0566 Y4.4862
G1 Z-0.14 F30
G1 X4.0566 Y3.9016 F60
G1 X4.0901 Y3.9016
G1 X4.0901 Y4.4862
G1 X4.0566 Y4.4862
G1 X3.9566 Y4.5862 F60
G1 X3.9566 Y3.8016 F60
G1 X4.1901 Y3.8016
G1 X4.1901 Y4.5862
G1 X3.9566 Y4.5862
G1 X3.8566 Y4.6862 F60
G1 X3.8566 Y3.7016 F60
G1 X4.2901 Y3.7016
G1 X4.2901 Y4.6862
G1 X3.8566 Y4.6862
G1 X3.7566 Y4.7862 F60
G1 X3.7566 Y3.6016 F60
G1 X4.3901 Y3.6016
G1 X4.3901 Y4.7862
G1 X3.7566 Y4.7862
G0 Z0.15
G0 X3.0566 Y4.8238
G1 Z-0.14 F30
G1 X3.0566 Y3.564 F60
G3 X3.0695 Y3.4273 I0.7293 J0
G3 X3.1047 Y3.3095 I0.5924 J0.113
G3 X3.1631 Y3.2013 I0.5572 J0.2308
G3 X3.2506 Y3.0956 I0.6032 J0.4099
G3 X3.3564 Y3.0081 I0.5157 J0.5157
G3 X3.4646 Y2.9497 I0.339 J0.4988
G3 X3.5824 Y2.9145 I0.2308 J0.5572
G3 X3.719 Y2.9016 I0.1366 J0.7164
G1 X4.4277 Y2.9016
G3 X4.5991 Y2.9241 I0 J0.6624
G3 X4.7589 Y2.9903 I-0.1714 J0.6398
G3 X4.8961 Y3.0956 I-0.3312 J0.5737
G3 X5.0013 Y3.2328 I-0.4684 J0.4684
G3 X5.0675 Y3.3925 I-0.5737 J0.3312
G3 X5.0901 Y3.564 I-0.6398 J0.1714
G1 X5.0901 Y4.8238
G3 X5.0675 Y4.9953 I-0.6624 J0
G3 X5.0013 Y5.155 I-0.6398 J-0.1714
G3 X4.8961 Y5.2922 I-0.5737 J-0.3312
G3 X4.7589 Y5.3975 I-0.4684 J-0.4684
G3 X4.5991 Y5.4637 I-0.3312 J-0.5737
G3 X4.4277 Y5.4862 I-0.1714 J-0.6398
G1 X3.719 Y5.4862
G3 X3.5824 Y5.4733 I0 J-0.7293
G3 X3.4646 Y5.4381 I0.113 J-0.5924
G3 X3.3564 Y5.3797 I0.2308 J-0.5572
G3 X3.2506 Y5.2922 I0.4099 J-0.6032
G3 X3.1631 Y5.1865 I0.5157 J-0.5157
G3 X3.1047 Y5.0783 I0.4988 J-0.339
G3 X3.0695 Y4.9605 I0.5572 J-0.2308
G3 X3.0566 Y4.8238 I0.7164 J-0.1366
G0 Z0.15
G0 X1.8523 Y3.564
G1 Z-0.14 F30
G1 X1.8523 Y4.8238 F60
G3 X1.85 Y4.848 I-0.1293 J0
G1 X1.8498 Y4.8486
G1 X1.8495 Y4.8492
G3 X1.834 Y4.8679 I-0.1069 J-0.0727
G3 X1.8152 Y4.8835 I-0.0914 J-0.0914
G1 X1.8147 Y4.8838
G1 X1.8141 Y4.8839
G3 X1.7899 Y4.8862 I-0.0242 J-0.127
G3 X1.7656 Y4.8839 I0 J-0.1293
G1 X1.765 Y4.8838
G1 X1.7645 Y4.8835
G3 X1.7457 Y4.8679 I0.0727 J-0.1069
G3 X1.7302 Y4.8492 I0.0914 J-0.0914
G1 X1.7299 Y4.8486
G1 X1.7298 Y4.848
G3 X1.7275 Y4.8238 I0.127 J-0.0242
G1 X1.7275 Y3.564
G3 X1.7298 Y3.5398 I0.1293 J0
G1 X1.7299 Y3.5392
G1 X1.7302 Y3.5386
G3 X1.7457 Y3.5199 I0.1069 J0.0727
G3 X1.7645 Y3.5043 I0.0914 J0.0914
G1 X1.765 Y3.504
G1 X1.7656 Y3.5039
G3 X1.7899 Y3.5016 I0.0242 J0.127
G3 X1.8141 Y3.5039 I0 J0.1293
G1 X1.8147 Y3.504
G1 X1.8152 Y3.5043
G3 X1.834 Y3.5199 I-0.0727 J0.1069
G3 X1.8495 Y3.5386 I-0.0914 J0.0914
G1 X1.8498 Y3.5392
G1 X1.85 Y3.5398
G3 X1.8523 Y3.564 I-0.127 J0.0242
G1 X1.9523 Y3.564 F60
G1 X1.9523 Y4.8238 F60
G3 X1.9482 Y4.8668 I-0.2293 J0
G3 X1.9422 Y4.8869 I-0.1012 J-0.0193
G3 X1.9322 Y4.9054 I-0.0952 J-0.0394
G3 X1.9047 Y4.9387 I-0.1896 J-0.1289
G3 X1.8715 Y4.9662 I-0.1621 J-0.1621
G3 X1.853 Y4.9761 I-0.0579 J-0.0852
G3 X1.8328 Y4.9822 I-0.0394 J-0.0952
G3 X1.7899 Y4.9862 I-0.043 J-0.2252
G3 X1.7469 Y4.9822 I0 J-0.2293
G3 X1.7268 Y4.9761 I0.0193 J-0.1012
G3 X1.7083 Y4.9662 I0.0394 J-0.0952
G3 X1.675 Y4.9387 I0.1289 J-0.1896
G3 X1.6475 Y4.9054 I0.1621 J-0.1621
G3 X1.6376 Y4.8869 I0.0852 J-0.0579
G3 X1.6315 Y4.8668 I0.0952 J-0.0394
G3 X1.6275 Y4.8238 I0.2252 J-0.043
G1 X1.6275 Y3.564
G3 X1.6315 Y3.521 I0.2293 J0
G3 X1.6376 Y3.5009 I0.1012 J0.0193
G3 X1.6475 Y3.4824 I0.0952 J0.0394
G3 X1.675 Y3.4491 I0.1896 J0.1289
G3 X1.7083 Y3.4216 I0.1621 J0.1621
G3 X1.7268 Y3.4117 I0.0579 J0.0852
G3 X1.7469 Y3.4056 I0.0394 J0.0952
G3 X1.7899 Y3.4016 I0.043 J0.2252
G3 X1.8328 Y3.4056 I0 J0.2293
G3 X1.853 Y3.4117 I-0.0193 J0.1012
G3 X1.8715 Y3.4216 I-0.0394 J0.0952
G3 X1.9047 Y3.4491 I-0.1289 J0.1896
G3 X1.9322 Y3.4824 I-0.1621 J0.1621
G3 X1.9422 Y3.5009 I-0.0852 J0.0579
G3 X1.9482 Y3.521 I-0.0952 J0.0394
G3 X1.9523 Y3.564 I-0.2252 J0.043
G0 Z0.15
G0 X2.4523 Y3.564
G1 Z-0.14 F30
G1 X2.4523 Y4.8238 F60
G3 X2.4394 Y4.9605 I-0.7293 J0
G3 X2.4041 Y5.0783 I-0.5924 J-0.113
G3 X2.3458 Y5.1865 I-0.5572 J-0.2308
G3 X2.2583 Y5.2922 I-0.6032 J-0.4099
G3 X2.1525 Y5.3797 I-0.5157 J-0.5157
G3 X2.0443 Y5.4381 I-0.339 J-0.4988
G3 X1.9265 Y5.4733 I-0.2308 J-0.5572
G3 X1.7899 Y5.4862 I-0.1366 J-0.7164
G3 X1.6532 Y5.4733 I0 J-0.7293
G3 X1.5354 Y5.4381 I0.113 J-0.5924
G3 X1.4272 Y5.3797 I0.2308 J-0.5572
G3 X1.3215 Y5.2922 I0.4099 J-0.6032
G3 X1.234 Y5.1865 I0.5157 J-0.5157
G3 X1.1756 Y5.0783 I0.4988 J-0.339
G3 X1.1404 Y4.9605 I0.5572 J-0.2308
G3 X1.1275 Y4.8238 I0.7164 J-0.1366
G1 X1.1275 Y3.564
G3 X1.1404 Y3.4273 I0.7293 J0
G3 X1.1756 Y3.3095 I0.5924 J0.113
G3 X1.234 Y3.2013 I0.5572 J0.2308
G3 X1.3215 Y3.0956 I0.6032 J0.4099
G3 X1.4272 Y3.0081 I0.5157 J0.5157
G3 X1.5354 Y2.9497 I0.339 J0.4988
G3 X1.6532 Y2.9145 I0.2308 J0.5572
G3 X1.7899 Y2.9016 I0.1366 J0.7164
G3 X1.9265 Y2.9145 I0 J0.7293
G3 X2.0443 Y2.9497 I-0.113 J0.5924
G3 X2.1525 Y3.0081 I-0.2308 J0.5572
G3 X2.2583 Y3.0956 I-0.4099 J0.6032
G3 X2.3458 Y3.2013 I-0.5157 J0.5157
G3 X2.4041 Y3.3095 I-0.4988 J0.339
G3 X2.4394 Y3.4273 I-0.5572 J0.2308
G3 X2.4523 Y3.564 I-0.7164 J0.1366
G0 Z0.15
G0 X3.719 Y6.6906
G1 Z-0.14 F30
G1 X4.4277 Y6.6906 F60
G3 X4.4519 Y6.6928 I0 J0.1293
G1 X4.4525 Y6.693
G1 X4.453 Y6.6933
G3 X4.4718 Y6.7088 I-0.0727 J0.1069
G3 X4.4873 Y6.7276 I-0.0914 J0.0914
G1 X4.4876 Y6.7281
G1 X4.4878 Y6.7287
G3 X4.4901 Y6.753 I-0.127 J0.0242
G3 X4.4878 Y6.7772 I-0.1293 J0
G1 X4.4876 Y6.7778
G1 X4.4873 Y6.7783
G3 X4.4718 Y6.7971 I-0.1069 J-0.0727
G3 X4.453 Y6.8126 I-0.0914 J-0.0914
G1 X4.4525 Y6.8129
G1 X4.4519 Y6.8131
G3 X4.4277 Y6.8154 I-0.0242 J-0.127
G1 X3.719 Y6.8154
G3 X3.6948 Y6.8131 I0 J-0.1293
G1 X3.6942 Y6.8129
G1 X3.6936 Y6.8126
G3 X3.6749 Y6.7971 I0.0727 J-0.1069
G3 X3.6594 Y6.7783 I0.0914 J-0.0914
G1 X3.6591 Y6.7778
G1 X3.6589 Y6.7772
G3 X3.6566 Y6.753 I0.127 J-0.0242
G3 X3.6589 Y6.7287 I0.1293 J0
G1 X3.6591 Y6.7281
G1 X3.6594 Y6.7276
G3 X3.6749 Y6.7088 I0.1069 J0.0727
G3 X3.6936 Y6.6933 I0.0914 J0.0914
G1 X3.6942 Y6.693
G1 X3.6948 Y6.6928
G3 X3.719 Y6.6906 I0.0242 J0.127
G1 X3.719 Y6.5906 F60
G1 X4.4277 Y6.5906 F60
G3 X4.4706 Y6.5946 I0 J0.2293
G3 X4.4908 Y6.6006 I-0.0193 J0.1012
G3 X4.5093 Y6.6106 I-0.0394 J0.0952
G3 X4.5425 Y6.6381 I-0.1289 J0.1896
G3 X4.57 Y6.6714 I-0.1621 J0.1621
G3 X4.58 Y6.6899 I-0.0852 J0.0579
G3 X4.586 Y6.71 I-0.0952 J0.0394
G3 X4.5901 Y6.753 I-0.2252 J0.043
G3 X4.586 Y6.7959 I-0.2293 J0
G3 X4.58 Y6.816 I-0.1012 J-0.0193
G3 X4.57 Y6.8345 I-0.0952 J-0.0394
G3 X4.5425 Y6.8678 I-0.1896 J-0.1289
G3 X4.5093 Y6.8953 I-0.1621 J-0.1621
G3 X4.4908 Y6.9053 I-0.0579 J-0.0852
G3 X4.4706 Y6.9113 I-0.0394 J-0.0952
G3 X4.4277 Y6.9154 I-0.043 J-0.2252
G1 X3.719 Y6.9154
G3 X3.676 Y6.9113 I0 J-0.2293
G3 X3.6559 Y6.9053 I0.0193 J-0.1012
G3 X3.6374 Y6.8953 I0.0394 J-0.0952
G3 X3.6042 Y6.8678 I0.1289 J-0.1896
G3 X3.5767 Y6.8345 I0.1621 J-0.1621
G3 X3.5667 Y6.816 I0.0852 J-0.0579
G3 X3.5607 Y6.7959 I0.0952 J-0.0394
G3 X3.5566 Y6.753 I0.2252 J-0.043
G3 X3.5607 Y6.71 I0.2293 J0
G3 X3.5667 Y6.6899 I0.1012 J0.0193
G3 X3.5767 Y6.6714 I0.0952 J0.0394
G3 X3.6042 Y6.6381 I0.1896 J0.1289
G3 X3.6374 Y6.6106 I0.1621 J0.1621
G3 X3.6559 Y6.6006 I0.0579 J0.0852
G3 X3.676 Y6.5946 I0.0394 J0.0952
G3 X3.719 Y6.5906 I0.043 J0.2252
G1 X3.719 Y6.4906 F60
G1 X4.4277 Y6.4906 F60
G3 X4.4894 Y6.4964 I0 J0.3293
G3 X4.529 Y6.5082 I-0.038 J0.1995
G3 X4.5655 Y6.5279 I-0.0777 J0.1876
G3 X4.6132 Y6.5674 I-0.1851 J0.2724
G3 X4.6527 Y6.6152 I-0.2329 J0.2329
G3 X4.6724 Y6.6516 I-0.1679 J0.1141
G3 X4.6842 Y6.6913 I-0.1876 J0.0777
G3 X4.6901 Y6.753 I-0.3235 J0.0617
G3 X4.6842 Y6.8147 I-0.3293 J0
G3 X4.6724 Y6.8543 I-0.1995 J-0.038
G3 X4.6527 Y6.8907 I-0.1876 J-0.0777
G3 X4.6132 Y6.9385 I-0.2724 J-0.1851
G3 X4.5655 Y6.978 I-0.2329 J-0.2329
G3 X4.529 Y6.9977 I-0.1141 J-0.1679
G3 X4.4894 Y7.0095 I-0.0777 J-0.1876
G3 X4.4277 Y7.0154 I-0.0617 J-0.3235
G1 X3.719 Y7.0154
G3 X3.6573 Y7.0095 I0 J-0.3293
G3 X3.6176 Y6.9977 I0.038 J-0.1995
G3 X3.5812 Y6.978 I0.0777 J-0.1876
G3 X3.5335 Y6.9385 I0.1851 J-0.2724
G3 X3.494 Y6.8907 I0.2329 J-0.2329
G3 X3.4743 Y6.8543 I0.1679 J-0.1141
G3 X3.4624 Y6.8147 I0.1876 J-0.0777
G3 X3.4566 Y6.753 I0.3235 J-0.0617
G3 X3.4624 Y6.6913 I0.3293 J0
G3 X3.4743 Y6.6516 I0.1995 J0.038
G3 X3.494 Y6.6152 I0.1876 J0.0777
G3 X3.5335 Y6.5674 I0.2724 J0.1851
G3 X3.5812 Y6.5279 I0.2329 J0.2329
G3 X3.6176 Y6.5082 I0.1141 J0.1679
G3 X3.6573 Y6.4964 I0.0777 J0.1876
G3 X3.719 Y6.4906 I0.0617 J0.3235
G1 X3.719 Y6.3906 F60
G1 X4.4277 Y6.3906 F60
G3 X4.5081 Y6.3982 I0 J0.4293
G3 X4.5673 Y6.4159 I-0.0568 J0.2977
G3 X4.6217 Y6.4452 I-0.116 J0.28
G3 X4.6839 Y6.4967 I-0.2413 J0.3551
G3 X4.7354 Y6.559 I-0.3036 J0.3036
G3 X4.7648 Y6.6133 I-0.2507 J0.1704
G3 X4.7825 Y6.6725 I-0.28 J0.116
G3 X4.7901 Y6.753 I-0.4217 J0.0804
G3 X4.7825 Y6.8334 I-0.4293 J0
G3 X4.7648 Y6.8926 I-0.2977 J-0.0568
G3 X4.7354 Y6.947 I-0.28 J-0.116
G3 X4.6839 Y7.0092 I-0.3551 J-0.2413
G3 X4.6217 Y7.0607 I-0.3036 J-0.3036
G3 X4.5673 Y7.0901 I-0.1704 J-0.2507
G3 X4.5081 Y7.1078 I-0.116 J-0.28
G3 X4.4277 Y7.1154 I-0.0804 J-0.4217
G1 X3.719 Y7.1154
G3 X3.6386 Y7.1078 I0 J-0.4293
G3 X3.5794 Y7.0901 I0.0568 J-0.2977
G3 X3.525 Y7.0607 I0.116 J-0.28
G3 X3.4628 Y7.0092 I0.2413 J-0.3551
G3 X3.4113 Y6.947 I0.3036 J-0.3036
G3 X3.3819 Y6.8926 I0.2507 J-0.1704
G3 X3.3642 Y6.8334 I0.28 J-0.116
G3 X3.3566 Y6.753 I0.4217 J-0.0804
G3 X3.3642 Y6.6725 I0.4293 J0
G3 X3.3819 Y6.6133 I0.2977 J0.0568
G3 X3.4113 Y6.559 I0.28 J0.116
G3 X3.4628 Y6.4967 I0.3551 J0.2413
G3 X3.525 Y6.4452 I0.3036 J0.3036
G3 X3.5794 Y6.4159 I0.1704 J0.2507
G3 X3.6386 Y6.3982 I0.116 J0.28
G3 X3.719 Y6.3906 I0.0804 J0.4217
G1 X3.719 Y6.2906 F60
G1 X4.4277 Y6.2906 F60
G3 X4.5268 Y6.2999 I0 J0.5293
G3 X4.6056 Y6.3235 I-0.0755 J0.3959
G3 X4.6779 Y6.3625 I-0.1542 J0.3724
G3 X4.7546 Y6.426 I-0.2975 J0.4378
G3 X4.8181 Y6.5027 I-0.3743 J0.3743
G3 X4.8572 Y6.5751 I-0.3334 J0.2266
G3 X4.8807 Y6.6538 I-0.3724 J0.1542
G3 X4.8901 Y6.753 I-0.5199 J0.0992
G3 X4.8807 Y6.8521 I-0.5293 J0
G3 X4.8572 Y6.9309 I-0.3959 J-0.0755
G3 X4.8181 Y7.0032 I-0.3724 J-0.1542
G3 X4.7546 Y7.0799 I-0.4378 J-0.2975
G3 X4.6779 Y7.1434 I-0.3743 J-0.3743
G3 X4.6056 Y7.1824 I-0.2266 J-0.3334
G3 X4.5268 Y7.206 I-0.1542 J-0.3724
G3 X4.4277 Y7.2154 I-0.0992 J-0.5199
G1 X3.719 Y7.2154
G3 X3.6198 Y7.206 I0 J-0.5293
G3 X3.5411 Y7.1824 I0.0755 J-0.3959
G3 X3.4688 Y7.1434 I0.1542 J-0.3724
G3 X3.392 Y7.0799 I0.2975 J-0.4378
G3 X3.3285 Y7.0032 I0.3743 J-0.3743
G3 X3.2895 Y6.9309 I0.3334 J-0.2266
G3 X3.266 Y6.8521 I0.3724 J-0.1542
G3 X3.2566 Y6.753 I0.5199 J-0.0992
G3 X3.266 Y6.6538 I0.5293 J0
G3 X3.2895 Y6.5751 I0.3959 J0.0755
G3 X3.3285 Y6.5027 I0.3724 J0.1542
G3 X3.392 Y6.426 I0.4378 J0.2975
G3 X3.4688 Y6.3625 I0.3743 J0.3743
G3 X3.5411 Y6.3235 I0.2266 J0.3334
G3 X3.6198 Y6.2999 I0.1542 J0.3724
G3 X3.719 Y6.2906 I0.0992 J0.5199
G1 X3.719 Y6.1906 F60
G1 X4.4277 Y6.1906 F60
G3 X4.5456 Y6.2017 I0 J0.6293
G3 X4.6438 Y6.2311 I-0.0943 J0.4942
G3 X4.7341 Y6.2798 I-0.1925 J0.4648
G3 X4.8253 Y6.3553 I-0.3537 J0.5205
G3 X4.9008 Y6.4465 I-0.445 J0.445
G3 X4.9495 Y6.5368 I-0.4161 J0.2828
G3 X4.9789 Y6.635 I-0.4648 J0.1925
G3 X4.9901 Y6.753 I-0.6182 J0.1179
G3 X4.9789 Y6.8709 I-0.6293 J0
G3 X4.9495 Y6.9691 I-0.4942 J-0.0943
G3 X4.9008 Y7.0594 I-0.4648 J-0.1925
G3 X4.8253 Y7.1506 I-0.5205 J-0.3537
G3 X4.7341 Y7.2261 I-0.445 J-0.445
G3 X4.6438 Y7.2748 I-0.2828 J-0.4161
G3 X4.5456 Y7.3042 I-0.1925 J-0.4648
G3 X4.4277 Y7.3154 I-0.1179 J-0.6182
G1 X3.719 Y7.3154
G3 X3.6011 Y7.3042 I0 J-0.6293
G3 X3.5028 Y7.2748 I0.0943 J-0.4942
G3 X3.4126 Y7.2261 I0.1925 J-0.4648
G3 X3.3213 Y7.1506 I0.3537 J-0.5205
G3 X3.2458 Y7.0594 I0.445 J-0.445
G3 X3.1971 Y6.9691 I0.4161 J-0.2828
G3 X3.1678 Y6.8709 I0.4648 J-0.1925
G3 X3.1566 Y6.753 I0.6182 J-0.1179
G3 X3.1678 Y6.635 I0.6293 J0
G3 X3.1971 Y6.5368 I0.4942 J0.0943
G3 X3.2458 Y6.4465 I0.4648 J0.1925
G3 X3.3213 Y6.3553 I0.5205 J0.3537
G3 X3.4126 Y6.2798 I0.445 J0.445
G3 X3.5028 Y6.2311 I0.2828 J0.4161
G3 X3.6011 Y6.2017 I0.1925 J0.4648
G3 X3.719 Y6.1906 I0.1179 J0.6182
G1 X3.719 Y6.0906 F60
G1 X4.4277 Y6.0906 F60
G3 X4.5643 Y6.1035 I0 J0.7293
G3 X4.6821 Y6.1387 I-0.113 J0.5924
G3 X4.7903 Y6.1971 I-0.2308 J0.5572
G3 X4.8961 Y6.2846 I-0.4099 J0.6032
G3 X4.9835 Y6.3903 I-0.5157 J0.5157
G3 X5.0419 Y6.4985 I-0.4988 J0.339
G3 X5.0772 Y6.6163 I-0.5572 J0.2308
G3 X5.0901 Y6.753 I-0.7164 J0.1366
G3 X5.0772 Y6.8896 I-0.7293 J0
G3 X5.0419 Y7.0074 I-0.5924 J-0.113
G3 X4.9835 Y7.1156 I-0.5572 J-0.2308
G3 X4.8961 Y7.2213 I-0.6032 J-0.4099
G3 X4.7903 Y7.3088 I-0.5157 J-0.5157
G3 X4.6821 Y7.3672 I-0.339 J-0.4988
G3 X4.5643 Y7.4024 I-0.2308 J-0.5572
G3 X4.4277 Y7.4154 I-0.1366 J-0.7164
G1 X3.719 Y7.4154
G3 X3.5824 Y7.4024 I0 J-0.7293
G3 X3.4646 Y7.3672 I0.113 J-0.5924
G3 X3.3564 Y7.3088 I0.2308 J-0.5572
G3 X3.2506 Y7.2213 I0.4099 J-0.6032
G3 X3.1631 Y7.1156 I0.5157 J-0.5157
G3 X3.1047 Y7.0074 I0.4988 J-0.339
G3 X3.0695 Y6.8896 I0.5572 J-0.2308
G3 X3.0566 Y6.753 I0.7164 J-0.1366
G3 X3.0695 Y6.6163 I0.7293 J0
G3 X3.1047 Y6.4985 I0.5924 J0.113
G3 X3.1631 Y6.3903 I0.5572 J0.2308
G3 X3.2506 Y6.2846 I0.6032 J0.4099
G3 X3.3564 Y6.1971 I0.5157 J0.5157
G3 X3.4646 Y6.1387 I0.339 J0.4988
G3 X3.5824 Y6.1035 I0.2308 J0.5572
G3 X3.719 Y6.0906 I0.1366 J0.7164
G0 Z0.15
G0 X4.4277 Y1.6972
G1 Z-0.14 F30
G1 X3.719 Y1.6972 F60
G3 X3.6948 Y1.695 I0 J-0.1293
G1 X3.6942 Y1.6948
G1 X3.6936 Y1.6945
G3 X3.6749 Y1.679 I0.0727 J-0.1069
G3 X3.6594 Y1.6602 I0.0914 J-0.0914
G1 X3.6591 Y1.6597
G1 X3.6589 Y1.6591
G3 X3.6566 Y1.6348 I0.127 J-0.0242
G3 X3.6589 Y1.6106 I0.1293 J0
G1 X3.6591 Y1.61
G1 X3.6594 Y1.6095
G3 X3.6749 Y1.5907 I0.1069 J0.0727
G3 X3.6936 Y1.5752 I0.0914 J0.0914
G1 X3.6942 Y1.5749
G1 X3.6948 Y1.5747
G3 X3.719 Y1.5724 I0.0242 J0.127
G1 X4.4277 Y1.5724
G3 X4.4519 Y1.5747 I0 J0.1293
G1 X4.4525 Y1.5749
G1 X4.453 Y1.5752
G3 X4.4718 Y1.5907 I-0.0727 J0.1069
G3 X4.4873 Y1.6095 I-0.0914 J0.0914
G1 X4.4876 Y1.61
G1 X4.4878 Y1.6106
G3 X4.4901 Y1.6348 I-0.127 J0.0242
G3 X4.4878 Y1.6591 I-0.1293 J0
G1 X4.4876 Y1.6597
G1 X4.4873 Y1.6602
G3 X4.4718 Y1.679 I-0.1069 J-0.0727
G3 X4.453 Y1.6945 I-0.0914 J-0.0914
G1 X4.4525 Y1.6948
G1 X4.4519 Y1.695
G3 X4.4277 Y1.6972 I-0.0242 J-0.127
G1 X4.4277 Y1.7972 F60
G1 X3.719 Y1.7972 F60
G3 X3.676 Y1.7932 I0 J-0.2293
G3 X3.6559 Y1.7872 I0.0193 J-0.1012
G3 X3.6374 Y1.7772 I0.0394 J-0.0952
G3 X3.6042 Y1.7497 I0.1289 J-0.1896
G3 X3.5767 Y1.7164 I0.1621 J-0.1621
G3 X3.5667 Y1.6979 I0.0852 J-0.0579
G3 X3.5607 Y1.6778 I0.0952 J-0.0394
G3 X3.5566 Y1.6348 I0.2252 J-0.043
G3 X3.5607 Y1.5919 I0.2293 J0
G3 X3.5667 Y1.5718 I0.1012 J0.0193
G3 X3.5767 Y1.5533 I0.0952 J0.0394
G3 X3.6042 Y1.52 I0.1896 J0.1289
G3 X3.6374 Y1.4925 I0.1621 J0.1621
G3 X3.6559 Y1.4825 I0.0579 J0.0852
G3 X3.676 Y1.4765 I0.0394 J0.0952
G3 X3.719 Y1.4724 I0.043 J0.2252
G1 X4.4277 Y1.4724
G3 X4.4706 Y1.4765 I0 J0.2293
G3 X4.4908 Y1.4825 I-0.0193 J0.1012
G3 X4.5093 Y1.4925 I-0.0394 J0.0952
G3 X4.5425 Y1.52 I-0.1289 J0.1896
G3 X4.57 Y1.5533 I-0.1621 J0.1621
G3 X4.58 Y1.5718 I-0.0852 J0.0579
G3 X4.586 Y1.5919 I-0.0952 J0.0394
G3 X4.5901 Y1.6348 I-0.2252 J0.043
G3 X4.586 Y1.6778 I-0.2293 J0
G3 X4.58 Y1.6979 I-0.1012 J-0.0193
G3 X4.57 Y1.7164 I-0.0952 J-0.0394
G3 X4.5425 Y1.7497 I-0.1896 J-0.1289
G3 X4.5093 Y1.7772 I-0.1621 J-0.1621
G3 X4.4908 Y1.7872 I-0.0579 J-0.0852
G3 X4.4706 Y1.7932 I-0.0394 J-0.0952
G3 X4.4277 Y1.7972 I-0.043 J-0.2252
G1 X4.4277 Y1.8972 F60
G1 X3.719 Y1.8972 F60
G3 X3.6573 Y1.8914 I0 J-0.3293
G3 X3.6176 Y1.8796 I0.038 J-0.1995
G3 X3.5812 Y1.8599 I0.0777 J-0.1876
G3 X3.5335 Y1.8204 I0.1851 J-0.2724
G3 X3.494 Y1.7726 I0.2329 J-0.2329
G3 X3.4743 Y1.7362 I0.1679 J-0.1141
G3 X3.4624 Y1.6965 I0.1876 J-0.0777
G3 X3.4566 Y1.6348 I0.3235 J-0.0617
G3 X3.4624 Y1.5731 I0.3293 J0
G3 X3.4743 Y1.5335 I0.1995 J0.038
G3 X3.494 Y1.497 I0.1876 J0.0777
G3 X3.5335 Y1.4493 I0.2724 J0.1851
G3 X3.5812 Y1.4098 I0.2329 J0.2329
G3 X3.6176 Y1.3901 I0.1141 J0.1679
G3 X3.6573 Y1.3783 I0.0777 J0.1876
G3 X3.719 Y1.3724 I0.0617 J0.3235
G1 X4.4277 Y1.3724
G3 X4.4894 Y1.3783 I0 J0.3293
G3 X4.529 Y1.3901 I-0.038 J0.1995
G3 X4.5655 Y1.4098 I-0.0777 J0.1876
G3 X4.6132 Y1.4493 I-0.1851 J0.2724
G3 X4.6527 Y1.497 I-0.2329 J0.2329
G3 X4.6724 Y1.5335 I-0.1679 J0.1141
G3 X4.6842 Y1.5731 I-0.1876 J0.0777
G3 X4.6901 Y1.6348 I-0.3235 J0.0617
G3 X4.6842 Y1.6965 I-0.3293 J0
G3 X4.6724 Y1.7362 I-0.1995 J-0.038
G3 X4.6527 Y1.7726 I-0.1876 J-0.0777
G3 X4.6132 Y1.8204 I-0.2724 J-0.1851
G3 X4.5655 Y1.8599 I-0.2329 J-0.2329
G3 X4.529 Y1.8796 I-0.1141 J-0.1679
G3 X4.4894 Y1.8914 I-0.0777 J-0.1876
G3 X4.4277 Y1.8972 I-0.0617 J-0.3235
G1 X4.4277 Y1.9972 F60
G1 X3.719 Y1.9972 F60
G3 X3.6386 Y1.9896 I0 J-0.4293
G3 X3.5794 Y1.9719 I0.0568 J-0.2977
G3 X3.525 Y1.9426 I0.116 J-0.28
G3 X3.4628 Y1.8911 I0.2413 J-0.3551
G3 X3.4113 Y1.8288 I0.3036 J-0.3036
G3 X3.3819 Y1.7745 I0.2507 J-0.1704
G3 X3.3642 Y1.7153 I0.28 J-0.116
G3 X3.3566 Y1.6348 I0.4217 J-0.0804
G3 X3.3642 Y1.5544 I0.4293 J0
G3 X3.3819 Y1.4952 I0.2977 J0.0568
G3 X3.4113 Y1.4408 I0.28 J0.116
G3 X3.4628 Y1.3786 I0.3551 J0.2413
G3 X3.525 Y1.3271 I0.3036 J0.3036
G3 X3.5794 Y1.2977 I0.1704 J0.2507
G3 X3.6386 Y1.28 I0.116 J0.28
G3 X3.719 Y1.2724 I0.0804 J0.4217
G1 X4.4277 Y1.2724
G3 X4.5081 Y1.28 I0 J0.4293
G3 X4.5673 Y1.2977 I-0.0568 J0.2977
G3 X4.6217 Y1.3271 I-0.116 J0.28
G3 X4.6839 Y1.3786 I-0.2413 J0.3551
G3 X4.7354 Y1.4408 I-0.3036 J0.3036
G3 X4.7648 Y1.4952 I-0.2507 J0.1704
G3 X4.7825 Y1.5544 I-0.28 J0.116
G3 X4.7901 Y1.6348 I-0.4217 J0.0804
G3 X4.7825 Y1.7153 I-0.4293 J0
G3 X4.7648 Y1.7745 I-0.2977 J-0.0568
G3 X4.7354 Y1.8288 I-0.28 J-0.116
G3 X4.6839 Y1.8911 I-0.3551 J-0.2413
G3 X4.6217 Y1.9426 I-0.3036 J-0.3036
G3 X4.5673 Y1.9719 I-0.1704 J-0.2507
G3 X4.5081 Y1.9896 I-0.116 J-0.28
G3 X4.4277 Y1.9972 I-0.0804 J-0.4217
G1 X4.4277 Y2.0972 F60
G1 X3.719 Y2.0972 F60
G3 X3.6198 Y2.0879 I0 J-0.5293
G3 X3.5411 Y2.0643 I0.0755 J-0.3959
G3 X3.4688 Y2.0253 I0.1542 J-0.3724
G3 X3.392 Y1.9618 I0.2975 J-0.4378
G3 X3.3285 Y1.8851 I0.3743 J-0.3743
G3 X3.2895 Y1.8127 I0.3334 J-0.2266
G3 X3.266 Y1.734 I0.3724 J-0.1542
G3 X3.2566 Y1.6348 I0.5199 J-0.0992
G3 X3.266 Y1.5357 I0.5293 J0
G3 X3.2895 Y1.4569 I0.3959 J0.0755
G3 X3.3285 Y1.3846 I0.3724 J0.1542
G3 X3.392 Y1.3079 I0.4378 J0.2975
G3 X3.4688 Y1.2444 I0.3743 J0.3743
G3 X3.5411 Y1.2054 I0.2266 J0.3334
G3 X3.6198 Y1.1818 I0.1542 J0.3724
G3 X3.719 Y1.1724 I0.0992 J0.5199
G1 X4.4277 Y1.1724
G3 X4.5268 Y1.1818 I0 J0.5293
G3 X4.6056 Y1.2054 I-0.0755 J0.3959
G3 X4.6779 Y1.2444 I-0.1542 J0.3724
G3 X4.7546 Y1.3079 I-0.2975 J0.4378
G3 X4.8181 Y1.3846 I-0.3743 J0.3743
G3 X4.8572 Y1.4569 I-0.3334 J0.2266
G3 X4.8807 Y1.5357 I-0.3724 J0.1542
G3 X4.8901 Y1.6348 I-0.5199 J0.0992
G3 X4.8807 Y1.734 I-0.5293 J0
G3 X4.8572 Y1.8127 I-0.3959 J-0.0755
G3 X4.8181 Y1.8851 I-0.3724 J-0.1542
G3 X4.7546 Y1.9618 I-0.4378 J-0.2975
G3 X4.6779 Y2.0253 I-0.3743 J-0.3743
G3 X4.6056 Y2.0643 I-0.2266 J-0.3334
G3 X4.5268 Y2.0879 I-0.1542 J-0.3724
G3 X4.4277 Y2.0972 I-0.0992 J-0.5199
G1 X4.4277 Y2.1972 F60
G1 X3.719 Y2.1972 F60
G3 X3.6011 Y2.1861 I0 J-0.6293
G3 X3.5028 Y2.1567 I0.0943 J-0.4942
G3 X3.4126 Y2.108 I0.1925 J-0.4648
G3 X3.3213 Y2.0325 I0.3537 J-0.5205
G3 X3.2458 Y1.9413 I0.445 J-0.445
G3 X3.1971 Y1.851 I0.4161 J-0.2828
G3 X3.1678 Y1.7528 I0.4648 J-0.1925
G3 X3.1566 Y1.6348 I0.6182 J-0.1179
G3 X3.1678 Y1.5169 I0.6293 J0
G3 X3.1971 Y1.4187 I0.4942 J0.0943
G3 X3.2458 Y1.3284 I0.4648 J0.1925
G3 X3.3213 Y1.2372 I0.5205 J0.3537
G3 X3.4126 Y1.1617 I0.445 J0.445
G3 X3.5028 Y1.113 I0.2828 J0.4161
G3 X3.6011 Y1.0836 I0.1925 J0.4648
G3 X3.719 Y1.0724 I0.1179 J0.6182
G1 X4.4277 Y1.0724
G3 X4.5456 Y1.0836 I0 J0.6293
G3 X4.6438 Y1.113 I-0.0943 J0.4942
G3 X4.7341 Y1.1617 I-0.1925 J0.4648
G3 X4.8253 Y1.2372 I-0.3537 J0.5205
G3 X4.9008 Y1.3284 I-0.445 J0.445
G3 X4.9495 Y1.4187 I-0.4161 J0.2828
G3 X4.9789 Y1.5169 I-0.4648 J0.1925
G3 X4.9901 Y1.6348 I-0.6182 J0.1179
G3 X4.9789 Y1.7528 I-0.6293 J0
G3 X4.9495 Y1.851 I-0.4942 J-0.0943
G3 X4.9008 Y1.9413 I-0.4648 J-0.1925
G3 X4.8253 Y2.0325 I-0.5205 J-0.3537
G3 X4.7341 Y2.108 I-0.445 J-0.445
G3 X4.6438 Y2.1567 I-0.2828 J-0.4161
G3 X4.5456 Y2.1861 I-0.1925 J-0.4648
G3 X4.4277 Y2.1972 I-0.1179 J-0.6182
G1 X4.4277 Y2.2972 F60
G1 X3.719 Y2.2972 F60
G3 X3.5824 Y2.2843 I0 J-0.7293
G3 X3.4646 Y2.2491 I0.113 J-0.5924
G3 X3.3564 Y2.1907 I0.2308 J-0.5572
G3 X3.2506 Y2.1032 I0.4099 J-0.6032
G3 X3.1631 Y1.9975 I0.5157 J-0.5157
G3 X3.1047 Y1.8893 I0.4988 J-0.339
G3 X3.0695 Y1.7715 I0.5572 J-0.2308
G3 X3.0566 Y1.6348 I0.7164 J-0.1366
G3 X3.0695 Y1.4982 I0.7293 J0
G3 X3.1047 Y1.3804 I0.5924 J0.113
G3 X3.1631 Y1.2722 I0.5572 J0.2308
G3 X3.2506 Y1.1665 I0.6032 J0.4099
G3 X3.3564 Y1.079 I0.5157 J0.5157
G3 X3.4646 Y1.0206 I0.339 J0.4988
G3 X3.5824 Y0.9854 I0.2308 J0.5572
G3 X3.719 Y0.9724 I0.1366 J0.7164
G1 X4.4277 Y0.9724
G3 X4.5643 Y0.9854 I0 J0.7293
G3 X4.6821 Y1.0206 I-0.113 J0.5924
G3 X4.7903 Y1.079 I-0.2308 J0.5572
G3 X4.8961 Y1.1665 I-0.4099 J0.6032
G3 X4.9835 Y1.2722 I-0.5157 J0.5157
G3 X5.0419 Y1.3804 I-0.4988 J0.339
G3 X5.0772 Y1.4982 I-0.5572 J0.2308
G3 X5.0901 Y1.6348 I-0.7164 J0.1366
G3 X5.0772 Y1.7715 I-0.7293 J0
G3 X5.0419 Y1.8893 I-0.5924 J-0.113
G3 X4.9835 Y1.9975 I-0.5572 J-0.2308
G3 X4.8961 Y2.1032 I-0.6032 J-0.4099
G3 X4.7903 Y2.1907 I-0.5157 J-0.5157
G3 X4.6821 Y2.2491 I-0.339 J-0.4988
G3 X4.5643 Y2.2843 I-0.2308 J-0.5572
G3 X4.4277 Y2.2972 I-0.1366 J-0.7164
G0 Z0.15
G0 X6.3326 Y1.5747
G1 Z-0.14 F30
G3 X6.3568 Y1.5724 I0.0242 J0.127 F60
G3 X6.373 Y1.5746 I0 J0.0624
G3 X6.388 Y1.5808 I-0.0162 J0.0603
G3 X6.4009 Y1.5907 I-0.0312 J0.054
G3 X6.4108 Y1.6036 I-0.0441 J0.0441
G3 X6.4171 Y1.6187 I-0.054 J0.0312
G3 X6.4192 Y1.6348 I-0.0603 J0.0162
G3 X6.4169 Y1.6591 I-0.1293 J0
G1 X6.4167 Y1.6597
G1 X6.4164 Y1.6602
G3 X6.4009 Y1.679 I-0.1069 J-0.0727
G3 X6.3822 Y1.6945 I-0.0914 J-0.0914
G1 X6.3816 Y1.6948
G1 X6.381 Y1.695
G3 X6.3568 Y1.6972 I-0.0242 J-0.127
G3 X6.3326 Y1.695 I0 J-0.1293
G1 X6.332 Y1.6948
G1 X6.3314 Y1.6945
G3 X6.3127 Y1.679 I0.0727 J-0.1069
G3 X6.2972 Y1.6602 I0.0914 J-0.0914
G1 X6.2969 Y1.6597
G1 X6.2967 Y1.6591
G3 X6.2944 Y1.6348 I0.127 J-0.0242
G3 X6.2967 Y1.6106 I0.1293 J0
G1 X6.2969 Y1.61
G1 X6.2972 Y1.6095
G3 X6.3127 Y1.5907 I0.1069 J0.0727
G3 X6.3314 Y1.5752 I0.0914 J0.0914
G1 X6.332 Y1.5749
G1 X6.3326 Y1.5747
G1 X6.3138 Y1.4765 F60
G3 X6.3568 Y1.4724 I0.043 J0.2252 F60
G3 X6.3988 Y1.478 I0 J0.1624
G3 X6.438 Y1.4942 I-0.042 J0.1569
G3 X6.4716 Y1.52 I-0.0812 J0.1406
G3 X6.4974 Y1.5536 I-0.1148 J0.1148
G3 X6.5137 Y1.5928 I-0.1406 J0.0812
G3 X6.5192 Y1.6348 I-0.1569 J0.042
G3 X6.5151 Y1.6778 I-0.2293 J0
G3 X6.5091 Y1.6979 I-0.1012 J-0.0193
G3 X6.4991 Y1.7164 I-0.0952 J-0.0394
G3 X6.4716 Y1.7497 I-0.1896 J-0.1289
G3 X6.4384 Y1.7772 I-0.1621 J-0.1621
G3 X6.4199 Y1.7872 I-0.0579 J-0.0852
G3 X6.3998 Y1.7932 I-0.0394 J-0.0952
G3 X6.3568 Y1.7972 I-0.043 J-0.2252
G3 X6.3138 Y1.7932 I0 J-0.2293
G3 X6.2937 Y1.7872 I0.0193 J-0.1012
G3 X6.2752 Y1.7772 I0.0394 J-0.0952
G3 X6.242 Y1.7497 I0.1289 J-0.1896
G3 X6.2145 Y1.7164 I0.1621 J-0.1621
G3 X6.2045 Y1.6979 I0.0852 J-0.0579
G3 X6.1985 Y1.6778 I0.0952 J-0.0394
G3 X6.1944 Y1.6348 I0.2252 J-0.043
G3 X6.1985 Y1.5919 I0.2293 J0
G3 X6.2045 Y1.5718 I0.1012 J0.0193
G3 X6.2145 Y1.5533 I0.0952 J0.0394
G3 X6.242 Y1.52 I0.1896 J0.1289
G3 X6.2752 Y1.4925 I0.1621 J0.1621
G3 X6.2937 Y1.4825 I0.0579 J0.0852
G3 X6.3138 Y1.4765 I0.0394 J0.0952
G1 X6.2951 Y1.3783 F60
G3 X6.3568 Y1.3724 I0.0617 J0.3235 F60
G3 X6.4247 Y1.3814 I0 J0.2624
G3 X6.488 Y1.4076 I-0.0679 J0.2535
G3 X6.5423 Y1.4493 I-0.1312 J0.2272
G3 X6.584 Y1.5036 I-0.1855 J0.1855
G3 X6.6103 Y1.5669 I-0.2272 J0.1312
G3 X6.6192 Y1.6348 I-0.2535 J0.0679
G3 X6.6134 Y1.6965 I-0.3293 J0
G3 X6.6015 Y1.7362 I-0.1995 J-0.038
G3 X6.5819 Y1.7726 I-0.1876 J-0.0777
G3 X6.5423 Y1.8204 I-0.2724 J-0.1851
G3 X6.4946 Y1.8599 I-0.2329 J-0.2329
G3 X6.4582 Y1.8796 I-0.1141 J-0.1679
G3 X6.4185 Y1.8914 I-0.0777 J-0.1876
G3 X6.3568 Y1.8972 I-0.0617 J-0.3235
G3 X6.2951 Y1.8914 I0 J-0.3293
G3 X6.2554 Y1.8796 I0.038 J-0.1995
G3 X6.219 Y1.8599 I0.0777 J-0.1876
G3 X6.1713 Y1.8204 I0.1851 J-0.2724
G3 X6.1318 Y1.7726 I0.2329 J-0.2329
G3 X6.1121 Y1.7362 I0.1679 J-0.1141
G3 X6.1002 Y1.6965 I0.1876 J-0.0777
G3 X6.0944 Y1.6348 I0.3235 J-0.0617
G3 X6.1002 Y1.5731 I0.3293 J0
G3 X6.1121 Y1.5335 I0.1995 J0.038
G3 X6.1318 Y1.497 I0.1876 J0.0777
G3 X6.1713 Y1.4493 I0.2724 J0.1851
G3 X6.219 Y1.4098 I0.2329 J0.2329
G3 X6.2554 Y1.3901 I0.1141 J0.1679
G3 X6.2951 Y1.3783 I0.0777 J0.1876
G1 X6.2764 Y1.28 F60
G3 X6.3568 Y1.2724 I0.0804 J0.4217 F60
G3 X6.4506 Y1.2848 I0 J0.3624
G3 X6.538 Y1.321 I-0.0938 J0.3501
G3 X6.6131 Y1.3786 I-0.1812 J0.3138
G3 X6.6707 Y1.4536 I-0.2563 J0.2563
G3 X6.7069 Y1.541 I-0.3138 J0.1812
G3 X6.7192 Y1.6348 I-0.3501 J0.0938
G3 X6.7116 Y1.7153 I-0.4293 J0
G3 X6.6939 Y1.7745 I-0.2977 J-0.0568
G3 X6.6646 Y1.8288 I-0.28 J-0.116
G3 X6.6131 Y1.8911 I-0.3551 J-0.2413
G3 X6.5508 Y1.9426 I-0.3036 J-0.3036
G3 X6.4964 Y1.9719 I-0.1704 J-0.2507
G3 X6.4372 Y1.9896 I-0.116 J-0.28
G3 X6.3568 Y1.9972 I-0.0804 J-0.4217
G3 X6.2764 Y1.9896 I0 J-0.4293
G3 X6.2172 Y1.9719 I0.0568 J-0.2977
G3 X6.1628 Y1.9426 I0.116 J-0.28
G3 X6.1005 Y1.8911 I0.2413 J-0.3551
G3 X6.049 Y1.8288 I0.3036 J-0.3036
G3 X6.0197 Y1.7745 I0.2507 J-0.1704
G3 X6.002 Y1.7153 I0.28 J-0.116
G3 X5.9944 Y1.6348 I0.4217 J-0.0804
G1 X5.9944 Y1.6348
G3 X6.002 Y1.5544 I0.4293 J0
G3 X6.0197 Y1.4952 I0.2977 J0.0568
G3 X6.049 Y1.4408 I0.28 J0.116
G3 X6.1005 Y1.3786 I0.3551 J0.2413
G3 X6.1628 Y1.3271 I0.3036 J0.3036
G3 X6.2172 Y1.2977 I0.1704 J0.2507
G3 X6.2764 Y1.28 I0.116 J0.28
G1 X6.2576 Y1.1818 F60
G3 X6.3568 Y1.1724 I0.0992 J0.5199 F60
G3 X6.4765 Y1.1882 I0 J0.4624
G3 X6.588 Y1.2344 I-0.1197 J0.4466
G3 X6.6838 Y1.3079 I-0.2312 J0.4005
G3 X6.7573 Y1.4036 I-0.327 J0.327
G3 X6.8034 Y1.5152 I-0.4005 J0.2312
G3 X6.8192 Y1.6348 I-0.4466 J0.1197
G3 X6.8098 Y1.734 I-0.5293 J0
G3 X6.7863 Y1.8127 I-0.3959 J-0.0755
G3 X6.7473 Y1.8851 I-0.3724 J-0.1542
G3 X6.6838 Y1.9618 I-0.4378 J-0.2975
G3 X6.607 Y2.0253 I-0.3743 J-0.3743
G3 X6.5347 Y2.0643 I-0.2266 J-0.3334
G3 X6.456 Y2.0879 I-0.1542 J-0.3724
G3 X6.3568 Y2.0972 I-0.0992 J-0.5199
G3 X6.2576 Y2.0879 I0 J-0.5293
G3 X6.1789 Y2.0643 I0.0755 J-0.3959
G3 X6.1066 Y2.0253 I0.1542 J-0.3724
G3 X6.0298 Y1.9618 I0.2975 J-0.4378
G3 X5.9663 Y1.8851 I0.3743 J-0.3743
G3 X5.9273 Y1.8127 I0.3334 J-0.2266
G3 X5.9038 Y1.734 I0.3724 J-0.1542
G3 X5.8944 Y1.6348 I0.5199 J-0.0992
G1 X5.8944 Y1.6348
G3 X5.9038 Y1.5357 I0.5293 J0
G3 X5.9273 Y1.4569 I0.3959 J0.0755
G3 X5.9663 Y1.3846 I0.3724 J0.1542
G3 X6.0298 Y1.3079 I0.4378 J0.2975
G3 X6.1066 Y1.2444 I0.3743 J0.3743
G3 X6.1789 Y1.2054 I0.2266 J0.3334
G3 X6.2576 Y1.1818 I0.1542 J0.3724
G1 X6.2389 Y1.0836 F60
G3 X6.3568 Y1.0724 I0.1179 J0.6182 F60
G3 X6.5024 Y1.0916 I0 J0.5624
G3 X6.638 Y1.1478 I-0.1456 J0.5432
G3 X6.7545 Y1.2372 I-0.2812 J0.4871
G3 X6.8439 Y1.3536 I-0.3977 J0.3977
G3 X6.9 Y1.4893 I-0.4871 J0.2812
G3 X6.9192 Y1.6348 I-0.5432 J0.1456
G3 X6.9081 Y1.7528 I-0.6293 J0
G3 X6.8787 Y1.851 I-0.4942 J-0.0943
G3 X6.83 Y1.9413 I-0.4648 J-0.1925
G3 X6.7545 Y2.0325 I-0.5205 J-0.3537
G3 X6.6632 Y2.108 I-0.445 J-0.445
G3 X6.573 Y2.1567 I-0.2828 J-0.4161
G3 X6.4747 Y2.1861 I-0.1925 J-0.4648
G3 X6.3568 Y2.1972 I-0.1179 J-0.6182
G3 X6.2389 Y2.1861 I0 J-0.6293
G3 X6.1406 Y2.1567 I0.0943 J-0.4942
G3 X6.0504 Y2.108 I0.1925 J-0.4648
G3 X5.9591 Y2.0325 I0.3537 J-0.5205
G3 X5.8836 Y1.9413 I0.445 J-0.445
G3 X5.8349 Y1.851 I0.4161 J-0.2828
G3 X5.8055 Y1.7528 I0.4648 J-0.1925
G3 X5.7944 Y1.6348 I0.6182 J-0.1179
G1 X5.7944 Y1.6348
G3 X5.8055 Y1.5169 I0.6293 J0
G3 X5.8349 Y1.4187 I0.4942 J0.0943
G3 X5.8836 Y1.3284 I0.4648 J0.1925
G3 X5.9591 Y1.2372 I0.5205 J0.3537
G3 X6.0504 Y1.1617 I0.445 J0.445
G3 X6.1406 Y1.113 I0.2828 J0.4161
G3 X6.2389 Y1.0836 I0.1925 J0.4648
G1 X6.2202 Y0.9854 F60
G3 X6.3568 Y0.9724 I0.1366 J0.7164 F60
G3 X6.5282 Y0.995 I0 J0.6624
G3 X6.688 Y1.0612 I-0.1714 J0.6398
G3 X6.8252 Y1.1665 I-0.3312 J0.5737
G3 X6.9305 Y1.3036 I-0.4684 J0.4684
G3 X6.9966 Y1.4634 I-0.5737 J0.3312
G3 X7.0192 Y1.6348 I-0.6398 J0.1714
G3 X7.0063 Y1.7715 I-0.7293 J0
G3 X6.9711 Y1.8893 I-0.5924 J-0.113
G3 X6.9127 Y1.9975 I-0.5572 J-0.2308
G3 X6.8252 Y2.1032 I-0.6032 J-0.4099
G3 X6.7194 Y2.1907 I-0.5157 J-0.5157
G3 X6.6112 Y2.2491 I-0.339 J-0.4988
G3 X6.4934 Y2.2843 I-0.2308 J-0.5572
G3 X6.3568 Y2.2972 I-0.1366 J-0.7164
G3 X6.2202 Y2.2843 I0 J-0.7293
G3 X6.1024 Y2.2491 I0.113 J-0.5924
G3 X5.9942 Y2.1907 I0.2308 J-0.5572
G3 X5.8884 Y2.1032 I0.4099 J-0.6032
G3 X5.8009 Y1.9975 I0.5157 J-0.5157
G3 X5.7425 Y1.8893 I0.4988 J-0.339
G3 X5.7073 Y1.7715 I0.5572 J-0.2308
G3 X5.6944 Y1.6348 I0.7164 J-0.1366
G1 X5.6944 Y1.6348
G3 X5.7073 Y1.4982 I0.7293 J0
G3 X5.7425 Y1.3804 I0.5924 J0.113
G3 X5.8009 Y1.2722 I0.5572 J0.2308
G3 X5.8884 Y1.1665 I0.6032 J0.4099
G3 X5.9942 Y1.079 I0.5157 J0.5157
G3 X6.1024 Y1.0206 I0.339 J0.4988
G3 X6.2202 Y0.9854 I0.2308 J0.5572
G0 Z0.15
G0 X1.85 Y1.6106
G1 Z-0.14 F30
G3 X1.8523 Y1.6348 I-0.127 J0.0242 F60
G3 X1.85 Y1.6591 I-0.1293 J0
G1 X1.8498 Y1.6597
G1 X1.8495 Y1.6602
G3 X1.834 Y1.679 I-0.1069 J-0.0727
G3 X1.8152 Y1.6945 I-0.0914 J-0.0914
G1 X1.8147 Y1.6948
G1 X1.8141 Y1.695
G3 X1.7899 Y1.6972 I-0.0242 J-0.127
G3 X1.7656 Y1.695 I0 J-0.1293
G1 X1.765 Y1.6948
G1 X1.7645 Y1.6945
G3 X1.7457 Y1.679 I0.0727 J-0.1069
G3 X1.7302 Y1.6602 I0.0914 J-0.0914
G1 X1.7299 Y1.6597
G1 X1.7298 Y1.6591
G3 X1.7275 Y1.6348 I0.127 J-0.0242
G3 X1.7296 Y1.6187 I0.0624 J0
G3 X1.7358 Y1.6036 I0.0603 J0.0162
G3 X1.7457 Y1.5907 I0.054 J0.0312
G3 X1.7587 Y1.5808 I0.0441 J0.0441
G3 X1.7737 Y1.5746 I0.0312 J0.054
G3 X1.7899 Y1.5724 I0.0162 J0.0603
G3 X1.8141 Y1.5747 I0 J0.1293
G1 X1.8147 Y1.5749
G1 X1.8152 Y1.5752
G3 X1.834 Y1.5907 I-0.0727 J0.1069
G3 X1.8495 Y1.6095 I-0.0914 J0.0914
G1 X1.8498 Y1.61
G1 X1.85 Y1.6106
G1 X1.9482 Y1.5919 F60
G3 X1.9523 Y1.6348 I-0.2252 J0.043 F60
G3 X1.9482 Y1.6778 I-0.2293 J0
G3 X1.9422 Y1.6979 I-0.1012 J-0.0193
G3 X1.9322 Y1.7164 I-0.0952 J-0.0394
G3 X1.9047 Y1.7497 I-0.1896 J-0.1289
G3 X1.8715 Y1.7772 I-0.1621 J-0.1621
G3 X1.853 Y1.7872 I-0.0579 J-0.0852
G3 X1.8328 Y1.7932 I-0.0394 J-0.0952
G3 X1.7899 Y1.7972 I-0.043 J-0.2252
G3 X1.7469 Y1.7932 I0 J-0.2293
G3 X1.7268 Y1.7872 I0.0193 J-0.1012
G3 X1.7083 Y1.7772 I0.0394 J-0.0952
G3 X1.675 Y1.7497 I0.1289 J-0.1896
G3 X1.6475 Y1.7164 I0.1621 J-0.1621
G3 X1.6376 Y1.6979 I0.0852 J-0.0579
G3 X1.6315 Y1.6778 I0.0952 J-0.0394
G3 X1.6275 Y1.6348 I0.2252 J-0.043
G3 X1.633 Y1.5928 I0.1624 J0
G3 X1.6492 Y1.5536 I0.1569 J0.042
G3 X1.675 Y1.52 I0.1406 J0.0812
G3 X1.7087 Y1.4942 I0.1148 J0.1148
G3 X1.7478 Y1.478 I0.0812 J0.1406
G3 X1.7899 Y1.4724 I0.042 J0.1569
G3 X1.8328 Y1.4765 I0 J0.2293
G3 X1.853 Y1.4825 I-0.0193 J0.1012
G3 X1.8715 Y1.4925 I-0.0394 J0.0952
G3 X1.9047 Y1.52 I-0.1289 J0.1896
G3 X1.9322 Y1.5533 I-0.1621 J0.1621
G3 X1.9422 Y1.5718 I-0.0852 J0.0579
G3 X1.9482 Y1.5919 I-0.0952 J0.0394
G1 X2.0464 Y1.5731 F60
G3 X2.0523 Y1.6348 I-0.3235 J0.0617 F60
G3 X2.0464 Y1.6965 I-0.3293 J0
G3 X2.0346 Y1.7362 I-0.1995 J-0.038
G3 X2.0149 Y1.7726 I-0.1876 J-0.0777
G3 X1.9754 Y1.8204 I-0.2724 J-0.1851
G3 X1.9277 Y1.8599 I-0.2329 J-0.2329
G3 X1.8912 Y1.8796 I-0.1141 J-0.1679
G3 X1.8516 Y1.8914 I-0.0777 J-0.1876
G3 X1.7899 Y1.8972 I-0.0617 J-0.3235
G3 X1.7282 Y1.8914 I0 J-0.3293
G3 X1.6885 Y1.8796 I0.038 J-0.1995
G3 X1.6521 Y1.8599 I0.0777 J-0.1876
G3 X1.6043 Y1.8204 I0.1851 J-0.2724
G3 X1.5648 Y1.7726 I0.2329 J-0.2329
G3 X1.5452 Y1.7362 I0.1679 J-0.1141
G3 X1.5333 Y1.6965 I0.1876 J-0.0777
G3 X1.5275 Y1.6348 I0.3235 J-0.0617
G1 X1.5275 Y1.6348
G3 X1.5364 Y1.5669 I0.2624 J0
G3 X1.5626 Y1.5036 I0.2535 J0.0679
G3 X1.6043 Y1.4493 I0.2272 J0.1312
G3 X1.6587 Y1.4076 I0.1855 J0.1855
G3 X1.722 Y1.3814 I0.1312 J0.2272
G3 X1.7899 Y1.3724 I0.0679 J0.2535
G3 X1.8516 Y1.3783 I0 J0.3293
G3 X1.8912 Y1.3901 I-0.038 J0.1995
G3 X1.9277 Y1.4098 I-0.0777 J0.1876
G3 X1.9754 Y1.4493 I-0.1851 J0.2724
G3 X2.0149 Y1.497 I-0.2329 J0.2329
G3 X2.0346 Y1.5335 I-0.1679 J0.1141
G3 X2.0464 Y1.5731 I-0.1876 J0.0777
G1 X2.1447 Y1.5544 F60
G3 X2.1523 Y1.6348 I-0.4217 J0.0804 F60
G1 X2.1523 Y1.6348
G3 X2.1447 Y1.7153 I-0.4293 J0
G3 X2.127 Y1.7745 I-0.2977 J-0.0568
G3 X2.0976 Y1.8288 I-0.28 J-0.116
G3 X2.0461 Y1.8911 I-0.3551 J-0.2413
G3 X1.9839 Y1.9426 I-0.3036 J-0.3036
G3 X1.9295 Y1.9719 I-0.1704 J-0.2507
G3 X1.8703 Y1.9896 I-0.116 J-0.28
G3 X1.7899 Y1.9972 I-0.0804 J-0.4217
G3 X1.7094 Y1.9896 I0 J-0.4293
G3 X1.6502 Y1.9719 I0.0568 J-0.2977
G3 X1.5959 Y1.9426 I0.116 J-0.28
G3 X1.5336 Y1.8911 I0.2413 J-0.3551
G3 X1.4821 Y1.8288 I0.3036 J-0.3036
G3 X1.4528 Y1.7745 I0.2507 J-0.1704
G3 X1.4351 Y1.7153 I0.28 J-0.116
G3 X1.4275 Y1.6348 I0.4217 J-0.0804
G1 X1.4275 Y1.6348
G3 X1.4398 Y1.541 I0.3624 J0
G3 X1.476 Y1.4536 I0.3501 J0.0938
G3 X1.5336 Y1.3786 I0.3138 J0.1812
G3 X1.6087 Y1.321 I0.2563 J0.2563
G3 X1.6961 Y1.2848 I0.1812 J0.3138
G3 X1.7899 Y1.2724 I0.0938 J0.3501
G3 X1.8703 Y1.28 I0 J0.4293
G3 X1.9295 Y1.2977 I-0.0568 J0.2977
G3 X1.9839 Y1.3271 I-0.116 J0.28
G3 X2.0461 Y1.3786 I-0.2413 J0.3551
G3 X2.0976 Y1.4408 I-0.3036 J0.3036
G3 X2.127 Y1.4952 I-0.2507 J0.1704
G3 X2.1447 Y1.5544 I-0.28 J0.116
G1 X2.2429 Y1.5357 F60
G3 X2.2523 Y1.6348 I-0.5199 J0.0992 F60
G1 X2.2523 Y1.6348
G3 X2.2429 Y1.734 I-0.5293 J0
G3 X2.2194 Y1.8127 I-0.3959 J-0.0755
G3 X2.1803 Y1.8851 I-0.3724 J-0.1542
G3 X2.1168 Y1.9618 I-0.4378 J-0.2975
G3 X2.0401 Y2.0253 I-0.3743 J-0.3743
G3 X1.9678 Y2.0643 I-0.2266 J-0.3334
G3 X1.889 Y2.0879 I-0.1542 J-0.3724
G3 X1.7899 Y2.0972 I-0.0992 J-0.5199
G3 X1.6907 Y2.0879 I0 J-0.5293
G3 X1.612 Y2.0643 I0.0755 J-0.3959
G3 X1.5397 Y2.0253 I0.1542 J-0.3724
G3 X1.4629 Y1.9618 I0.2975 J-0.4378
G3 X1.3994 Y1.8851 I0.3743 J-0.3743
G3 X1.3604 Y1.8127 I0.3334 J-0.2266
G3 X1.3368 Y1.734 I0.3724 J-0.1542
G3 X1.3275 Y1.6348 I0.5199 J-0.0992
G1 X1.3275 Y1.6348
G3 X1.3432 Y1.5152 I0.4624 J0
G3 X1.3894 Y1.4036 I0.4466 J0.1197
G3 X1.4629 Y1.3079 I0.4005 J0.2312
G3 X1.5587 Y1.2344 I0.327 J0.327
G3 X1.6702 Y1.1882 I0.2312 J0.4005
G3 X1.7899 Y1.1724 I0.1197 J0.4466
G3 X1.889 Y1.1818 I0 J0.5293
G3 X1.9678 Y1.2054 I-0.0755 J0.3959
G3 X2.0401 Y1.2444 I-0.1542 J0.3724
G3 X2.1168 Y1.3079 I-0.2975 J0.4378
G3 X2.1803 Y1.3846 I-0.3743 J0.3743
G3 X2.2194 Y1.4569 I-0.3334 J0.2266
G3 X2.2429 Y1.5357 I-0.3724 J0.1542
G1 X2.3411 Y1.5169 F60
G3 X2.3523 Y1.6348 I-0.6182 J0.1179 F60
G1 X2.3523 Y1.6348
G3 X2.3411 Y1.7528 I-0.6293 J0
G3 X2.3117 Y1.851 I-0.4942 J-0.0943
G3 X2.263 Y1.9413 I-0.4648 J-0.1925
G3 X2.1876 Y2.0325 I-0.5205 J-0.3537
G3 X2.0963 Y2.108 I-0.445 J-0.445
G3 X2.006 Y2.1567 I-0.2828 J-0.4161
G3 X1.9078 Y2.1861 I-0.1925 J-0.4648
G3 X1.7899 Y2.1972 I-0.1179 J-0.6182
G3 X1.672 Y2.1861 I0 J-0.6293
G3 X1.5737 Y2.1567 I0.0943 J-0.4942
G3 X1.4835 Y2.108 I0.1925 J-0.4648
G3 X1.3922 Y2.0325 I0.3537 J-0.5205
G3 X1.3167 Y1.9413 I0.445 J-0.445
G3 X1.268 Y1.851 I0.4161 J-0.2828
G3 X1.2386 Y1.7528 I0.4648 J-0.1925
G3 X1.2275 Y1.6348 I0.6182 J-0.1179
G1 X1.2275 Y1.6348
G3 X1.2466 Y1.4893 I0.5624 J0
G3 X1.3028 Y1.3536 I0.5432 J0.1456
G3 X1.3922 Y1.2372 I0.4871 J0.2812
G3 X1.5087 Y1.1478 I0.3977 J0.3977
G3 X1.6443 Y1.0916 I0.2812 J0.4871
G3 X1.7899 Y1.0724 I0.1456 J0.5432
G3 X1.9078 Y1.0836 I0 J0.6293
G3 X2.006 Y1.113 I-0.0943 J0.4942
G3 X2.0963 Y1.1617 I-0.1925 J0.4648
G3 X2.1876 Y1.2372 I-0.3537 J0.5205
G3 X2.263 Y1.3284 I-0.445 J0.445
G3 X2.3117 Y1.4187 I-0.4161 J0.2828
G3 X2.3411 Y1.5169 I-0.4648 J0.1925
G1 X2.4394 Y1.4982 F60
G3 X2.4523 Y1.6348 I-0.7164 J0.1366 F60
G1 X2.4523 Y1.6348
G3 X2.4394 Y1.7715 I-0.7293 J0
G3 X2.4041 Y1.8893 I-0.5924 J-0.113
G3 X2.3458 Y1.9975 I-0.5572 J-0.2308
G3 X2.2583 Y2.1032 I-0.6032 J-0.4099
G3 X2.1525 Y2.1907 I-0.5157 J-0.5157
G3 X2.0443 Y2.2491 I-0.339 J-0.4988
G3 X1.9265 Y2.2843 I-0.2308 J-0.5572
G3 X1.7899 Y2.2972 I-0.1366 J-0.7164
G3 X1.6532 Y2.2843 I0 J-0.7293
G3 X1.5354 Y2.2491 I0.113 J-0.5924
G3 X1.4272 Y2.1907 I0.2308 J-0.5572
G3 X1.3215 Y2.1032 I0.4099 J-0.6032
G3 X1.234 Y1.9975 I0.5157 J-0.5157
G3 X1.1756 Y1.8893 I0.4988 J-0.339
G3 X1.1404 Y1.7715 I0.5572 J-0.2308
G3 X1.1275 Y1.6348 I0.7164 J-0.1366
G1 X1.1275 Y1.6348
G3 X1.15 Y1.4634 I0.6624 J0
G3 X1.2162 Y1.3036 I0.6398 J0.1714
G3 X1.3215 Y1.1665 I0.5737 J0.3312
G3 X1.4587 Y1.0612 I0.4684 J0.4684
G3 X1.6184 Y0.995 I0.3312 J0.5737
G3 X1.7899 Y0.9724 I0.1714 J0.6398
G3 X1.9265 Y0.9854 I0 J0.7293
G3 X2.0443 Y1.0206 I-0.113 J0.5924
G3 X2.1525 Y1.079 I-0.2308 J0.5572
G3 X2.2583 Y1.1665 I-0.4099 J0.6032
G3 X2.3458 Y1.2722 I-0.5157 J0.5157
G3 X2.4041 Y1.3804 I-0.4988 J0.339
G3 X2.4394 Y1.4982 I-0.5572 J0.2308
G0 Z0.15
G0 X6.2967 Y6.7772
G1 Z-0.14 F30
G3 X6.2944 Y6.753 I0.127 J-0.0242 F60
G3 X6.2967 Y6.7287 I0.1293 J0
G1 X6.2969 Y6.7281
G1 X6.2972 Y6.7276
G3 X6.3127 Y6.7088 I0.1069 J0.0727
G3 X6.3314 Y6.6933 I0.0914 J0.0914
G1 X6.332 Y6.693
G1 X6.3326 Y6.6928
G3 X6.3568 Y6.6906 I0.0242 J0.127
G3 X6.381 Y6.6928 I0 J0.1293
G1 X6.3816 Y6.693
G1 X6.3822 Y6.6933
G3 X6.4009 Y6.7088 I-0.0727 J0.1069
G3 X6.4164 Y6.7276 I-0.0914 J0.0914
G1 X6.4167 Y6.7281
G1 X6.4169 Y6.7287
G3 X6.4192 Y6.753 I-0.127 J0.0242
G3 X6.4171 Y6.7691 I-0.0624 J0
G3 X6.4108 Y6.7842 I-0.0603 J-0.0162
G3 X6.4009 Y6.7971 I-0.054 J-0.0312
G3 X6.388 Y6.807 I-0.0441 J-0.0441
G3 X6.373 Y6.8132 I-0.0312 J-0.054
G3 X6.3568 Y6.8154 I-0.0162 J-0.0603
G3 X6.3326 Y6.8131 I0 J-0.1293
G1 X6.332 Y6.8129
G1 X6.3314 Y6.8126
G3 X6.3127 Y6.7971 I0.0727 J-0.1069
G3 X6.2972 Y6.7783 I0.0914 J-0.0914
G1 X6.2969 Y6.7778
G1 X6.2967 Y6.7772
G1 X6.1985 Y6.7959 F60
G3 X6.1944 Y6.753 I0.2252 J-0.043 F60
G3 X6.1985 Y6.71 I0.2293 J0
G3 X6.2045 Y6.6899 I0.1012 J0.0193
G3 X6.2145 Y6.6714 I0.0952 J0.0394
G3 X6.242 Y6.6381 I0.1896 J0.1289
G3 X6.2752 Y6.6106 I0.1621 J0.1621
G3 X6.2937 Y6.6006 I0.0579 J0.0852
G3 X6.3138 Y6.5946 I0.0394 J0.0952
G3 X6.3568 Y6.5906 I0.043 J0.2252
G3 X6.3998 Y6.5946 I0 J0.2293
G3 X6.4199 Y6.6006 I-0.0193 J0.1012
G3 X6.4384 Y6.6106 I-0.0394 J0.0952
G3 X6.4716 Y6.6381 I-0.1289 J0.1896
G3 X6.4991 Y6.6714 I-0.1621 J0.1621
G3 X6.5091 Y6.6899 I-0.0852 J0.0579
G3 X6.5151 Y6.71 I-0.0952 J0.0394
G3 X6.5192 Y6.753 I-0.2252 J0.043
G3 X6.5137 Y6.795 I-0.1624 J0
G3 X6.4974 Y6.8342 I-0.1569 J-0.042
G3 X6.4716 Y6.8678 I-0.1406 J-0.0812
G3 X6.438 Y6.8936 I-0.1148 J-0.1148
G3 X6.3988 Y6.9098 I-0.0812 J-0.1406
G3 X6.3568 Y6.9154 I-0.042 J-0.1569
G3 X6.3138 Y6.9113 I0 J-0.2293
G3 X6.2937 Y6.9053 I0.0193 J-0.1012
G3 X6.2752 Y6.8953 I0.0394 J-0.0952
G3 X6.242 Y6.8678 I0.1289 J-0.1896
G3 X6.2145 Y6.8345 I0.1621 J-0.1621
G3 X6.2045 Y6.816 I0.0852 J-0.0579
G3 X6.1985 Y6.7959 I0.0952 J-0.0394
G1 X6.1002 Y6.8147 F60
G3 X6.0944 Y6.753 I0.3235 J-0.0617 F60
G3 X6.1002 Y6.6913 I0.3293 J0
G3 X6.1121 Y6.6516 I0.1995 J0.038
G3 X6.1318 Y6.6152 I0.1876 J0.0777
G3 X6.1713 Y6.5674 I0.2724 J0.1851
G3 X6.219 Y6.5279 I0.2329 J0.2329
G3 X6.2554 Y6.5082 I0.1141 J0.1679
G3 X6.2951 Y6.4964 I0.0777 J0.1876
G3 X6.3568 Y6.4906 I0.0617 J0.3235
G3 X6.4185 Y6.4964 I0 J0.3293
G3 X6.4582 Y6.5082 I-0.038 J0.1995
G3 X6.4946 Y6.5279 I-0.0777 J0.1876
G3 X6.5423 Y6.5674 I-0.1851 J0.2724
G3 X6.5819 Y6.6152 I-0.2329 J0.2329
G3 X6.6015 Y6.6516 I-0.1679 J0.1141
G3 X6.6134 Y6.6913 I-0.1876 J0.0777
G3 X6.6192 Y6.753 I-0.3235 J0.0617
G3 X6.6103 Y6.8209 I-0.2624 J0
G3 X6.584 Y6.8842 I-0.2535 J-0.0679
G3 X6.5423 Y6.9385 I-0.2272 J-0.1312
G3 X6.488 Y6.9802 I-0.1855 J-0.1855
G3 X6.4247 Y7.0064 I-0.1312 J-0.2272
G3 X6.3568 Y7.0154 I-0.0679 J-0.2535
G3 X6.2951 Y7.0095 I0 J-0.3293
G3 X6.2554 Y6.9977 I0.038 J-0.1995
G3 X6.219 Y6.978 I0.0777 J-0.1876
G3 X6.1713 Y6.9385 I0.1851 J-0.2724
G3 X6.1318 Y6.8907 I0.2329 J-0.2329
G3 X6.1121 Y6.8543 I0.1679 J-0.1141
G3 X6.1002 Y6.8147 I0.1876 J-0.0777
G1 X6.002 Y6.8334 F60
G3 X5.9944 Y6.753 I0.4217 J-0.0804 F60
G3 X6.002 Y6.6725 I0.4293 J0
G3 X6.0197 Y6.6133 I0.2977 J0.0568
G3 X6.049 Y6.559 I0.28 J0.116
G3 X6.1005 Y6.4967 I0.3551 J0.2413
G3 X6.1628 Y6.4452 I0.3036 J0.3036
G3 X6.2172 Y6.4159 I0.1704 J0.2507
G3 X6.2764 Y6.3982 I0.116 J0.28
G3 X6.3568 Y6.3906 I0.0804 J0.4217
G3 X6.4372 Y6.3982 I0 J0.4293
G3 X6.4964 Y6.4159 I-0.0568 J0.2977
G3 X6.5508 Y6.4452 I-0.116 J0.28
G3 X6.6131 Y6.4967 I-0.2413 J0.3551
G3 X6.6646 Y6.559 I-0.3036 J0.3036
G3 X6.6939 Y6.6133 I-0.2507 J0.1704
G3 X6.7116 Y6.6725 I-0.28 J0.116
G3 X6.7192 Y6.753 I-0.4217 J0.0804
G3 X6.7069 Y6.8468 I-0.3624 J0
G3 X6.6707 Y6.9342 I-0.3501 J-0.0938
G3 X6.6131 Y7.0092 I-0.3138 J-0.1812
G3 X6.538 Y7.0668 I-0.2563 J-0.2563
G3 X6.4506 Y7.103 I-0.1812 J-0.3138
G3 X6.3568 Y7.1154 I-0.0938 J-0.3501
G3 X6.2764 Y7.1078 I0 J-0.4293
G3 X6.2172 Y7.0901 I0.0568 J-0.2977
G3 X6.1628 Y7.0607 I0.116 J-0.28
G3 X6.1005 Y7.0092 I0.2413 J-0.3551
G3 X6.049 Y6.947 I0.3036 J-0.3036
G3 X6.0197 Y6.8926 I0.2507 J-0.1704
G3 X6.002 Y6.8334 I0.28 J-0.116
G1 X5.9038 Y6.8521 F60
G3 X5.8944 Y6.753 I0.5199 J-0.0992 F60
G3 X5.9038 Y6.6538 I0.5293 J0
G3 X5.9273 Y6.5751 I0.3959 J0.0755
G3 X5.9663 Y6.5027 I0.3724 J0.1542
G3 X6.0298 Y6.426 I0.4378 J0.2975
G3 X6.1066 Y6.3625 I0.3743 J0.3743
G3 X6.1789 Y6.3235 I0.2266 J0.3334
G3 X6.2576 Y6.2999 I0.1542 J0.3724
G3 X6.3568 Y6.2906 I0.0992 J0.5199
G3 X6.456 Y6.2999 I0 J0.5293
G3 X6.5347 Y6.3235 I-0.0755 J0.3959
G3 X6.607 Y6.3625 I-0.1542 J0.3724
G3 X6.6838 Y6.426 I-0.2975 J0.4378
G3 X6.7473 Y6.5027 I-0.3743 J0.3743
G3 X6.7863 Y6.5751 I-0.3334 J0.2266
G3 X6.8098 Y6.6538 I-0.3724 J0.1542
G3 X6.8192 Y6.753 I-0.5199 J0.0992
G3 X6.8034 Y6.8726 I-0.4624 J0
G3 X6.7573 Y6.9842 I-0.4466 J-0.1197
G3 X6.6838 Y7.0799 I-0.4005 J-0.2312
G3 X6.588 Y7.1534 I-0.327 J-0.327
G3 X6.4765 Y7.1996 I-0.2312 J-0.4005
G3 X6.3568 Y7.2154 I-0.1197 J-0.4466
G3 X6.2576 Y7.206 I0 J-0.5293
G3 X6.1789 Y7.1824 I0.0755 J-0.3959
G3 X6.1066 Y7.1434 I0.1542 J-0.3724
G3 X6.0298 Y7.0799 I0.2975 J-0.4378
G3 X5.9663 Y7.0032 I0.3743 J-0.3743
G3 X5.9273 Y6.9309 I0.3334 J-0.2266
G3 X5.9038 Y6.8521 I0.3724 J-0.1542
G1 X5.8055 Y6.8709 F60
G3 X5.7944 Y6.753 I0.6182 J-0.1179 F60
G3 X5.8055 Y6.635 I0.6293 J0
G3 X5.8349 Y6.5368 I0.4942 J0.0943
G3 X5.8836 Y6.4465 I0.4648 J0.1925
G3 X5.9591 Y6.3553 I0.5205 J0.3537
G3 X6.0504 Y6.2798 I0.445 J0.445
G3 X6.1406 Y6.2311 I0.2828 J0.4161
G3 X6.2389 Y6.2017 I0.1925 J0.4648
G3 X6.3568 Y6.1906 I0.1179 J0.6182
G3 X6.4747 Y6.2017 I0 J0.6293
G3 X6.573 Y6.2311 I-0.0943 J0.4942
G3 X6.6632 Y6.2798 I-0.1925 J0.4648
G3 X6.7545 Y6.3553 I-0.3537 J0.5205
G3 X6.83 Y6.4465 I-0.445 J0.445
G3 X6.8787 Y6.5368 I-0.4161 J0.2828
G3 X6.9081 Y6.635 I-0.4648 J0.1925
G3 X6.9192 Y6.753 I-0.6182 J0.1179
G3 X6.9 Y6.8985 I-0.5624 J0
G3 X6.8439 Y7.0342 I-0.5432 J-0.1456
G3 X6.7545 Y7.1506 I-0.4871 J-0.2812
G3 X6.638 Y7.24 I-0.3977 J-0.3977
G3 X6.5024 Y7.2962 I-0.2812 J-0.4871
G3 X6.3568 Y7.3154 I-0.1456 J-0.5432
G3 X6.2389 Y7.3042 I0 J-0.6293
G3 X6.1406 Y7.2748 I0.0943 J-0.4942
G3 X6.0504 Y7.2261 I0.1925 J-0.4648
G3 X5.9591 Y7.1506 I0.3537 J-0.5205
G3 X5.8836 Y7.0594 I0.445 J-0.445
G3 X5.8349 Y6.9691 I0.4161 J-0.2828
G3 X5.8055 Y6.8709 I0.4648 J-0.1925
G1 X5.7073 Y6.8896 F60
G3 X5.6944 Y6.753 I0.7164 J-0.1366 F60
G3 X5.7073 Y6.6163 I0.7293 J0
G3 X5.7425 Y6.4985 I0.5924 J0.113
G3 X5.8009 Y6.3903 I0.5572 J0.2308
G3 X5.8884 Y6.2846 I0.6032 J0.4099
G3 X5.9942 Y6.1971 I0.5157 J0.5157
G3 X6.1024 Y6.1387 I0.339 J0.4988
G3 X6.2202 Y6.1035 I0.2308 J0.5572
G3 X6.3568 Y6.0906 I0.1366 J0.7164
G3 X6.4934 Y6.1035 I0 J0.7293
G3 X6.6112 Y6.1387 I-0.113 J0.5924
G3 X6.7194 Y6.1971 I-0.2308 J0.5572
G3 X6.8252 Y6.2846 I-0.4099 J0.6032
G3 X6.9127 Y6.3903 I-0.5157 J0.5157
G3 X6.9711 Y6.4985 I-0.4988 J0.339
G3 X7.0063 Y6.6163 I-0.5572 J0.2308
G3 X7.0192 Y6.753 I-0.7164 J0.1366
G3 X6.9966 Y6.9244 I-0.6624 J0
G3 X6.9305 Y7.0842 I-0.6398 J-0.1714
G3 X6.8252 Y7.2213 I-0.5737 J-0.3312
G3 X6.688 Y7.3266 I-0.4684 J-0.4684
G3 X6.5282 Y7.3928 I-0.3312 J-0.5737
G3 X6.3568 Y7.4154 I-0.1714 J-0.6398
G3 X6.2202 Y7.4024 I0 J-0.7293
G3 X6.1024 Y7.3672 I0.113 J-0.5924
G3 X5.9942 Y7.3088 I0.2308 J-0.5572
G3 X5.8884 Y7.2213 I0.4099 J-0.6032
G3 X5.8009 Y7.1156 I0.5157 J-0.5157
G3 X5.7425 Y7.0074 I0.4988 J-0.339
G3 X5.7073 Y6.8896 I0.5572 J-0.2308
G0 Z0.15
G0 X1.8523 Y6.753
G1 Z-0.14 F30
G3 X1.85 Y6.7772 I-0.1293 J0 F60
G1 X1.8498 Y6.7778
G1 X1.8495 Y6.7783
G3 X1.834 Y6.7971 I-0.1069 J-0.0727
G3 X1.8152 Y6.8126 I-0.0914 J-0.0914
G1 X1.8147 Y6.8129
G1 X1.8141 Y6.8131
G3 X1.7899 Y6.8154 I-0.0242 J-0.127
G3 X1.7737 Y6.8132 I0 J-0.0624
G3 X1.7587 Y6.807 I0.0162 J-0.0603
G3 X1.7457 Y6.7971 I0.0312 J-0.054
G3 X1.7358 Y6.7842 I0.0441 J-0.0441
G3 X1.7296 Y6.7691 I0.054 J-0.0312
G3 X1.7275 Y6.753 I0.0603 J-0.0162
G3 X1.7298 Y6.7287 I0.1293 J0
G1 X1.7299 Y6.7281
G1 X1.7302 Y6.7276
G3 X1.7457 Y6.7088 I0.1069 J0.0727
G3 X1.7645 Y6.6933 I0.0914 J0.0914
G1 X1.765 Y6.693
G1 X1.7656 Y6.6928
G3 X1.7899 Y6.6906 I0.0242 J0.127
G3 X1.8141 Y6.6928 I0 J0.1293
G1 X1.8147 Y6.693
G1 X1.8152 Y6.6933
G3 X1.834 Y6.7088 I-0.0727 J0.1069
G3 X1.8495 Y6.7276 I-0.0914 J0.0914
G1 X1.8498 Y6.7281
G1 X1.85 Y6.7287
G3 X1.8523 Y6.753 I-0.127 J0.0242
G1 X1.9523 Y6.753 F60
G3 X1.9482 Y6.7959 I-0.2293 J0 F60
G3 X1.9422 Y6.816 I-0.1012 J-0.0193
G3 X1.9322 Y6.8345 I-0.0952 J-0.0394
G3 X1.9047 Y6.8678 I-0.1896 J-0.1289
G3 X1.8715 Y6.8953 I-0.1621 J-0.1621
G3 X1.853 Y6.9053 I-0.0579 J-0.0852
G3 X1.8328 Y6.9113 I-0.0394 J-0.0952
G3 X1.7899 Y6.9154 I-0.043 J-0.2252
G3 X1.7478 Y6.9098 I0 J-0.1624
G3 X1.7087 Y6.8936 I0.042 J-0.1569
G3 X1.675 Y6.8678 I0.0812 J-0.1406
G3 X1.6492 Y6.8342 I0.1148 J-0.1148
G3 X1.633 Y6.795 I0.1406 J-0.0812
G3 X1.6275 Y6.753 I0.1569 J-0.042
G3 X1.6315 Y6.71 I0.2293 J0
G3 X1.6376 Y6.6899 I0.1012 J0.0193
G3 X1.6475 Y6.6714 I0.0952 J0.0394
G3 X1.675 Y6.6381 I0.1896 J0.1289
G3 X1.7083 Y6.6106 I0.1621 J0.1621
G3 X1.7268 Y6.6006 I0.0579 J0.0852
G3 X1.7469 Y6.5946 I0.0394 J0.0952
G3 X1.7899 Y6.5906 I0.043 J0.2252
G3 X1.8328 Y6.5946 I0 J0.2293
G3 X1.853 Y6.6006 I-0.0193 J0.1012
G3 X1.8715 Y6.6106 I-0.0394 J0.0952
G3 X1.9047 Y6.6381 I-0.1289 J0.1896
G3 X1.9322 Y6.6714 I-0.1621 J0.1621
G3 X1.9422 Y6.6899 I-0.0852 J0.0579
G3 X1.9482 Y6.71 I-0.0952 J0.0394
G3 X1.9523 Y6.753 I-0.2252 J0.043
G1 X2.0523 Y6.753 F60
G3 X2.0464 Y6.8147 I-0.3293 J0 F60
G3 X2.0346 Y6.8543 I-0.1995 J-0.038
G3 X2.0149 Y6.8907 I-0.1876 J-0.0777
G3 X1.9754 Y6.9385 I-0.2724 J-0.1851
G3 X1.9277 Y6.978 I-0.2329 J-0.2329
G3 X1.8912 Y6.9977 I-0.1141 J-0.1679
G3 X1.8516 Y7.0095 I-0.0777 J-0.1876
G3 X1.7899 Y7.0154 I-0.0617 J-0.3235
G3 X1.722 Y7.0064 I0 J-0.2624
G3 X1.6587 Y6.9802 I0.0679 J-0.2535
G3 X1.6043 Y6.9385 I0.1312 J-0.2272
G3 X1.5626 Y6.8842 I0.1855 J-0.1855
G3 X1.5364 Y6.8209 I0.2272 J-0.1312
G3 X1.5275 Y6.753 I0.2535 J-0.0679
G3 X1.5333 Y6.6913 I0.3293 J0
G3 X1.5452 Y6.6516 I0.1995 J0.038
G3 X1.5648 Y6.6152 I0.1876 J0.0777
G3 X1.6043 Y6.5674 I0.2724 J0.1851
G3 X1.6521 Y6.5279 I0.2329 J0.2329
G3 X1.6885 Y6.5082 I0.1141 J0.1679
G3 X1.7282 Y6.4964 I0.0777 J0.1876
G3 X1.7899 Y6.4906 I0.0617 J0.3235
G3 X1.8516 Y6.4964 I0 J0.3293
G3 X1.8912 Y6.5082 I-0.038 J0.1995
G3 X1.9277 Y6.5279 I-0.0777 J0.1876
G3 X1.9754 Y6.5674 I-0.1851 J0.2724
G3 X2.0149 Y6.6152 I-0.2329 J0.2329
G3 X2.0346 Y6.6516 I-0.1679 J0.1141
G3 X2.0464 Y6.6913 I-0.1876 J0.0777
G3 X2.0523 Y6.753 I-0.3235 J0.0617
G1 X2.1523 Y6.753 F60
G3 X2.1447 Y6.8334 I-0.4293 J0 F60
G3 X2.127 Y6.8926 I-0.2977 J-0.0568
G3 X2.0976 Y6.947 I-0.28 J-0.116
G3 X2.0461 Y7.0092 I-0.3551 J-0.2413
G3 X1.9839 Y7.0607 I-0.3036 J-0.3036
G3 X1.9295 Y7.0901 I-0.1704 J-0.2507
G3 X1.8703 Y7.1078 I-0.116 J-0.28
G3 X1.7899 Y7.1154 I-0.0804 J-0.4217
G3 X1.6961 Y7.103 I0 J-0.3624
G3 X1.6087 Y7.0668 I0.0938 J-0.3501
G3 X1.5336 Y7.0092 I0.1812 J-0.3138
G3 X1.476 Y6.9342 I0.2563 J-0.2563
G3 X1.4398 Y6.8468 I0.3138 J-0.1812
G3 X1.4275 Y6.753 I0.3501 J-0.0938
G3 X1.4351 Y6.6725 I0.4293 J0
G3 X1.4528 Y6.6133 I0.2977 J0.0568
G3 X1.4821 Y6.559 I0.28 J0.116
G3 X1.5336 Y6.4967 I0.3551 J0.2413
G3 X1.5959 Y6.4452 I0.3036 J0.3036
G3 X1.6502 Y6.4159 I0.1704 J0.2507
G3 X1.7094 Y6.3982 I0.116 J0.28
G3 X1.7899 Y6.3906 I0.0804 J0.4217
G3 X1.8703 Y6.3982 I0 J0.4293
G3 X1.9295 Y6.4159 I-0.0568 J0.2977
G3 X1.9839 Y6.4452 I-0.116 J0.28
G3 X2.0461 Y6.4967 I-0.2413 J0.3551
G3 X2.0976 Y6.559 I-0.3036 J0.3036
G3 X2.127 Y6.6133 I-0.2507 J0.1704
G3 X2.1447 Y6.6725 I-0.28 J0.116
G3 X2.1523 Y6.753 I-0.4217 J0.0804
G1 X2.2523 Y6.753 F60
G3 X2.2429 Y6.8521 I-0.5293 J0 F60
G3 X2.2194 Y6.9309 I-0.3959 J-0.0755
G3 X2.1803 Y7.0032 I-0.3724 J-0.1542
G3 X2.1168 Y7.0799 I-0.4378 J-0.2975
G3 X2.0401 Y7.1434 I-0.3743 J-0.3743
G3 X1.9678 Y7.1824 I-0.2266 J-0.3334
G3 X1.889 Y7.206 I-0.1542 J-0.3724
G3 X1.7899 Y7.2154 I-0.0992 J-0.5199
G3 X1.6702 Y7.1996 I0 J-0.4624
G3 X1.5587 Y7.1534 I0.1197 J-0.4466
G3 X1.4629 Y7.0799 I0.2312 J-0.4005
G3 X1.3894 Y6.9842 I0.327 J-0.327
G3 X1.3432 Y6.8726 I0.4005 J-0.2312
G3 X1.3275 Y6.753 I0.4466 J-0.1197
G3 X1.3368 Y6.6538 I0.5293 J0
G3 X1.3604 Y6.5751 I0.3959 J0.0755
G3 X1.3994 Y6.5027 I0.3724 J0.1542
G3 X1.4629 Y6.426 I0.4378 J0.2975
G3 X1.5397 Y6.3625 I0.3743 J0.3743
G3 X1.612 Y6.3235 I0.2266 J0.3334
G3 X1.6907 Y6.2999 I0.1542 J0.3724
G3 X1.7899 Y6.2906 I0.0992 J0.5199
G3 X1.889 Y6.2999 I0 J0.5293
G3 X1.9678 Y6.3235 I-0.0755 J0.3959
G3 X2.0401 Y6.3625 I-0.1542 J0.3724
G3 X2.1168 Y6.426 I-0.2975 J0.4378
G3 X2.1803 Y6.5027 I-0.3743 J0.3743
G3 X2.2194 Y6.5751 I-0.3334 J0.2266
G3 X2.2429 Y6.6538 I-0.3724 J0.1542
G3 X2.2523 Y6.753 I-0.5199 J0.0992
G1 X2.3523 Y6.753 F60
G3 X2.3411 Y6.8709 I-0.6293 J0 F60
G3 X2.3117 Y6.9691 I-0.4942 J-0.0943
G3 X2.263 Y7.0594 I-0.4648 J-0.1925
G3 X2.1876 Y7.1506 I-0.5205 J-0.3537
G3 X2.0963 Y7.2261 I-0.445 J-0.445
G3 X2.006 Y7.2748 I-0.2828 J-0.4161
G3 X1.9078 Y7.3042 I-0.1925 J-0.4648
G3 X1.7899 Y7.3154 I-0.1179 J-0.6182
G3 X1.6443 Y7.2962 I0 J-0.5624
G3 X1.5087 Y7.24 I0.1456 J-0.5432
G3 X1.3922 Y7.1506 I0.2812 J-0.4871
G3 X1.3028 Y7.0342 I0.3977 J-0.3977
G3 X1.2466 Y6.8985 I0.4871 J-0.2812
G3 X1.2275 Y6.753 I0.5432 J-0.1456
G3 X1.2386 Y6.635 I0.6293 J0
G3 X1.268 Y6.5368 I0.4942 J0.0943
G3 X1.3167 Y6.4465 I0.4648 J0.1925
G3 X1.3922 Y6.3553 I0.5205 J0.3537
G3 X1.4835 Y6.2798 I0.445 J0.445
G3 X1.5737 Y6.2311 I0.2828 J0.4161
G3 X1.672 Y6.2017 I0.1925 J0.4648
G3 X1.7899 Y6.1906 I0.1179 J0.6182
G3 X1.9078 Y6.2017 I0 J0.6293
G3 X2.006 Y6.2311 I-0.0943 J0.4942
G3 X2.0963 Y6.2798 I-0.1925 J0.4648
G3 X2.1876 Y6.3553 I-0.3537 J0.5205
G3 X2.263 Y6.4465 I-0.445 J0.445
G3 X2.3117 Y6.5368 I-0.4161 J0.2828
G3 X2.3411 Y6.635 I-0.4648 J0.1925
G3 X2.3523 Y6.753 I-0.6182 J0.1179
G1 X2.4523 Y6.753 F60
G3 X2.4394 Y6.8896 I-0.7293 J0 F60
G3 X2.4041 Y7.0074 I-0.5924 J-0.113
G3 X2.3458 Y7.1156 I-0.5572 J-0.2308
G3 X2.2583 Y7.2213 I-0.6032 J-0.4099
G3 X2.1525 Y7.3088 I-0.5157 J-0.5157
G3 X2.0443 Y7.3672 I-0.339 J-0.4988
G3 X1.9265 Y7.4024 I-0.2308 J-0.5572
G3 X1.7899 Y7.4154 I-0.1366 J-0.7164
G3 X1.6184 Y7.3928 I0 J-0.6624
G3 X1.4587 Y7.3266 I0.1714 J-0.6398
G3 X1.3215 Y7.2213 I0.3312 J-0.5737
G3 X1.2162 Y7.0842 I0.4684 J-0.4684
G3 X1.15 Y6.9244 I0.5737 J-0.3312
G3 X1.1275 Y6.753 I0.6398 J-0.1714
G3 X1.1404 Y6.6163 I0.7293 J0
G3 X1.1756 Y6.4985 I0.5924 J0.113
G3 X1.234 Y6.3903 I0.5572 J0.2308
G3 X1.3215 Y6.2846 I0.6032 J0.4099
G3 X1.4272 Y6.1971 I0.5157 J0.5157
G3 X1.5354 Y6.1387 I0.339 J0.4988
G3 X1.6532 Y6.1035 I0.2308 J0.5572
G3 X1.7899 Y6.0906 I0.1366 J0.7164
G3 X1.9265 Y6.1035 I0 J0.7293
G3 X2.0443 Y6.1387 I-0.113 J0.5924
G3 X2.1525 Y6.1971 I-0.2308 J0.5572
G3 X2.2583 Y6.2846 I-0.4099 J0.6032
G3 X2.3458 Y6.3903 I-0.5157 J0.5157
G3 X2.4041 Y6.4985 I-0.4988 J0.339
G3 X2.4394 Y6.6163 I-0.5572 J0.2308
G3 X2.4523 Y6.753 I-0.7164 J0.1366
G0 Z0.15
G0 X6.2944 Y4.8238
G1 Z-0.14 F30
G1 X6.2944 Y3.564 F60
G3 X6.2967 Y3.5398 I0.1293 J0
G1 X6.2969 Y3.5392
G1 X6.2972 Y3.5386
G3 X6.3127 Y3.5199 I0.1069 J0.0727
G3 X6.3314 Y3.5043 I0.0914 J0.0914
G1 X6.332 Y3.504
G1 X6.3326 Y3.5039
G3 X6.3568 Y3.5016 I0.0242 J0.127
G3 X6.381 Y3.5039 I0 J0.1293
G1 X6.3816 Y3.504
G1 X6.3822 Y3.5043
G3 X6.4009 Y3.5199 I-0.0727 J0.1069
G3 X6.4164 Y3.5386 I-0.0914 J0.0914
G1 X6.4167 Y3.5392
G1 X6.4169 Y3.5398
G3 X6.4192 Y3.564 I-0.127 J0.0242
G1 X6.4192 Y4.8238
G3 X6.4169 Y4.848 I-0.1293 J0
G1 X6.4167 Y4.8486
G1 X6.4164 Y4.8492
G3 X6.4009 Y4.8679 I-0.1069 J-0.0727
G3 X6.3822 Y4.8835 I-0.0914 J-0.0914
G1 X6.3816 Y4.8838
G1 X6.381 Y4.8839
G3 X6.3568 Y4.8862 I-0.0242 J-0.127
G3 X6.3326 Y4.8839 I0 J-0.1293
G1 X6.332 Y4.8838
G1 X6.3314 Y4.8835
G3 X6.3127 Y4.8679 I0.0727 J-0.1069
G3 X6.2972 Y4.8492 I0.0914 J-0.0914
G1 X6.2969 Y4.8486
G1 X6.2967 Y4.848
G3 X6.2944 Y4.8238 I0.127 J-0.0242
G0 Z0.15
G0 X5.7944 Y4.8238
G1 Z-0.14 F30
G1 X5.7944 Y3.564 F60
G3 X5.8055 Y3.4461 I0.6293 J0
G3 X5.8349 Y3.3478 I0.4942 J0.0943
G3 X5.8836 Y3.2576 I0.4648 J0.1925
G3 X5.9591 Y3.1663 I0.5205 J0.3537
G3 X6.0504 Y3.0908 I0.445 J0.445
G3 X6.1406 Y3.0421 I0.2828 J0.4161
G3 X6.2389 Y3.0127 I0.1925 J0.4648
G3 X6.3568 Y3.0016 I0.1179 J0.6182
G3 X6.4747 Y3.0127 I0 J0.6293
G3 X6.573 Y3.0421 I-0.0943 J0.4942
G3 X6.6632 Y3.0908 I-0.1925 J0.4648
G3 X6.7545 Y3.1663 I-0.3537 J0.5205
G3 X6.83 Y3.2576 I-0.445 J0.445
G3 X6.8787 Y3.3478 I-0.4161 J0.2828
G3 X6.9081 Y3.4461 I-0.4648 J0.1925
G3 X6.9192 Y3.564 I-0.6182 J0.1179
G1 X6.9192 Y4.8238
G3 X6.9081 Y4.9417 I-0.6293 J0
G3 X6.8787 Y5.04 I-0.4942 J-0.0943
G3 X6.83 Y5.1302 I-0.4648 J-0.1925
G3 X6.7545 Y5.2215 I-0.5205 J-0.3537
G3 X6.6632 Y5.297 I-0.445 J-0.445
G3 X6.573 Y5.3457 I-0.2828 J-0.4161
G3 X6.4747 Y5.3751 I-0.1925 J-0.4648
G3 X6.3568 Y5.3862 I-0.1179 J-0.6182
G3 X6.2389 Y5.3751 I0 J-0.6293
G3 X6.1406 Y5.3457 I0.0943 J-0.4942
G3 X6.0504 Y5.297 I0.1925 J-0.4648
G3 X5.9591 Y5.2215 I0.3537 J-0.5205
G3 X5.8836 Y5.1302 I0.445 J-0.445
G3 X5.8349 Y5.04 I0.4161 J-0.2828
G3 X5.8055 Y4.9417 I0.4648 J-0.1925
G3 X5.7944 Y4.8238 I0.6182 J-0.1179
G0 Z0.15
G0 X3.6566 Y4.8238
G1 Z-0.14 F30
G1 X3.6566 Y3.564 F60
G3 X3.6589 Y3.5398 I0.1293 J0
G1 X3.6591 Y3.5392
G1 X3.6594 Y3.5386
G3 X3.6749 Y3.5199 I0.1069 J0.0727
G3 X3.6936 Y3.5043 I0.0914 J0.0914
G1 X3.6942 Y3.504
G1 X3.6948 Y3.5039
G3 X3.719 Y3.5016 I0.0242 J0.127
G1 X4.4277 Y3.5016
G3 X4.4438 Y3.5037 I0 J0.0624
G3 X4.4589 Y3.5099 I-0.0162 J0.0603
G3 X4.4718 Y3.5199 I-0.0312 J0.054
G3 X4.4817 Y3.5328 I-0.0441 J0.0441
G3 X4.4879 Y3.5478 I-0.054 J0.0312
G3 X4.4901 Y3.564 I-0.0603 J0.0162
G1 X4.4901 Y4.8238
G3 X4.4879 Y4.84 I-0.0624 J0
G3 X4.4817 Y4.855 I-0.0603 J-0.0162
G3 X4.4718 Y4.8679 I-0.054 J-0.0312
G3 X4.4589 Y4.8779 I-0.0441 J-0.0441
G3 X4.4438 Y4.8841 I-0.0312 J-0.054
G3 X4.4277 Y4.8862 I-0.0162 J-0.0603
G1 X3.719 Y4.8862
G3 X3.6948 Y4.8839 I0 J-0.1293
G1 X3.6942 Y4.8838
G1 X3.6936 Y4.8835
G3 X3.6749 Y4.8679 I0.0727 J-0.1069
G3 X3.6594 Y4.8492 I0.0914 J-0.0914
G1 X3.6591 Y4.8486
G1 X3.6589 Y4.848
G3 X3.6566 Y4.8238 I0.127 J-0.0242
G0 Z0.15
G0 X3.1566 Y4.8238
G1 Z-0.14 F30
G1 X3.1566 Y3.564 F60
G3 X3.1678 Y3.4461 I0.6293 J0
G3 X3.1971 Y3.3478 I0.4942 J0.0943
G3 X3.2458 Y3.2576 I0.4648 J0.1925
G3 X3.3213 Y3.1663 I0.5205 J0.3537
G3 X3.4126 Y3.0908 I0.445 J0.445
G3 X3.5028 Y3.0421 I0.2828 J0.4161
G3 X3.6011 Y3.0127 I0.1925 J0.4648
G3 X3.719 Y3.0016 I0.1179 J0.6182
G1 X4.4277 Y3.0016
G3 X4.5732 Y3.0207 I0 J0.5624
G3 X4.7089 Y3.0769 I-0.1456 J0.5432
G3 X4.8253 Y3.1663 I-0.2812 J0.4871
G3 X4.9147 Y3.2828 I-0.3977 J0.3977
G3 X4.9709 Y3.4184 I-0.4871 J0.2812
G3 X4.9901 Y3.564 I-0.5432 J0.1456
G1 X4.9901 Y4.8238
G3 X4.9709 Y4.9694 I-0.5624 J0
G3 X4.9147 Y5.105 I-0.5432 J-0.1456
G3 X4.8253 Y5.2215 I-0.4871 J-0.2812
G3 X4.7089 Y5.3109 I-0.3977 J-0.3977
G3 X4.5732 Y5.3671 I-0.2812 J-0.4871
G3 X4.4277 Y5.3862 I-0.1456 J-0.5432
G1 X3.719 Y5.3862
G3 X3.6011 Y5.3751 I0 J-0.6293
G3 X3.5028 Y5.3457 I0.0943 J-0.4942
G3 X3.4126 Y5.297 I0.1925 J-0.4648
G3 X3.3213 Y5.2215 I0.3537 J-0.5205
G3 X3.2458 Y5.1302 I0.445 J-0.445
G3 X3.1971 Y5.04 I0.4161 J-0.2828
G3 X3.1678 Y4.9417 I0.4648 J-0.1925
G3 X3.1566 Y4.8238 I0.6182 J-0.1179
G0 Z0.15
G0 X2.3523 Y3.564
G1 Z-0.14 F30
G1 X2.3523 Y4.8238 F60
G3 X2.3411 Y4.9417 I-0.6293 J0
G3 X2.3117 Y5.04 I-0.4942 J-0.0943
G3 X2.263 Y5.1302 I-0.4648 J-0.1925
G3 X2.1876 Y5.2215 I-0.5205 J-0.3537
G3 X2.0963 Y5.297 I-0.445 J-0.445
G3 X2.006 Y5.3457 I-0.2828 J-0.4161
G3 X1.9078 Y5.3751 I-0.1925 J-0.4648
G3 X1.7899 Y5.3862 I-0.1179 J-0.6182
G3 X1.672 Y5.3751 I0 J-0.6293
G3 X1.5737 Y5.3457 I0.0943 J-0.4942
G3 X1.4835 Y5.297 I0.1925 J-0.4648
G3 X1.3922 Y5.2215 I0.3537 J-0.5205
G3 X1.3167 Y5.1302 I0.445 J-0.445
G3 X1.268 Y5.04 I0.4161 J-0.2828
G3 X1.2386 Y4.9417 I0.4648 J-0.1925
G3 X1.2275 Y4.8238 I0.6182 J-0.1179
G1 X1.2275 Y3.564
G3 X1.2386 Y3.4461 I0.6293 J0
G3 X1.268 Y3.3478 I0.4942 J0.0943
G3 X1.3167 Y3.2576 I0.4648 J0.1925
G3 X1.3922 Y3.1663 I0.5205 J0.3537
G3 X1.4835 Y3.0908 I0.445 J0.445
G3 X1.5737 Y3.0421 I0.2828 J0.4161
G3 X1.672 Y3.0127 I0.1925 J0.4648
G3 X1.7899 Y3.0016 I0.1179 J0.6182
G3 X1.9078 Y3.0127 I0 J0.6293
G3 X2.006 Y3.0421 I-0.0943 J0.4942
G3 X2.0963 Y3.0908 I-0.1925 J0.4648
G3 X2.1876 Y3.1663 I-0.3537 J0.5205
G3 X2.263 Y3.2576 I-0.445 J0.445
G3 X2.3117 Y3.3478 I-0.4161 J0.2828
G3 X2.3411 Y3.4461 I-0.4648 J0.1925
G3 X2.3523 Y3.564 I-0.6182 J0.1179
G0 Z0.15
G0 X3.2566 Y4.8238
G1 Z-0.14 F30
G1 X3.2566 Y3.564 F60
G3 X3.266 Y3.4648 I0.5293 J0
G3 X3.2895 Y3.3861 I0.3959 J0.0755
G3 X3.3285 Y3.3138 I0.3724 J0.1542
G3 X3.392 Y3.237 I0.4378 J0.2975
G3 X3.4688 Y3.1735 I0.3743 J0.3743
G3 X3.5411 Y3.1345 I0.2266 J0.3334
G3 X3.6198 Y3.1109 I0.1542 J0.3724
G3 X3.719 Y3.1016 I0.0992 J0.5199
G1 X4.4277 Y3.1016
G3 X4.5473 Y3.1173 I0 J0.4624
G3 X4.6589 Y3.1635 I-0.1197 J0.4466
G3 X4.7546 Y3.237 I-0.2312 J0.4005
G3 X4.8281 Y3.3328 I-0.327 J0.327
G3 X4.8743 Y3.4443 I-0.4005 J0.2312
G3 X4.8901 Y3.564 I-0.4466 J0.1197
G1 X4.8901 Y4.8238
G3 X4.8743 Y4.9435 I-0.4624 J0
G3 X4.8281 Y5.055 I-0.4466 J-0.1197
G3 X4.7546 Y5.1508 I-0.4005 J-0.2312
G3 X4.6589 Y5.2243 I-0.327 J-0.327
G3 X4.5473 Y5.2705 I-0.2312 J-0.4005
G3 X4.4277 Y5.2862 I-0.1197 J-0.4466
G1 X3.719 Y5.2862
G3 X3.6198 Y5.2768 I0 J-0.5293
G3 X3.5411 Y5.2533 I0.0755 J-0.3959
G3 X3.4688 Y5.2143 I0.1542 J-0.3724
G3 X3.392 Y5.1508 I0.2975 J-0.4378
G3 X3.3285 Y5.074 I0.3743 J-0.3743
G3 X3.2895 Y5.0017 I0.3334 J-0.2266
G3 X3.266 Y4.923 I0.3724 J-0.1542
G3 X3.2566 Y4.8238 I0.5199 J-0.0992
G0 Z0.15
G0 X2.2523 Y3.564
G1 Z-0.14 F30
G1 X2.2523 Y4.8238 F60
G3 X2.2429 Y4.923 I-0.5293 J0
G3 X2.2194 Y5.0017 I-0.3959 J-0.0755
G3 X2.1803 Y5.074 I-0.3724 J-0.1542
G3 X2.1168 Y5.1508 I-0.4378 J-0.2975
G3 X2.0401 Y5.2143 I-0.3743 J-0.3743
G3 X1.9678 Y5.2533 I-0.2266 J-0.3334
G3 X1.889 Y5.2768 I-0.1542 J-0.3724
G3 X1.7899 Y5.2862 I-0.0992 J-0.5199
G3 X1.6907 Y5.2768 I0 J-0.5293
G3 X1.612 Y5.2533 I0.0755 J-0.3959
G3 X1.5397 Y5.2143 I0.1542 J-0.3724
G3 X1.4629 Y5.1508 I0.2975 J-0.4378
G3 X1.3994 Y5.074 I0.3743 J-0.3743
G3 X1.3604 Y5.0017 I0.3334 J-0.2266
G3 X1.3368 Y4.923 I0.3724 J-0.1542
G3 X1.3275 Y4.8238 I0.5199 J-0.0992
G1 X1.3275 Y3.564
G3 X1.3368 Y3.4648 I0.5293 J0
G3 X1.3604 Y3.3861 I0.3959 J0.0755
G3 X1.3994 Y3.3138 I0.3724 J0.1542
G3 X1.4629 Y3.237 I0.4378 J0.2975
G3 X1.5397 Y3.1735 I0.3743 J0.3743
G3 X1.612 Y3.1345 I0.2266 J0.3334
G3 X1.6907 Y3.1109 I0.1542 J0.3724
G3 X1.7899 Y3.1016 I0.0992 J0.5199
G3 X1.889 Y3.1109 I0 J0.5293
G3 X1.9678 Y3.1345 I-0.0755 J0.3959
G3 X2.0401 Y3.1735 I-0.1542 J0.3724
G3 X2.1168 Y3.237 I-0.2975 J0.4378
G3 X2.1803 Y3.3138 I-0.3743 J0.3743
G3 X2.2194 Y3.3861 I-0.3334 J0.2266
G3 X2.2429 Y3.4648 I-0.3724 J0.1542
G3 X2.2523 Y3.564 I-0.5199 J0.0992
G0 Z0.15
G0 X3.3566 Y4.8238
G1 Z-0.14 F30
G1 X3.3566 Y3.564 F60
G3 X3.3642 Y3.4835 I0.4293 J0
G3 X3.3819 Y3.4243 I0.2977 J0.0568
G3 X3.4113 Y3.37 I0.28 J0.116
G3 X3.4628 Y3.3077 I0.3551 J0.2413
G3 X3.525 Y3.2562 I0.3036 J0.3036
G3 X3.5794 Y3.2269 I0.1704 J0.2507
G3 X3.6386 Y3.2092 I0.116 J0.28
G3 X3.719 Y3.2016 I0.0804 J0.4217
G1 X4.4277 Y3.2016
G3 X4.5215 Y3.2139 I0 J0.3624
G3 X4.6089 Y3.2501 I-0.0938 J0.3501
G3 X4.6839 Y3.3077 I-0.1812 J0.3138
G3 X4.7415 Y3.3828 I-0.2563 J0.2563
G3 X4.7777 Y3.4702 I-0.3138 J0.1812
G3 X4.7901 Y3.564 I-0.3501 J0.0938
G1 X4.7901 Y4.8238
G3 X4.7777 Y4.9176 I-0.3624 J0
G3 X4.7415 Y5.005 I-0.3501 J-0.0938
G3 X4.6839 Y5.0801 I-0.3138 J-0.1812
G3 X4.6089 Y5.1377 I-0.2563 J-0.2563
G3 X4.5215 Y5.1739 I-0.1812 J-0.3138
G3 X4.4277 Y5.1862 I-0.0938 J-0.3501
G1 X3.719 Y5.1862
G3 X3.6386 Y5.1786 I0 J-0.4293
G3 X3.5794 Y5.1609 I0.0568 J-0.2977
G3 X3.525 Y5.1316 I0.116 J-0.28
G3 X3.4628 Y5.0801 I0.2413 J-0.3551
G3 X3.4113 Y5.0178 I0.3036 J-0.3036
G3 X3.3819 Y4.9634 I0.2507 J-0.1704
G3 X3.3642 Y4.9043 I0.28 J-0.116
G3 X3.3566 Y4.8238 I0.4217 J-0.0804
G0 Z0.15
G0 X2.1523 Y3.564
G1 Z-0.14 F30
G1 X2.1523 Y4.8238 F60
G3 X2.1447 Y4.9043 I-0.4293 J0
G3 X2.127 Y4.9634 I-0.2977 J-0.0568
G3 X2.0976 Y5.0178 I-0.28 J-0.116
G3 X2.0461 Y5.0801 I-0.3551 J-0.2413
G3 X1.9839 Y5.1316 I-0.3036 J-0.3036
G3 X1.9295 Y5.1609 I-0.1704 J-0.2507
G3 X1.8703 Y5.1786 I-0.116 J-0.28
G3 X1.7899 Y5.1862 I-0.0804 J-0.4217
G3 X1.7094 Y5.1786 I0 J-0.4293
G3 X1.6502 Y5.1609 I0.0568 J-0.2977
G3 X1.5959 Y5.1316 I0.116 J-0.28
G3 X1.5336 Y5.0801 I0.2413 J-0.3551
G3 X1.4821 Y5.0178 I0.3036 J-0.3036
G3 X1.4528 Y4.9634 I0.2507 J-0.1704
G3 X1.4351 Y4.9043 I0.28 J-0.116
G3 X1.4275 Y4.8238 I0.4217 J-0.0804
G1 X1.4275 Y3.564
G3 X1.4351 Y3.4835 I0.4293 J0
G3 X1.4528 Y3.4243 I0.2977 J0.0568
G3 X1.4821 Y3.37 I0.28 J0.116
G3 X1.5336 Y3.3077 I0.3551 J0.2413
G3 X1.5959 Y3.2562 I0.3036 J0.3036
G3 X1.6502 Y3.2269 I0.1704 J0.2507
G3 X1.7094 Y3.2092 I0.116 J0.28
G3 X1.7899 Y3.2016 I0.0804 J0.4217
G3 X1.8703 Y3.2092 I0 J0.4293
G3 X1.9295 Y3.2269 I-0.0568 J0.2977
G3 X1.9839 Y3.2562 I-0.116 J0.28
G3 X2.0461 Y3.3077 I-0.2413 J0.3551
G3 X2.0976 Y3.37 I-0.3036 J0.3036
G3 X2.127 Y3.4243 I-0.2507 J0.1704
G3 X2.1447 Y3.4835 I-0.28 J0.116
G3 X2.1523 Y3.564 I-0.4217 J0.0804
G0 Z0.15
G0 X3.4566 Y4.8238
G1 Z-0.14 F30
G1 X3.4566 Y3.564 F60
G3 X3.4624 Y3.5023 I0.3293 J0
G3 X3.4743 Y3.4626 I0.1995 J0.038
G3 X3.494 Y3.4262 I0.1876 J0.0777
G3 X3.5335 Y3.3784 I0.2724 J0.1851
G3 X3.5812 Y3.3389 I0.2329 J0.2329
G3 X3.6176 Y3.3193 I0.1141 J0.1679
G3 X3.6573 Y3.3074 I0.0777 J0.1876
G3 X3.719 Y3.3016 I0.0617 J0.3235
G1 X4.4277 Y3.3016
G3 X4.4956 Y3.3105 I0 J0.2624
G3 X4.5589 Y3.3367 I-0.0679 J0.2535
G3 X4.6132 Y3.3784 I-0.1312 J0.2272
G3 X4.6549 Y3.4328 I-0.1855 J0.1855
G3 X4.6811 Y3.4961 I-0.2272 J0.1312
G3 X4.6901 Y3.564 I-0.2535 J0.0679
G1 X4.6901 Y4.8238
G3 X4.6811 Y4.8917 I-0.2624 J0
G3 X4.6549 Y4.955 I-0.2535 J-0.0679
G3 X4.6132 Y5.0094 I-0.2272 J-0.1312
G3 X4.5589 Y5.0511 I-0.1855 J-0.1855
G3 X4.4956 Y5.0773 I-0.1312 J-0.2272
G3 X4.4277 Y5.0862 I-0.0679 J-0.2535
G1 X3.719 Y5.0862
G3 X3.6573 Y5.0804 I0 J-0.3293
G3 X3.6176 Y5.0685 I0.038 J-0.1995
G3 X3.5812 Y5.0489 I0.0777 J-0.1876
G3 X3.5335 Y5.0094 I0.1851 J-0.2724
G3 X3.494 Y4.9616 I0.2329 J-0.2329
G3 X3.4743 Y4.9252 I0.1679 J-0.1141
G3 X3.4624 Y4.8855 I0.1876 J-0.0777
G3 X3.4566 Y4.8238 I0.3235 J-0.0617
G0 Z0.15
G0 X2.0523 Y3.564
G1 Z-0.14 F30
G1 X2.0523 Y4.8238 F60
G3 X2.0464 Y4.8855 I-0.3293 J0
G3 X2.0346 Y4.9252 I-0.1995 J-0.038
G3 X2.0149 Y4.9616 I-0.1876 J-0.0777
G3 X1.9754 Y5.0094 I-0.2724 J-0.1851
G3 X1.9277 Y5.0489 I-0.2329 J-0.2329
G3 X1.8912 Y5.0685 I-0.1141 J-0.1679
G3 X1.8516 Y5.0804 I-0.0777 J-0.1876
G3 X1.7899 Y5.0862 I-0.0617 J-0.3235
G3 X1.7282 Y5.0804 I0 J-0.3293
G3 X1.6885 Y5.0685 I0.038 J-0.1995
G3 X1.6521 Y5.0489 I0.0777 J-0.1876
G3 X1.6043 Y5.0094 I0.1851 J-0.2724
G3 X1.5648 Y4.9616 I0.2329 J-0.2329
G3 X1.5452 Y4.9252 I0.1679 J-0.1141
G3 X1.5333 Y4.8855 I0.1876 J-0.0777
G3 X1.5275 Y4.8238 I0.3235 J-0.0617
G1 X1.5275 Y3.564
G3 X1.5333 Y3.5023 I0.3293 J0
G3 X1.5452 Y3.4626 I0.1995 J0.038
G3 X1.5648 Y3.4262 I0.1876 J0.0777
G3 X1.6043 Y3.3784 I0.2724 J0.1851
G3 X1.6521 Y3.3389 I0.2329 J0.2329
G3 X1.6885 Y3.3193 I0.1141 J0.1679
G3 X1.7282 Y3.3074 I0.0777 J0.1876
G3 X1.7899 Y3.3016 I0.0617 J0.3235
G3 X1.8516 Y3.3074 I0 J0.3293
G3 X1.8912 Y3.3193 I-0.038 J0.1995
G3 X1.9277 Y3.3389 I-0.0777 J0.1876
G3 X1.9754 Y3.3784 I-0.1851 J0.2724
G3 X2.0149 Y3.4262 I-0.2329 J0.2329
G3 X2.0346 Y3.4626 I-0.1679 J0.1141
G3 X2.0464 Y3.5023 I-0.1876 J0.0777
G3 X2.0523 Y3.564 I-0.3235 J0.0617
G0 Z0.15
G0 X3.5566 Y4.8238
G1 Z-0.14 F30
G1 X3.5566 Y3.564 F60
G3 X3.5607 Y3.521 I0.2293 J0
G3 X3.5667 Y3.5009 I0.1012 J0.0193
G3 X3.5767 Y3.4824 I0.0952 J0.0394
G3 X3.6042 Y3.4491 I0.1896 J0.1289
G3 X3.6374 Y3.4216 I0.1621 J0.1621
G3 X3.6559 Y3.4117 I0.0579 J0.0852
G3 X3.676 Y3.4056 I0.0394 J0.0952
G3 X3.719 Y3.4016 I0.043 J0.2252
G1 X4.4277 Y3.4016
G3 X4.4697 Y3.4071 I0 J0.1624
G3 X4.5089 Y3.4233 I-0.042 J0.1569
G3 X4.5425 Y3.4491 I-0.0812 J0.1406
G3 X4.5683 Y3.4828 I-0.1148 J0.1148
G3 X4.5845 Y3.5219 I-0.1406 J0.0812
G3 X4.5901 Y3.564 I-0.1569 J0.042
G1 X4.5901 Y4.8238
G3 X4.5845 Y4.8659 I-0.1624 J0
G3 X4.5683 Y4.905 I-0.1569 J-0.042
G3 X4.5425 Y4.9387 I-0.1406 J-0.0812
G3 X4.5089 Y4.9645 I-0.1148 J-0.1148
G3 X4.4697 Y4.9807 I-0.0812 J-0.1406
G3 X4.4277 Y4.9862 I-0.042 J-0.1569
G1 X3.719 Y4.9862
G3 X3.676 Y4.9822 I0 J-0.2293
G3 X3.6559 Y4.9761 I0.0193 J-0.1012
G3 X3.6374 Y4.9662 I0.0394 J-0.0952
G3 X3.6042 Y4.9387 I0.1289 J-0.1896
G3 X3.5767 Y4.9054 I0.1621 J-0.1621
G3 X3.5667 Y4.8869 I0.0852 J-0.0579
G3 X3.5607 Y4.8668 I0.0952 J-0.0394
G3 X3.5566 Y4.8238 I0.2252 J-0.043
G0 Z0.15
G0 X6.1944 Y4.8238
G1 Z-0.25 F30
G1 X6.1944 Y3.564 F60
G3 X6.1985 Y3.521 I0.2293 J0
G3 X6.2045 Y3.5009 I0.1012 J0.0193
G3 X6.2145 Y3.4824 I0.0952 J0.0394
G3 X6.242 Y3.4491 I0.1896 J0.1289
G3 X6.2752 Y3.4216 I0.1621 J0.1621
G3 X6.2937 Y3.4117 I0.0579 J0.0852
G3 X6.3138 Y3.4056 I0.0394 J0.0952
G3 X6.3568 Y3.4016 I0.043 J0.2252
G3 X6.3998 Y3.4056 I0 J0.2293
G3 X6.4199 Y3.4117 I-0.0193 J0.1012
G3 X6.4384 Y3.4216 I-0.0394 J0.0952
G3 X6.4716 Y3.4491 I-0.1289 J0.1896
G3 X6.4991 Y3.4824 I-0.1621 J0.1621
G3 X6.5091 Y3.5009 I-0.0852 J0.0579
G3 X6.5151 Y3.521 I-0.0952 J0.0394
G3 X6.5192 Y3.564 I-0.2252 J0.043
G1 X6.5192 Y4.8238
G3 X6.5151 Y4.8668 I-0.2293 J0
G3 X6.5091 Y4.8869 I-0.1012 J-0.0193
G3 X6.4991 Y4.9054 I-0.0952 J-0.0394
G3 X6.4716 Y4.9387 I-0.1896 J-0.1289
G3 X6.4384 Y4.9662 I-0.1621 J-0.1621
G3 X6.4199 Y4.9761 I-0.0579 J-0.0852
G3 X6.3998 Y4.9822 I-0.0394 J-0.0952
G3 X6.3568 Y4.9862 I-0.043 J-0.2252
G3 X6.3138 Y4.9822 I0 J-0.2293
G3 X6.2937 Y4.9761 I0.0193 J-0.1012
G3 X6.2752 Y4.9662 I0.0394 J-0.0952
G3 X6.242 Y4.9387 I0.1289 J-0.1896
G3 X6.2145 Y4.9054 I0.1621 J-0.1621
G3 X6.2045 Y4.8869 I0.0852 J-0.0579
G3 X6.1985 Y4.8668 I0.0952 J-0.0394
G3 X6.1944 Y4.8238 I0.2252 J-0.043
G1 X6.0944 Y4.8238 F60
G1 X6.0944 Y3.564 F60
G3 X6.1002 Y3.5023 I0.3293 J0
G3 X6.1121 Y3.4626 I0.1995 J0.038
G3 X6.1318 Y3.4262 I0.1876 J0.0777
G3 X6.1713 Y3.3784 I0.2724 J0.1851
G3 X6.219 Y3.3389 I0.2329 J0.2329
G3 X6.2554 Y3.3193 I0.1141 J0.1679
G3 X6.2951 Y3.3074 I0.0777 J0.1876
G3 X6.3568 Y3.3016 I0.0617 J0.3235
G3 X6.4185 Y3.3074 I0 J0.3293
G3 X6.4582 Y3.3193 I-0.038 J0.1995
G3 X6.4946 Y3.3389 I-0.0777 J0.1876
G3 X6.5423 Y3.3784 I-0.1851 J0.2724
G3 X6.5819 Y3.4262 I-0.2329 J0.2329
G3 X6.6015 Y3.4626 I-0.1679 J0.1141
G3 X6.6134 Y3.5023 I-0.1876 J0.0777
G3 X6.6192 Y3.564 I-0.3235 J0.0617
G1 X6.6192 Y4.8238
G3 X6.6134 Y4.8855 I-0.3293 J0
G3 X6.6015 Y4.9252 I-0.1995 J-0.038
G3 X6.5819 Y4.9616 I-0.1876 J-0.0777
G3 X6.5423 Y5.0094 I-0.2724 J-0.1851
G3 X6.4946 Y5.0489 I-0.2329 J-0.2329
G3 X6.4582 Y5.0685 I-0.1141 J-0.1679
G3 X6.4185 Y5.0804 I-0.0777 J-0.1876
G3 X6.3568 Y5.0862 I-0.0617 J-0.3235
G3 X6.2951 Y5.0804 I0 J-0.3293
G3 X6.2554 Y5.0685 I0.038 J-0.1995
G3 X6.219 Y5.0489 I0.0777 J-0.1876
G3 X6.1713 Y5.0094 I0.1851 J-0.2724
G3 X6.1318 Y4.9616 I0.2329 J-0.2329
G3 X6.1121 Y4.9252 I0.1679 J-0.1141
G3 X6.1002 Y4.8855 I0.1876 J-0.0777
G3 X6.0944 Y4.8238 I0.3235 J-0.0617
G1 X5.9944 Y4.8238 F60
G1 X5.9944 Y3.564 F60
G3 X6.002 Y3.4835 I0.4293 J0
G3 X6.0197 Y3.4243 I0.2977 J0.0568
G3 X6.049 Y3.37 I0.28 J0.116
G3 X6.1005 Y3.3077 I0.3551 J0.2413
G3 X6.1628 Y3.2562 I0.3036 J0.3036
G3 X6.2172 Y3.2269 I0.1704 J0.2507
G3 X6.2764 Y3.2092 I0.116 J0.28
G3 X6.3568 Y3.2016 I0.0804 J0.4217
G3 X6.4372 Y3.2092 I0 J0.4293
G3 X6.4964 Y3.2269 I-0.0568 J0.2977
G3 X6.5508 Y3.2562 I-0.116 J0.28
G3 X6.6131 Y3.3077 I-0.2413 J0.3551
G3 X6.6646 Y3.37 I-0.3036 J0.3036
G3 X6.6939 Y3.4243 I-0.2507 J0.1704
G3 X6.7116 Y3.4835 I-0.28 J0.116
G3 X6.7192 Y3.564 I-0.4217 J0.0804
G1 X6.7192 Y4.8238
G3 X6.7116 Y4.9043 I-0.4293 J0
G3 X6.6939 Y4.9634 I-0.2977 J-0.0568
G3 X6.6646 Y5.0178 I-0.28 J-0.116
G3 X6.6131 Y5.0801 I-0.3551 J-0.2413
G3 X6.5508 Y5.1316 I-0.3036 J-0.3036
G3 X6.4964 Y5.1609 I-0.1704 J-0.2507
G3 X6.4372 Y5.1786 I-0.116 J-0.28
G3 X6.3568 Y5.1862 I-0.0804 J-0.4217
G3 X6.2764 Y5.1786 I0 J-0.4293
G3 X6.2172 Y5.1609 I0.0568 J-0.2977
G3 X6.1628 Y5.1316 I0.116 J-0.28
G3 X6.1005 Y5.0801 I0.2413 J-0.3551
G3 X6.049 Y5.0178 I0.3036 J-0.3036
G3 X6.0197 Y4.9634 I0.2507 J-0.1704
G3 X6.002 Y4.9043 I0.28 J-0.116
G3 X5.9944 Y4.8238 I0.4217 J-0.0804
G1 X5.8944 Y4.8238 F60
G1 X5.8944 Y3.564 F60
G3 X5.9038 Y3.4648 I0.5293 J0
G3 X5.9273 Y3.3861 I0.3959 J0.0755
G3 X5.9663 Y3.3138 I0.3724 J0.1542
G3 X6.0298 Y3.237 I0.4378 J0.2975
G3 X6.1066 Y3.1735 I0.3743 J0.3743
G3 X6.1789 Y3.1345 I0.2266 J0.3334
G3 X6.2576 Y3.1109 I0.1542 J0.3724
G3 X6.3568 Y3.1016 I0.0992 J0.5199
G3 X6.456 Y3.1109 I0 J0.5293
G3 X6.5347 Y3.1345 I-0.0755 J0.3959
G3 X6.607 Y3.1735 I-0.1542 J0.3724
G3 X6.6838 Y3.237 I-0.2975 J0.4378
G3 X6.7473 Y3.3138 I-0.3743 J0.3743
G3 X6.7863 Y3.3861 I-0.3334 J0.2266
G3 X6.8098 Y3.4648 I-0.3724 J0.1542
G3 X6.8192 Y3.564 I-0.5199 J0.0992
G1 X6.8192 Y4.8238
G3 X6.8098 Y4.923 I-0.5293 J0
G3 X6.7863 Y5.0017 I-0.3959 J-0.0755
G3 X6.7473 Y5.074 I-0.3724 J-0.1542
G3 X6.6838 Y5.1508 I-0.4378 J-0.2975
G3 X6.607 Y5.2143 I-0.3743 J-0.3743
G3 X6.5347 Y5.2533 I-0.2266 J-0.3334
G3 X6.456 Y5.2768 I-0.1542 J-0.3724
G3 X6.3568 Y5.2862 I-0.0992 J-0.5199
G3 X6.2576 Y5.2768 I0 J-0.5293
G3 X6.1789 Y5.2533 I0.0755 J-0.3959
G3 X6.1066 Y5.2143 I0.1542 J-0.3724
G3 X6.0298 Y5.1508 I0.2975 J-0.4378
G3 X5.9663 Y5.074 I0.3743 J-0.3743
G3 X5.9273 Y5.0017 I0.3334 J-0.2266
G3 X5.9038 Y4.923 I0.3724 J-0.1542
G3 X5.8944 Y4.8238 I0.5199 J-0.0992
G0 Z0.15
G0 X5.6944 Y4.8238
G1 Z-0.25 F30
G1 X5.6944 Y3.564 F60
G3 X5.7073 Y3.4273 I0.7293 J0
G3 X5.7425 Y3.3095 I0.5924 J0.113
G3 X5.8009 Y3.2013 I0.5572 J0.2308
G3 X5.8884 Y3.0956 I0.6032 J0.4099
G3 X5.9942 Y3.0081 I0.5157 J0.5157
G3 X6.1024 Y2.9497 I0.339 J0.4988
G3 X6.2202 Y2.9145 I0.2308 J0.5572
G3 X6.3568 Y2.9016 I0.1366 J0.7164
G3 X6.4934 Y2.9145 I0 J0.7293
G3 X6.6112 Y2.9497 I-0.113 J0.5924
G3 X6.7194 Y3.0081 I-0.2308 J0.5572
G3 X6.8252 Y3.0956 I-0.4099 J0.6032
G3 X6.9127 Y3.2013 I-0.5157 J0.5157
G3 X6.9711 Y3.3095 I-0.4988 J0.339
G3 X7.0063 Y3.4273 I-0.5572 J0.2308
G3 X7.0192 Y3.564 I-0.7164 J0.1366
G1 X7.0192 Y4.8238
G3 X7.0063 Y4.9605 I-0.7293 J0
G3 X6.9711 Y5.0783 I-0.5924 J-0.113
G3 X6.9127 Y5.1865 I-0.5572 J-0.2308
G3 X6.8252 Y5.2922 I-0.6032 J-0.4099
G3 X6.7194 Y5.3797 I-0.5157 J-0.5157
G3 X6.6112 Y5.4381 I-0.339 J-0.4988
G3 X6.4934 Y5.4733 I-0.2308 J-0.5572
G3 X6.3568 Y5.4862 I-0.1366 J-0.7164
G3 X6.2202 Y5.4733 I0 J-0.7293
G3 X6.1024 Y5.4381 I0.113 J-0.5924
G3 X5.9942 Y5.3797 I0.2308 J-0.5572
G3 X5.8884 Y5.2922 I0.4099 J-0.6032
G3 X5.8009 Y5.1865 I0.5157 J-0.5157
G3 X5.7425 Y5.0783 I0.4988 J-0.339
G3 X5.7073 Y4.9605 I0.5572 J-0.2308
G3 X5.6944 Y4.8238 I0.7164 J-0.1366
G0 Z0.15
G0 X4.0566 Y4.4862
G1 Z-0.25 F30
G1 X4.0566 Y3.9016 F60
G1 X4.0901 Y3.9016
G1 X4.0901 Y4.4862
G1 X4.0566 Y4.4862
G1 X3.9566 Y4.5862 F60
G1 X3.9566 Y3.8016 F60
G1 X4.1901 Y3.8016
G1 X4.1901 Y4.5862
G1 X3.9566 Y4.5862
G1 X3.8566 Y4.6862 F60
G1 X3.8566 Y3.7016 F60
G1 X4.2901 Y3.7016
G1 X4.2901 Y4.6862
G1 X3.8566 Y4.6862
G1 X3.7566 Y4.7862 F60
G1 X3.7566 Y3.6016 F60
G1 X4.3901 Y3.6016
G1 X4.3901 Y4.7862
G1 X3.7566 Y4.7862
G0 Z0.15
G0 X3.0566 Y4.8238
G1 Z-0.25 F30
G1 X3.0566 Y3.564 F60
G3 X3.0695 Y3.4273 I0.7293 J0
G3 X3.1047 Y3.3095 I0.5924 J0.113
G3 X3.1631 Y3.2013 I0.5572 J0.2308
G3 X3.2506 Y3.0956 I0.6032 J0.4099
G3 X3.3564 Y3.0081 I0.5157 J0.5157
G3 X3.4646 Y2.9497 I0.339 J0.4988
G3 X3.5824 Y2.9145 I0.2308 J0.5572
G3 X3.719 Y2.9016 I0.1366 J0.7164
G1 X4.4277 Y2.9016
G3 X4.5991 Y2.9241 I0 J0.6624
G3 X4.7589 Y2.9903 I-0.1714 J0.6398
G3 X4.8961 Y3.0956 I-0.3312 J0.5737
G3 X5.0013 Y3.2328 I-0.4684 J0.4684
G3 X5.0675 Y3.3925 I-0.5737 J0.3312
G3 X5.0901 Y3.564 I-0.6398 J0.1714
G1 X5.0901 Y4.8238
G3 X5.0675 Y4.9953 I-0.6624 J0
G3 X5.0013 Y5.155 I-0.6398 J-0.1714
G3 X4.8961 Y5.2922 I-0.5737 J-0.3312
G3 X4.7589 Y5.3975 I-0.4684 J-0.4684
G3 X4.5991 Y5.4637 I-0.3312 J-0.5737
G3 X4.4277 Y5.4862 I-0.1714 J-0.6398
G1 X3.719 Y5.4862
G3 X3.5824 Y5.4733 I0 J-0.7293
G3 X3.4646 Y5.4381 I0.113 J-0.5924
G3 X3.3564 Y5.3797 I0.2308 J-0.5572
G3 X3.2506 Y5.2922 I0.4099 J-0.6032
G3 X3.1631 Y5.1865 I0.5157 J-0.5157
G3 X3.1047 Y5.0783 I0.4988 J-0.339
G3 X3.0695 Y4.9605 I0.5572 J-0.2308
G3 X3.0566 Y4.8238 I0.7164 J-0.1366
G0 Z0.15
G0 X1.8523 Y3.564
G1 Z-0.25 F30
G1 X1.8523 Y4.8238 F60
G3 X1.85 Y4.848 I-0.1293 J0
G1 X1.8498 Y4.8486
G1 X1.8495 Y4.8492
G3 X1.834 Y4.8679 I-0.1069 J-0.0727
G3 X1.8152 Y4.8835 I-0.0914 J-0.0914
G1 X1.8147 Y4.8838
G1 X1.8141 Y4.8839
G3 X1.7899 Y4.8862 I-0.0242 J-0.127
G3 X1.7656 Y4.8839 I0 J-0.1293
G1 X1.765 Y4.8838
G1 X1.7645 Y4.8835
G3 X1.7457 Y4.8679 I0.0727 J-0.1069
G3 X1.7302 Y4.8492 I0.0914 J-0.0914
G1 X1.7299 Y4.8486
G1 X1.7298 Y4.848
G3 X1.7275 Y4.8238 I0.127 J-0.0242
G1 X1.7275 Y3.564
G3 X1.7298 Y3.5398 I0.1293 J0
G1 X1.7299 Y3.5392
G1 X1.7302 Y3.5386
G3 X1.7457 Y3.5199 I0.1069 J0.0727
G3 X1.7645 Y3.5043 I0.0914 J0.0914
G1 X1.765 Y3.504
G1 X1.7656 Y3.5039
G3 X1.7899 Y3.5016 I0.0242 J0.127
G3 X1.8141 Y3.5039 I0 J0.1293
G1 X1.8147 Y3.504
G1 X1.8152 Y3.5043
G3 X1.834 Y3.5199 I-0.0727 J0.1069
G3 X1.8495 Y3.5386 I-0.0914 J0.0914
G1 X1.8498 Y3.5392
G1 X1.85 Y3.5398
G3 X1.8523 Y3.564 I-0.127 J0.0242
G1 X1.9523 Y3.564 F60
G1 X1.9523 Y4.8238 F60
G3 X1.9482 Y4.8668 I-0.2293 J0
G3 X1.9422 Y4.8869 I-0.1012 J-0.0193
G3 X1.9322 Y4.9054 I-0.0952 J-0.0394
G3 X1.9047 Y4.9387 I-0.1896 J-0.1289
G3 X1.8715 Y4.9662 I-0.1621 J-0.1621
G3 X1.853 Y4.9761 I-0.0579 J-0.0852
G3 X1.8328 Y4.9822 I-0.0394 J-0.0952
G3 X1.7899 Y4.9862 I-0.043 J-0.2252
G3 X1.7469 Y4.9822 I0 J-0.2293
G3 X1.7268 Y4.9761 I0.0193 J-0.1012
G3 X1.7083 Y4.9662 I0.0394 J-0.0952
G3 X1.675 Y4.9387 I0.1289 J-0.1896
G3 X1.6475 Y4.9054 I0.1621 J-0.1621
G3 X1.6376 Y4.8869 I0.0852 J-0.0579
G3 X1.6315 Y4.8668 I0.0952 J-0.0394
G3 X1.6275 Y4.8238 I0.2252 J-0.043
G1 X1.6275 Y3.564
G3 X1.6315 Y3.521 I0.2293 J0
G3 X1.6376 Y3.5009 I0.1012 J0.0193
G3 X1.6475 Y3.4824 I0.0952 J0.0394
G3 X1.675 Y3.4491 I0.1896 J0.1289
G3 X1.7083 Y3.4216 I0.1621 J0.1621
G3 X1.7268 Y3.4117 I0.0579 J0.0852
G3 X1.7469 Y3.4056 I0.0394 J0.0952
G3 X1.7899 Y3.4016 I0.043 J0.2252
G3 X1.8328 Y3.4056 I0 J0.2293
G3 X1.853 Y3.4117 I-0.0193 J0.1012
G3 X1.8715 Y3.4216 I-0.0394 J0.0952
G3 X1.9047 Y3.4491 I-0.1289 J0.1896
G3 X1.9322 Y3.4824 I-0.1621 J0.1621
G3 X1.9422 Y3.5009 I-0.0852 J0.0579
G3 X1.9482 Y3.521 I-0.0952 J0.0394
G3 X1.9523 Y3.564 I-0.2252 J0.043
G0 Z0.15
G0 X2.4523 Y3.564
G1 Z-0.25 F30
G1 X2.4523 Y4.8238 F60
G3 X2.4394 Y4.9605 I-0.7293 J0
G3 X2.4041 Y5.0783 I-0.5924 J-0.113
G3 X2.3458 Y5.1865 I-0.5572 J-0.2308
G3 X2.2583 Y5.2922 I-0.6032 J-0.4099
G3 X2.1525 Y5.3797 I-0.5157 J-0.5157
G3 X2.0443 Y5.4381 I-0.339 J-0.4988
G3 X1.9265 Y5.4733 I-0.2308 J-0.5572
G3 X1.7899 Y5.4862 I-0.1366 J-0.7164
G3 X1.6532 Y5.4733 I0 J-0.7293
G3 X1.5354 Y5.4381 I0.113 J-0.5924
G3 X1.4272 Y5.3797 I0.2308 J-0.5572
G3 X1.3215 Y5.2922 I0.4099 J-0.6032
G3 X1.234 Y5.1865 I0.5157 J-0.5157
G3 X1.1756 Y5.0783 I0.4988 J-0.339
G3 X1.1404 Y4.9605 I0.5572 J-0.2308
G3 X1.1275 Y4.8238 I0.7164 J-0.1366
G1 X1.1275 Y3.564
G3 X1.1404 Y3.4273 I0.7293 J0
G3 X1.1756 Y3.3095 I0.5924 J0.113
G3 X1.234 Y3.2013 I0.5572 J0.2308
G3 X1.3215 Y3.0956 I0.6032 J0.4099
G3 X1.4272 Y3.0081 I0.5157 J0.5157
G3 X1.5354 Y2.9497 I0.339 J0.4988
G3 X1.6532 Y2.9145 I0.2308 J0.5572
G3 X1.7899 Y2.9016 I0.1366 J0.7164
G3 X1.9265 Y2.9145 I0 J0.7293
G3 X2.0443 Y2.9497 I-0.113 J0.5924
G3 X2.1525 Y3.0081 I-0.2308 J0.5572
G3 X2.2583 Y3.0956 I-0.4099 J0.6032
G3 X2.3458 Y3.2013 I-0.5157 J0.5157
G3 X2.4041 Y3.3095 I-0.4988 J0.339
G3 X2.4394 Y3.4273 I-0.5572 J0.2308
G3 X2.4523 Y3.564 I-0.7164 J0.1366
G0 Z0.15
G0 X3.719 Y6.6906
G1 Z-0.25 F30
G1 X4.4277 Y6.6906 F60
G3 X4.4519 Y6.6928 I0 J0.1293
G1 X4.4525 Y6.693
G1 X4.453 Y6.6933
G3 X4.4718 Y6.7088 I-0.0727 J0.1069
G3 X4.4873 Y6.7276 I-0.0914 J0.0914
G1 X4.4876 Y6.7281
G1 X4.4878 Y6.7287
G3 X4.4901 Y6.753 I-0.127 J0.0242
G3 X4.4878 Y6.7772 I-0.1293 J0
G1 X4.4876 Y6.7778
G1 X4.4873 Y6.7783
G3 X4.4718 Y6.7971 I-0.1069 J-0.0727
G3 X4.453 Y6.8126 I-0.0914 J-0.0914
G1 X4.4525 Y6.8129
G1 X4.4519 Y6.8131
G3 X4.4277 Y6.8154 I-0.0242 J-0.127
G1 X3.719 Y6.8154
G3 X3.6948 Y6.8131 I0 J-0.1293
G1 X3.6942 Y6.8129
G1 X3.6936 Y6.8126
G3 X3.6749 Y6.7971 I0.0727 J-0.1069
G3 X3.6594 Y6.7783 I0.0914 J-0.0914
G1 X3.6591 Y6.7778
G1 X3.6589 Y6.7772
G3 X3.6566 Y6.753 I0.127 J-0.0242
G3 X3.6589 Y6.7287 I0.1293 J0
G1 X3.6591 Y6.7281
G1 X3.6594 Y6.7276
G3 X3.6749 Y6.7088 I0.1069 J0.0727
G3 X3.6936 Y6.6933 I0.0914 J0.0914
G1 X3.6942 Y6.693
G1 X3.6948 Y6.6928
G3 X3.719 Y6.6906 I0.0242 J0.127
G1 X3.719 Y6.5906 F60
G1 X4.4277 Y6.5906 F60
G3 X4.4706 Y6.5946 I0 J0.2293
G3 X4.4908 Y6.6006 I-0.0193 J0.1012
G3 X4.5093 Y6.6106 I-0.0394 J0.0952
G3 X4.5425 Y6.6381 I-0.1289 J0.1896
G3 X4.57 Y6.6714 I-0.1621 J0.1621
G3 X4.58 Y6.6899 I-0.0852 J0.0579
G3 X4.586 Y6.71 I-0.0952 J0.0394
G3 X4.5901 Y6.753 I-0.2252 J0.043
G3 X4.586 Y6.7959 I-0.2293 J0
G3 X4.58 Y6.816 I-0.1012 J-0.0193
G3 X4.57 Y6.8345 I-0.0952 J-0.0394
G3 X4.5425 Y6.8678 I-0.1896 J-0.1289
G3 X4.5093 Y6.8953 I-0.1621 J-0.1621
G3 X4.4908 Y6.9053 I-0.0579 J-0.0852
G3 X4.4706 Y6.9113 I-0.0394 J-0.0952
G3 X4.4277 Y6.9154 I-0.043 J-0.2252
G1 X3.719 Y6.9154
G3 X3.676 Y6.9113 I0 J-0.2293
G3 X3.6559 Y6.9053 I0.0193 J-0.1012
G3 X3.6374 Y6.8953 I0.0394 J-0.0952
G3 X3.6042 Y6.8678 I0.1289 J-0.1896
G3 X3.5767 Y6.8345 I0.1621 J-0.1621
G3 X3.5667 Y6.816 I0.0852 J-0.0579
G3 X3.5607 Y6.7959 I0.0952 J-0.0394
G3 X3.5566 Y6.753 I0.2252 J-0.043
G3 X3.5607 Y6.71 I0.2293 J0
G3 X3.5667 Y6.6899 I0.1012 J0.0193
G3 X3.5767 Y6.6714 I0.0952 J0.0394
G3 X3.6042 Y6.6381 I0.1896 J0.1289
G3 X3.6374 Y6.6106 I0.1621 J0.1621
G3 X3.6559 Y6.6006 I0.0579 J0.0852
G3 X3.676 Y6.5946 I0.0394 J0.0952
G3 X3.719 Y6.5906 I0.043 J0.2252
G1 X3.719 Y6.4906 F60
G1 X4.4277 Y6.4906 F60
G3 X4.4894 Y6.4964 I0 J0.3293
G3 X4.529 Y6.5082 I-0.038 J0.1995
G3 X4.5655 Y6.5279 I-0.0777 J0.1876
G3 X4.6132 Y6.5674 I-0.1851 J0.2724
G3 X4.6527 Y6.6152 I-0.2329 J0.2329
G3 X4.6724 Y6.6516 I-0.1679 J0.1141
G3 X4.6842 Y6.6913 I-0.1876 J0.0777
G3 X4.6901 Y6.753 I-0.3235 J0.0617
G3 X4.6842 Y6.8147 I-0.3293 J0
G3 X4.6724 Y6.8543 I-0.1995 J-0.038
G3 X4.6527 Y6.8907 I-0.1876 J-0.0777
G3 X4.6132 Y6.9385 I-0.2724 J-0.1851
G3 X4.5655 Y6.978 I-0.2329 J-0.2329
G3 X4.529 Y6.9977 I-0.1141 J-0.1679
G3 X4.4894 Y7.0095 I-0.0777 J-0.1876
G3 X4.4277 Y7.0154 I-0.0617 J-0.3235
G1 X3.719 Y7.0154
G3 X3.6573 Y7.0095 I0 J-0.3293
G3 X3.6176 Y6.9977 I0.038 J-0.1995
G3 X3.5812 Y6.978 I0.0777 J-0.1876
G3 X3.5335 Y6.9385 I0.1851 J-0.2724
G3 X3.494 Y6.8907 I0.2329 J-0.2329
G3 X3.4743 Y6.8543 I0.1679 J-0.1141
G3 X3.4624 Y6.8147 I0.1876 J-0.0777
G3 X3.4566 Y6.753 I0.3235 J-0.0617
G3 X3.4624 Y6.6913 I0.3293 J0
G3 X3.4743 Y6.6516 I0.1995 J0.038
G3 X3.494 Y6.6152 I0.1876 J0.0777
G3 X3.5335 Y6.5674 I0.2724 J0.1851
G3 X3.5812 Y6.5279 I0.2329 J0.2329
G3 X3.6176 Y6.5082 I0.1141 J0.1679
G3 X3.6573 Y6.4964 I0.0777 J0.1876
G3 X3.719 Y6.4906 I0.0617 J0.3235
G1 X3.719 Y6.3906 F60
G1 X4.4277 Y6.3906 F60
G3 X4.5081 Y6.3982 I0 J0.4293
G3 X4.5673 Y6.4159 I-0.0568 J0.2977
G3 X4.6217 Y6.4452 I-0.116 J0.28
G3 X4.6839 Y6.4967 I-0.2413 J0.3551
G3 X4.7354 Y6.559 I-0.3036 J0.3036
G3 X4.7648 Y6.6133 I-0.2507 J0.1704
G3 X4.7825 Y6.6725 I-0.28 J0.116
G3 X4.7901 Y6.753 I-0.4217 J0.0804
G3 X4.7825 Y6.8334 I-0.4293 J0
G3 X4.7648 Y6.8926 I-0.2977 J-0.0568
G3 X4.7354 Y6.947 I-0.28 J-0.116
G3 X4.6839 Y7.0092 I-0.3551 J-0.2413
G3 X4.6217 Y7.0607 I-0.3036 J-0.3036
G3 X4.5673 Y7.0901 I-0.1704 J-0.2507
G3 X4.5081 Y7.1078 I-0.116 J-0.28
G3 X4.4277 Y7.1154 I-0.0804 J-0.4217
G1 X3.719 Y7.1154
G3 X3.6386 Y7.1078 I0 J-0.4293
G3 X3.5794 Y7.0901 I0.0568 J-0.2977
G3 X3.525 Y7.0607 I0.116 J-0.28
G3 X3.4628 Y7.0092 I0.2413 J-0.3551
G3 X3.4113 Y6.947 I0.3036 J-0.3036
G3 X3.3819 Y6.8926 I0.2507 J-0.1704
G3 X3.3642 Y6.8334 I0.28 J-0.116
G3 X3.3566 Y6.753 I0.4217 J-0.0804
G3 X3.3642 Y6.6725 I0.4293 J0
G3 X3.3819 Y6.6133 I0.2977 J0.0568
G3 X3.4113 Y6.559 I0.28 J0.116
G3 X3.4628 Y6.4967 I0.3551 J0.2413
G3 X3.525 Y6.4452 I0.3036 J0.3036
G3 X3.5794 Y6.4159 I0.1704 J0.2507
G3 X3.6386 Y6.3982 I0.116 J0.28
G3 X3.719 Y6.3906 I0.0804 J0.4217
G1 X3.719 Y6.2906 F60
G1 X4.4277 Y6.2906 F60
G3 X4.5268 Y6.2999 I0 J0.5293
G3 X4.6056 Y6.3235 I-0.0755 J0.3959
G3 X4.6779 Y6.3625 I-0.1542 J0.3724
G3 X4.7546 Y6.426 I-0.2975 J0.4378
G3 X4.8181 Y6.5027 I-0.3743 J0.3743
G3 X4.8572 Y6.5751 I-0.3334 J0.2266
G3 X4.8807 Y6.6538 I-0.3724 J0.1542
G3 X4.8901 Y6.753 I-0.5199 J0.0992
G3 X4.8807 Y6.8521 I-0.5293 J0
G3 X4.8572 Y6.9309 I-0.3959 J-0.0755
G3 X4.8181 Y7.0032 I-0.3724 J-0.1542
G3 X4.7546 Y7.0799 I-0.4378 J-0.2975
G3 X4.6779 Y7.1434 I-0.3743 J-0.3743
G3 X4.6056 Y7.1824 I-0.2266 J-0.3334
G3 X4.5268 Y7.206 I-0.1542 J-0.3724
G3 X4.4277 Y7.2154 I-0.0992 J-0.5199
G1 X3.719 Y7.2154
G3 X3.6198 Y7.206 I0 J-0.5293
G3 X3.5411 Y7.1824 I0.0755 J-0.3959
G3 X3.4688 Y7.1434 I0.1542 J-0.3724
G3 X3.392 Y7.0799 I0.2975 J-0.4378
G3 X3.3285 Y7.0032 I0.3743 J-0.3743
G3 X3.2895 Y6.9309 I0.3334 J-0.2266
G3 X3.266 Y6.8521 I0.3724 J-0.1542
G3 X3.2566 Y6.753 I0.5199 J-0.0992
G3 X3.266 Y6.6538 I0.5293 J0
G3 X3.2895 Y6.5751 I0.3959 J0.0755
G3 X3.3285 Y6.5027 I0.3724 J0.1542
G3 X3.392 Y6.426 I0.4378 J0.2975
G3 X3.4688 Y6.3625 I0.3743 J0.3743
G3 X3.5411 Y6.3235 I0.2266 J0.3334
G3 X3.6198 Y6.2999 I0.1542 J0.3724
G3 X3.719 Y6.2906 I0.0992 J0.5199
G1 X3.719 Y6.1906 F60
G1 X4.4277 Y6.1906 F60
G3 X4.5456 Y6.2017 I0 J0.6293
G3 X4.6438 Y6.2311 I-0.0943 J0.4942
G3 X4.7341 Y6.2798 I-0.1925 J0.4648
G3 X4.8253 Y6.3553 I-0.3537 J0.5205
G3 X4.9008 Y6.4465 I-0.445 J0.445
G3 X4.9495 Y6.5368 I-0.4161 J0.2828
G3 X4.9789 Y6.635 I-0.4648 J0.1925
G3 X4.9901 Y6.753 I-0.6182 J0.1179
G3 X4.9789 Y6.8709 I-0.6293 J0
G3 X4.9495 Y6.9691 I-0.4942 J-0.0943
G3 X4.9008 Y7.0594 I-0.4648 J-0.1925
G3 X4.8253 Y7.1506 I-0.5205 J-0.3537
G3 X4.7341 Y7.2261 I-0.445 J-0.445
G3 X4.6438 Y7.2748 I-0.2828 J-0.4161
G3 X4.5456 Y7.3042 I-0.1925 J-0.4648
G3 X4.4277 Y7.3154 I-0.1179 J-0.6182
G1 X3.719 Y7.3154
G3 X3.6011 Y7.3042 I0 J-0.6293
G3 X3.5028 Y7.2748 I0.0943 J-0.4942
G3 X3.4126 Y7.2261 I0.1925 J-0.4648
G3 X3.3213 Y7.1506 I0.3537 J-0.5205
G3 X3.2458 Y7.0594 I0.445 J-0.445
G3 X3.1971 Y6.9691 I0.4161 J-0.2828
G3 X3.1678 Y6.8709 I0.4648 J-0.1925
G3 X3.1566 Y6.753 I0.6182 J-0.1179
G3 X3.1678 Y6.635 I0.6293 J0
G3 X3.1971 Y6.5368 I0.4942 J0.0943
G3 X3.2458 Y6.4465 I0.4648 J0.1925
G3 X3.3213 Y6.3553 I0.5205 J0.3537
G3 X3.4126 Y6.2798 I0.445 J0.445
G3 X3.5028 Y6.2311 I0.2828 J0.4161
G3 X3.6011 Y6.2017 I0.1925 J0.4648
G3 X3.719 Y6.1906 I0.1179 J0.6182
G1 X3.719 Y6.0906 F60
G1 X4.4277 Y6.0906 F60
G3 X4.5643 Y6.1035 I0 J0.7293
G3 X4.6821 Y6.1387 I-0.113 J0.5924
G3 X4.7903 Y6.1971 I-0.2308 J0.5572
G3 X4.8961 Y6.2846 I-0.4099 J0.6032
G3 X4.9835 Y6.3903 I-0.5157 J0.5157
G3 X5.0419 Y6.4985 I-0.4988 J0.339
G3 X5.0772 Y6.6163 I-0.5572 J0.2308
G3 X5.0901 Y6.753 I-0.7164 J0.1366
G3 X5.0772 Y6.8896 I-0.7293 J0
G3 X5.0419 Y7.0074 I-0.5924 J-0.113
G3 X4.9835 Y7.1156 I-0.5572 J-0.2308
G3 X4.8961 Y7.2213 I-0.6032 J-0.4099
G3 X4.7903 Y7.3088 I-0.5157 J-0.5157
G3 X4.6821 Y7.3672 I-0.339 J-0.4988
G3 X4.5643 Y7.4024 I-0.2308 J-0.5572
G3 X4.4277 Y7.4154 I-0.1366 J-0.7164
G1 X3.719 Y7.4154
G3 X3.5824 Y7.4024 I0 J-0.7293
G3 X3.4646 Y7.3672 I0.113 J-0.5924
G3 X3.3564 Y7.3088 I0.2308 J-0.5572
G3 X3.2506 Y7.2213 I0.4099 J-0.6032
G3 X3.1631 Y7.1156 I0.5157 J-0.5157
G3 X3.1047 Y7.0074 I0.4988 J-0.339
G3 X3.0695 Y6.8896 I0.5572 J-0.2308
G3 X3.0566 Y6.753 I0.7164 J-0.1366
G3 X3.0695 Y6.6163 I0.7293 J0
G3 X3.1047 Y6.4985 I0.5924 J0.113
G3 X3.1631 Y6.3903 I0.5572 J0.2308
G3 X3.2506 Y6.2846 I0.6032 J0.4099
G3 X3.3564 Y6.1971 I0.5157 J0.5157
G3 X3.4646 Y6.1387 I0.339 J0.4988
G3 X3.5824 Y6.1035 I0.2308 J0.5572
G3 X3.719 Y6.0906 I0.1366 J0.7164
G0 Z0.15
G0 X4.4277 Y1.6972
G1 Z-0.25 F30
G1 X3.719 Y1.6972 F60
G3 X3.6948 Y1.695 I0 J-0.1293
G1 X3.6942 Y1.6948
G1 X3.6936 Y1.6945
G3 X3.6749 Y1.679 I0.0727 J-0.1069
G3 X3.6594 Y1.6602 I0.0914 J-0.0914
G1 X3.6591 Y1.6597
G1 X3.6589 Y1.6591
G3 X3.6566 Y1.6348 I0.127 J-0.0242
G3 X3.6589 Y1.6106 I0.1293 J0
G1 X3.6591 Y1.61
G1 X3.6594 Y1.6095
G3 X3.6749 Y1.5907 I0.1069 J0.0727
G3 X3.6936 Y1.5752 I0.0914 J0.0914
G1 X3.6942 Y1.5749
G1 X3.6948 Y1.5747
G3 X3.719 Y1.5724 I0.0242 J0.127
G1 X4.4277 Y1.5724
G3 X4.4519 Y1.5747 I0 J0.1293
G1 X4.4525 Y1.5749
G1 X4.453 Y1.5752
G3 X4.4718 Y1.5907 I-0.0727 J0.1069
G3 X4.4873 Y1.6095 I-0.0914 J0.0914
G1 X4.4876 Y1.61
G1 X4.4878 Y1.6106
G3 X4.4901 Y1.6348 I-0.127 J0.0242
G3 X4.4878 Y1.6591 I-0.1293 J0
G1 X4.4876 Y1.6597
G1 X4.4873 Y1.6602
G3 X4.4718 Y1.679 I-0.1069 J-0.0727
G3 X4.453 Y1.6945 I-0.0914 J-0.0914
G1 X4.4525 Y1.6948
G1 X4.4519 Y1.695
G3 X4.4277 Y1.6972 I-0.0242 J-0.127
G1 X4.4277 Y1.7972 F60
G1 X3.719 Y1.7972 F60
G3 X3.676 Y1.7932 I0 J-0.2293
G3 X3.6559 Y1.7872 I0.0193 J-0.1012
G3 X3.6374 Y1.7772 I0.0394 J-0.0952
G3 X3.6042 Y1.7497 I0.1289 J-0.1896
G3 X3.5767 Y1.7164 I0.1621 J-0.1621
G3 X3.5667 Y1.6979 I0.0852 J-0.0579
G3 X3.5607 Y1.6778 I0.0952 J-0.0394
G3 X3.5566 Y1.6348 I0.2252 J-0.043
G3 X3.5607 Y1.5919 I0.2293 J0
G3 X3.5667 Y1.5718 I0.1012 J0.0193
G3 X3.5767 Y1.5533 I0.0952 J0.0394
G3 X3.6042 Y1.52 I0.1896 J0.1289
G3 X3.6374 Y1.4925 I0.1621 J0.1621
G3 X3.6559 Y1.4825 I0.0579 J0.0852
G3 X3.676 Y1.4765 I0.0394 J0.0952
G3 X3.719 Y1.4724 I0.043 J0.2252
G1 X4.4277 Y1.4724
G3 X4.4706 Y1.4765 I0 J0.2293
G3 X4.4908 Y1.4825 I-0.0193 J0.1012
G3 X4.5093 Y1.4925 I-0.0394 J0.0952
G3 X4.5425 Y1.52 I-0.1289 J0.1896
G3 X4.57 Y1.5533 I-0.1621 J0.1621
G3 X4.58 Y1.5718 I-0.0852 J0.0579
G3 X4.586 Y1.5919 I-0.0952 J0.0394
G3 X4.5901 Y1.6348 I-0.2252 J0.043
G3 X4.586 Y1.6778 I-0.2293 J0
G3 X4.58 Y1.6979 I-0.1012 J-0.0193
G3 X4.57 Y1.7164 I-0.0952 J-0.0394
G3 X4.5425 Y1.7497 I-0.1896 J-0.1289
G3 X4.5093 Y1.7772 I-0.1621 J-0.1621
G3 X4.4908 Y1.7872 I-0.0579 J-0.0852
G3 X4.4706 Y1.7932 I-0.0394 J-0.0952
G3 X4.4277 Y1.7972 I-0.043 J-0.2252
G1 X4.4277 Y1.8972 F60
G1 X3.719 Y1.8972 F60
G3 X3.6573 Y1.8914 I0 J-0.3293
G3 X3.6176 Y1.8796 I0.038 J-0.1995
G3 X3.5812 Y1.8599 I0.0777 J-0.1876
G3 X3.5335 Y1.8204 I0.1851 J-0.2724
G3 X3.494 Y1.7726 I0.2329 J-0.2329
G3 X3.4743 Y1.7362 I0.1679 J-0.1141
G3 X3.4624 Y1.6965 I0.1876 J-0.0777
G3 X3.4566 Y1.6348 I0.3235 J-0.0617
G3 X3.4624 Y1.5731 I0.3293 J0
G3 X3.4743 Y1.5335 I0.1995 J0.038
G3 X3.494 Y1.497 I0.1876 J0.0777
G3 X3.5335 Y1.4493 I0.2724 J0.1851
G3 X3.5812 Y1.4098 I0.2329 J0.2329
G3 X3.6176 Y1.3901 I0.1141 J0.1679
G3 X3.6573 Y1.3783 I0.0777 J0.1876
G3 X3.719 Y1.3724 I0.0617 J0.3235
G1 X4.4277 Y1.3724
G3 X4.4894 Y1.3783 I0 J0.3293
G3 X4.529 Y1.3901 I-0.038 J0.1995
G3 X4.5655 Y1.4098 I-0.0777 J0.1876
G3 X4.6132 Y1.4493 I-0.1851 J0.2724
G3 X4.6527 Y1.497 I-0.2329 J0.2329
G3 X4.6724 Y1.5335 I-0.1679 J0.1141
G3 X4.6842 Y1.5731 I-0.1876 J0.0777
G3 X4.6901 Y1.6348 I-0.3235 J0.0617
G3 X4.6842 Y1.6965 I-0.3293 J0
G3 X4.6724 Y1.7362 I-0.1995 J-0.038
G3 X4.6527 Y1.7726 I-0.1876 J-0.0777
G3 X4.6132 Y1.8204 I-0.2724 J-0.1851
G3 X4.5655 Y1.8599 I-0.2329 J-0.2329
G3 X4.529 Y1.8796 I-0.1141 J-0.1679
G3 X4.4894 Y1.8914 I-0.0777 J-0.1876
G3 X4.4277 Y1.8972 I-0.0617 J-0.3235
G1 X4.4277 Y1.9972 F60
G1 X3.719 Y1.9972 F60
G3 X3.6386 Y1.9896 I0 J-0.4293
G3 X3.5794 Y1.9719 I0.0568 J-0.2977
G3 X3.525 Y1.9426 I0.116 J-0.28
G3 X3.4628 Y1.8911 I0.2413 J-0.3551
G3 X3.4113 Y1.8288 I0.3036 J-0.3036
G3 X3.3819 Y1.7745 I0.2507 J-0.1704
G3 X3.3642 Y1.7153 I0.28 J-0.116
G3 X3.3566 Y1.6348 I0.4217 J-0.0804
G3 X3.3642 Y1.5544 I0.4293 J0
G3 X3.3819 Y1.4952 I0.2977 J0.0568
G3 X3.4113 Y1.4408 I0.28 J0.116
G3 X3.4628 Y1.3786 I0.3551 J0.2413
G3 X3.525 Y1.3271 I0.3036 J0.3036
G3 X3.5794 Y1.2977 I0.1704 J0.2507
G3 X3.6386 Y1.28 I0.116 J0.28
G3 X3.719 Y1.2724 I0.0804 J0.4217
G1 X4.4277 Y1.2724
G3 X4.5081 Y1.28 I0 J0.4293
G3 X4.5673 Y1.2977 I-0.0568 J0.2977
G3 X4.6217 Y1.3271 I-0.116 J0.28
G3 X4.6839 Y1.3786 I-0.2413 J0.3551
G3 X4.7354 Y1.4408 I-0.3036 J0.3036
G3 X4.7648 Y1.4952 I-0.2507 J0.1704
G3 X4.7825 Y1.5544 I-0.28 J0.116
G3 X4.7901 Y1.6348 I-0.4217 J0.0804
G3 X4.7825 Y1.7153 I-0.4293 J0
G3 X4.7648 Y1.7745 I-0.2977 J-0.0568
G3 X4.7354 Y1.8288 I-0.28 J-0.116
G3 X4.6839 Y1.8911 I-0.3551 J-0.2413
G3 X4.6217 Y1.9426 I-0.3036 J-0.3036
G3 X4.5673 Y1.9719 I-0.1704 J-0.2507
G3 X4.5081 Y1.9896 I-0.116 J-0.28
G3 X4.4277 Y1.9972 I-0.0804 J-0.4217
G1 X4.4277 Y2.0972 F60
G1 X3.719 Y2.0972 F60
G3 X3.6198 Y2.0879 I0 J-0.5293
G3 X3.5411 Y2.0643 I0.0755 J-0.3959
G3 X3.4688 Y2.0253 I0.1542 J-0.3724
G3 X3.392 Y1.9618 I0.2975 J-0.4378
G3 X3.3285 Y1.8851 I0.3743 J-0.3743
G3 X3.2895 Y1.8127 I0.3334 J-0.2266
G3 X3.266 Y1.734 I0.3724 J-0.1542
G3 X3.2566 Y1.6348 I0.5199 J-0.0992
G3 X3.266 Y1.5357 I0.5293 J0
G3 X3.2895 Y1.4569 I0.3959 J0.0755
G3 X3.3285 Y1.3846 I0.3724 J0.1542
G3 X3.392 Y1.3079 I0.4378 J0.2975
G3 X3.4688 Y1.2444 I0.3743 J0.3743
G3 X3.5411 Y1.2054 I0.2266 J0.3334
G3 X3.6198 Y1.1818 I0.1542 J0.3724
G3 X3.719 Y1.1724 I0.0992 J0.5199
G1 X4.4277 Y1.1724
G3 X4.5268 Y1.1818 I0 J0.5293
G3 X4.6056 Y1.2054 I-0.0755 J0.3959
G3 X4.6779 Y1.2444 I-0.1542 J0.3724
G3 X4.7546 Y1.3079 I-0.2975 J0.4378
G3 X4.8181 Y1.3846 I-0.3743 J0.3743
G3 X4.8572 Y1.4569 I-0.3334 J0.2266
G3 X4.8807 Y1.5357 I-0.3724 J0.1542
G3 X4.8901 Y1.6348 I-0.5199 J0.0992
G3 X4.8807 Y1.734 I-0.5293 J0
G3 X4.8572 Y1.8127 I-0.3959 J-0.0755
G3 X4.8181 Y1.8851 I-0.3724 J-0.1542
G3 X4.7546 Y1.9618 I-0.4378 J-0.2975
G3 X4.6779 Y2.0253 I-0.3743 J-0.3743
G3 X4.6056 Y2.0643 I-0.2266 J-0.3334
G3 X4.5268 Y2.0879 I-0.1542 J-0.3724
G3 X4.4277 Y2.0972 I-0.0992 J-0.5199
G1 X4.4277 Y2.1972 F60
G1 X3.719 Y2.1972 F60
G3 X3.6011 Y2.1861 I0 J-0.6293
G3 X3.5028 Y2.1567 I0.0943 J-0.4942
G3 X3.4126 Y2.108 I0.1925 J-0.4648
G3 X3.3213 Y2.0325 I0.3537 J-0.5205
G3 X3.2458 Y1.9413 I0.445 J-0.445
G3 X3.1971 Y1.851 I0.4161 J-0.2828
G3 X3.1678 Y1.7528 I0.4648 J-0.1925
G3 X3.1566 Y1.6348 I0.6182 J-0.1179
G3 X3.1678 Y1.5169 I0.6293 J0
G3 X3.1971 Y1.4187 I0.4942 J0.0943
G3 X3.2458 Y1.3284 I0.4648 J0.1925
G3 X3.3213 Y1.2372 I0.5205 J0.3537
G3 X3.4126 Y1.1617 I0.445 J0.445
G3 X3.5028 Y1.113 I0.2828 J0.4161
G3 X3.6011 Y1.0836 I0.1925 J0.4648
G3 X3.719 Y1.0724 I0.1179 J0.6182
G1 X4.4277 Y1.0724
G3 X4.5456 Y1.0836 I0 J0.6293
G3 X4.6438 Y1.113 I-0.0943 J0.4942
G3 X4.7341 Y1.1617 I-0.1925 J0.4648
G3 X4.8253 Y1.2372 I-0.3537 J0.5205
G3 X4.9008 Y1.3284 I-0.445 J0.445
G3 X4.9495 Y1.4187 I-0.4161 J0.2828
G3 X4.9789 Y1.5169 I-0.4648 J0.1925
G3 X4.9901 Y1.6348 I-0.6182 J0.1179
G3 X4.9789 Y1.7528 I-0.6293 J0
G3 X4.9495 Y1.851 I-0.4942 J-0.0943
G3 X4.9008 Y1.9413 I-0.4648 J-0.1925
G3 X4.8253 Y2.0325 I-0.5205 J-0.3537
G3 X4.7341 Y2.108 I-0.445 J-0.445
G3 X4.6438 Y2.1567 I-0.2828 J-0.4161
G3 X4.5456 Y2.1861 I-0.1925 J-0.4648
G3 X4.4277 Y2.1972 I-0.1179 J-0.6182
G1 X4.4277 Y2.2972 F60
G1 X3.719 Y2.2972 F60
G3 X3.5824 Y2.2843 I0 J-0.7293
G3 X3.4646 Y2.2491 I0.113 J-0.5924
G3 X3.3564 Y2.1907 I0.2308 J-0.5572
G3 X3.2506 Y2.1032 I0.4099 J-0.6032
G3 X3.1631 Y1.9975 I0.5157 J-0.5157
G3 X3.1047 Y1.8893 I0.4988 J-0.339
G3 X3.0695 Y1.7715 I0.5572 J-0.2308
G3 X3.0566 Y1.6348 I0.7164 J-0.1366
G3 X3.0695 Y1.4982 I0.7293 J0
G3 X3.1047 Y1.3804 I0.5924 J0.113
G3 X3.1631 Y1.2722 I0.5572 J0.2308
G3 X3.2506 Y1.1665 I0.6032 J0.4099
G3 X3.3564 Y1.079 I0.5157 J0.5157
G3 X3.4646 Y1.0206 I0.339 J0.4988
G3 X3.5824 Y0.9854 I0.2308 J0.5572
G3 X3.719 Y0.9724 I0.1366 J0.7164
G1 X4.4277 Y0.9724
G3 X4.5643 Y0.9854 I0 J0.7293
G3 X4.6821 Y1.0206 I-0.113 J0.5924
G3 X4.7903 Y1.079 I-0.2308 J0.5572
G3 X4.8961 Y1.1665 I-0.4099 J0.6032
G3 X4.9835 Y1.2722 I-0.5157 J0.5157
G3 X5.0419 Y1.3804 I-0.4988 J0.339
G3 X5.0772 Y1.4982 I-0.5572 J0.2308
G3 X5.0901 Y1.6348 I-0.7164 J0.1366
G3 X5.0772 Y1.7715 I-0.7293 J0
G3 X5.0419 Y1.8893 I-0.5924 J-0.113
G3 X4.9835 Y1.9975 I-0.5572 J-0.2308
G3 X4.8961 Y2.1032 I-0.6032 J-0.4099
G3 X4.7903 Y2.1907 I-0.5157 J-0.5157
G3 X4.6821 Y2.2491 I-0.339 J-0.4988
G3 X4.5643 Y2.2843 I-0.2308 J-0.5572
G3 X4.4277 Y2.2972 I-0.1366 J-0.7164
G0 Z0.15
G0 X6.3326 Y1.5747
G1 Z-0.25 F30
G3 X6.3568 Y1.5724 I0.0242 J0.127 F60
G3 X6.373 Y1.5746 I0 J0.0624
G3 X6.388 Y1.5808 I-0.0162 J0.0603
G3 X6.4009 Y1.5907 I-0.0312 J0.054
G3 X6.4108 Y1.6036 I-0.0441 J0.0441
G3 X6.4171 Y1.6187 I-0.054 J0.0312
G3 X6.4192 Y1.6348 I-0.0603 J0.0162
G3 X6.4169 Y1.6591 I-0.1293 J0
G1 X6.4167 Y1.6597
G1 X6.4164 Y1.6602
G3 X6.4009 Y1.679 I-0.1069 J-0.0727
G3 X6.3822 Y1.6945 I-0.0914 J-0.0914
G1 X6.3816 Y1.6948
G1 X6.381 Y1.695
G3 X6.3568 Y1.6972 I-0.0242 J-0.127
G3 X6.3326 Y1.695 I0 J-0.1293
G1 X6.332 Y1.6948
G1 X6.3314 Y1.6945
G3 X6.3127 Y1.679 I0.0727 J-0.1069
